; LightBurn 1.2.01
; GRBL device profile, current position
; Bounds: X-1.67 Y0.01 to X2.85 Y1.36
G00 G17 G40 G21 G54
G91
M4
; Cut @ 4999.998 mm/min, 0% power
M8
G0 X0.401Y0.037
; Layer Lim
G1 X0.1S0F5000
; Scan @ 4000.002 mm/min, 70% power
M8
G0 X-1.796Y-0.029
; Layer C02
G1 X1.666F4000S0
G1 X0.115S700
G1 X1.666S0
G1 X0.694Y0.05S0
G1 X-1.667S0
G1 X-0.228S700
G1 X-0.273S0
G1 X-0.471S700
G1 X-1.667S0
G1 X-0.078Y0.05S0
G1 X1.667S0
G1 X0.658S700
G1 X0.146S0
G1 X0.223S700
G1 X1.667S0
G1 X-0.011Y0.05S0
G1 X-1.666S0
G1 X-0.223S700
G1 X-0.064S0
G1 X-0.789S700
G1 X-1.666S0
G1 X-0.029Y0.05S0
G1 X1.667S0
G1 X0.304S700
G1 X0.299S0
G1 X0.491S700
G1 X1.667S0
G1 X-0.009Y0.05S0
G1 X-1.667S0
G1 X-0.384S700
G1 X-0.466S0
G1 X-0.257S700
G1 X-1.666S0
G1 X-0.019Y0.05S0
G1 X1.667S0
G1 X0.244S700
G1 X0.56S0
G1 X0.317S700
G1 X1.667S0
G1 Y0.05S0
G1 X-1.668S0
G1 X-0.285S700
G1 X-0.604S0
G1 X-0.232S700
G1 X-1.667S0
G1 Y0.05S0
G1 X1.666S0
G1 X0.234S700
G1 X0.628S0
G1 X0.259S700
G1 X1.666S0
G1 Y0.05S0
G1 X-1.667S0
G1 X-0.24S700
G1 X-0.634S0
G1 X-0.24S700
G1 X-1.667S0
G1 X0.02Y0.05S0
G1 X1.666S0
G1 X0.253S700
G1 X0.615S0
G1 X0.227S700
G1 X1.666S0
G1 Y0.05S0
G1 X-1.666S0
G1 X-0.22S700
G1 X-0.562S0
G1 X-0.293S700
G1 X-1.667S0
G1 X0.039Y0.05S0
G1 X1.667S0
G1 X0.473S700
G1 X0.345S0
G1 X0.218S700
G1 X1.666S0
G1 Y0.05S0
G1 X-1.667S0
G1 X-0.22S700
G1 X-0.1S0
G1 X-0.667S700
G1 X-1.667S0
G1 X0.072Y0.05S0
G1 X1.666S0
G1 X0.916S700
G1 X1.667S0
G1 Y0.05S0
G1 X-1.667S0
G1 X-0.709S700
G1 X-1.667S0
G1 X0.243Y0.05S0
G1 X1.667S0
G1 X0.466S700
G1 X1.667S0
G1 Y0.05S0
G1 X-1.667S0
G1 X-0.229S700
G1 X-1.667S0
G1 X0.008Y0.05S0
G1 X1.667S0
G1 X0.222S700
G1 X1.666S0
G1 Y0.05S0
G1 X-1.665S0
G1 X-0.227S700
G1 X-0.637S0
G1 X-0.185S700
G1 X-1.667S0
G1 X-0.023Y0.05S0
G1 X1.667S0
G1 X0.227S700
G1 X0.613S0
G1 X0.233S700
G1 X1.667S0
G1 X-0.006Y0.05S0
G1 X-1.667S0
G1 X-0.253S700
G1 X-0.563S0
G1 X-0.233S700
G1 X-1.667S0
G1 X0.018Y0.05S0
G1 X1.667S0
G1 X0.267S700
G1 X0.476S0
G1 X0.267S700
G1 X1.666S0
G1 X-0.021Y0.05S0
G1 X-1.667S0
G1 X-0.321S700
G1 X-0.317S0
G1 X-0.317S700
G1 X-1.666S0
G1 X0.045Y0.05S0
G1 X1.666S0
G1 X0.88S700
G1 X1.667S0
G1 X-0.058Y0.05S0
G1 X-1.667S0
G1 X-0.777S700
G1 X-1.667S0
G1 X0.109Y0.05S0
G1 X1.666S0
G1 X0.607S700
G1 X1.666S0
G1 X-0.211Y0.05S0
G1 X-1.667S0
G1 X-0.19S700
G1 X-1.666S0
M9
G1 S0
M5
; return to starting pos
G0 X1.145Y-1.358
M2
