; LightBurn 1.2.01
; GRBL device profile, current position
; Bounds: X-1.66 Y0.03 to X2.16 Y2.28
G00 G17 G40 G21 G54
G91
M4
; Cut @ 4999.998 mm/min, 0% power
M8
G0 X0.611Y0.525
; Layer Lim
G1 X0.1S0F5000
; Scan @ 4000.002 mm/min, 70% power
M8
G0 X-2.375Y-0.493
; Layer C02
G1 X1.666F4000S0
G1 X0.329S700
G1 X1.667S0
G1 X0.07Y0.05S0
G1 X-1.667S0
G1 X-0.388S700
G1 X-1.666S0
G1 X0.011Y0.05S0
G1 X1.666S0
G1 X0.415S700
G1 X1.667S0
G1 X0.025Y0.05S0
G1 X-1.666S0
G1 X-0.43S700
G1 X-1.666S0
G1 X0.194Y0.05S0
G1 X1.667S0
G1 X0.248S700
G1 X1.666S0
G1 X0.009Y0.05S0
G1 X-1.667S0
G1 X-0.223S700
G1 X-1.667S0
G1 X0.019Y0.05S0
G1 X1.667S0
G1 X0.21S700
G1 X1.667S0
G1 Y0.05S0
G1 X-1.663S0
G1 X-0.207S700
G1 X-1.667S0
G1 X-0.006Y0.05S0
G1 X1.667S0
G1 X0.214S700
G1 X1.667S0
G1 Y0.05S0
G1 X-1.666S0
G1 X-0.22S700
G1 X-1.666S0
G1 Y0.05S0
G1 X1.666S0
G1 X0.22S700
G1 X1.667S0
G1 Y0.05S0
G1 X-1.667S0
G1 X-0.22S700
G1 X-1.666S0
G1 Y0.05S0
G1 X1.666S0
G1 X0.22S700
G1 X1.667S0
G1 Y0.05S0
G1 X-1.667S0
G1 X-0.22S700
G1 X-1.666S0
G1 Y0.05S0
G1 X1.666S0
G1 X0.22S700
G1 X1.667S0
G1 Y0.05S0
G1 X-1.667S0
G1 X-0.22S700
G1 X-1.666S0
G1 Y0.05S0
G1 X1.666S0
G1 X0.22S700
G1 X1.667S0
G1 Y0.05S0
G1 X-1.667S0
G1 X-0.22S700
G1 X-1.666S0
G1 Y0.05S0
G1 X1.666S0
G1 X0.22S700
G1 X1.667S0
G1 Y0.05S0
G1 X-1.667S0
G1 X-0.22S700
G1 X-1.666S0
G1 Y0.05S0
G1 X1.666S0
G1 X0.22S700
G1 X1.667S0
G1 Y0.05S0
G1 X-1.667S0
G1 X-0.22S700
G1 X-1.666S0
G1 Y0.05S0
G1 X1.666S0
G1 X0.22S700
G1 X1.667S0
G1 Y0.05S0
G1 X-1.667S0
G1 X-0.22S700
G1 X-1.666S0
G1 Y0.05S0
G1 X1.666S0
G1 X0.22S700
G1 X1.667S0
G1 Y0.05S0
G1 X-1.667S0
G1 X-0.22S700
G1 X-1.666S0
G1 Y0.05S0
G1 X1.666S0
G1 X0.22S700
G1 X1.667S0
G1 Y0.05S0
G1 X-1.667S0
G1 X-0.22S700
G1 X-1.666S0
G1 Y0.05S0
G1 X1.666S0
G1 X0.22S700
G1 X1.667S0
G1 Y0.05S0
G1 X-1.667S0
G1 X-0.22S700
G1 X-1.666S0
G1 Y0.05S0
G1 X1.666S0
G1 X0.22S700
G1 X1.667S0
G1 Y0.05S0
G1 X-1.667S0
G1 X-0.22S700
G1 X-1.666S0
G1 Y0.05S0
G1 X1.666S0
G1 X0.22S700
G1 X1.667S0
G1 Y0.05S0
G1 X-1.667S0
G1 X-0.22S700
G1 X-1.666S0
G1 Y0.05S0
G1 X1.666S0
G1 X0.22S700
G1 X1.667S0
G1 Y0.05S0
G1 X-1.667S0
G1 X-0.22S700
G1 X-1.666S0
G1 Y0.3S0
G1 X1.666S0
G1 X0.22S700
G1 X1.667S0
G1 Y0.05S0
G1 X-1.667S0
G1 X-0.22S700
G1 X-1.666S0
G1 Y0.05S0
G1 X1.666S0
G1 X0.22S700
G1 X1.667S0
G1 Y0.05S0
G1 X-1.667S0
G1 X-0.22S700
G1 X-1.666S0
G1 Y0.05S0
G1 X1.666S0
G1 X0.22S700
G1 X1.667S0
M9
G1 S0
M5
; return to starting pos
G0 X-2.165Y-2.282
M2
