; LightBurn 1.2.01
; GRBL device profile, current position
; Bounds: X-1.67 Y0 to X2.73 Y1.77
G00 G17 G40 G21 G54
G91
M4
; Cut @ 4999.998 mm/min, 0% power
M8
G0 X0.33Y0
; Layer Lim
G1 X0.1S0F5000
; Scan @ 4000.002 mm/min, 70% power
M8
G0 X-2.097Y0.02
; Layer C02
G1 X1.667F4000S0
G1 X0.22S700
G1 X0.571S0
G1 X0.27S700
G1 X1.667S0
G1 X-0.034Y0.05S0
G1 X-1.666S0
G1 X-0.27S700
G1 X-0.538S0
G1 X-0.22S700
G1 X-1.667S0
G1 Y0.05S0
G1 X1.667S0
G1 X0.22S700
G1 X0.506S0
G1 X0.268S700
G1 X1.667S0
G1 X-0.033Y0.05S0
G1 X-1.667S0
G1 X-0.267S700
G1 X-0.474S0
G1 X-0.22S700
G1 X-1.667S0
G1 Y0.05S0
G1 X1.667S0
G1 X0.22S700
G1 X0.441S0
G1 X0.266S700
G1 X1.667S0
G1 X-0.033Y0.05S0
G1 X-1.667S0
G1 X-0.265S700
G1 X-0.409S0
G1 X-0.22S700
G1 X-1.667S0
G1 Y0.05S0
G1 X1.667S0
G1 X0.22S700
G1 X0.377S0
G1 X0.264S700
G1 X1.666S0
G1 X-0.033Y0.05S0
G1 X-1.667S0
G1 X-0.263S700
G1 X-0.344S0
G1 X-0.22S700
G1 X-1.667S0
G1 Y0.05S0
G1 X1.667S0
G1 X0.22S700
G1 X0.312S0
G1 X0.262S700
G1 X1.666S0
G1 X-0.033Y0.05S0
G1 X-1.667S0
G1 X-0.261S700
G1 X-0.279S0
G1 X-0.22S700
G1 X-1.667S0
G1 Y0.05S0
G1 X1.667S0
G1 X0.226S700
G1 X0.241S0
G1 X0.26S700
G1 X1.666S0
G1 X-0.033Y0.05S0
G1 X-1.667S0
G1 X-0.258S700
G1 X-0.157S0
G1 X-0.278S700
G1 X-1.667S0
G1 Y0.05S0
G1 X1.667S0
G1 X0.33S700
G1 X0.072S0
G1 X0.258S700
G1 X1.666S0
G1 X-0.033Y0.05S0
G1 X-1.667S0
G1 X-0.626S700
G1 X-1.667S0
G1 Y0.05S0
G1 X1.667S0
G1 X0.593S700
G1 X1.667S0
G1 X-0.034Y0.05S0
G1 X-1.667S0
G1 X-0.338S700
G1 X-0.221
G1 X-1.667S0
G1 Y0.05S0
G1 X1.667S0
G1 X0.22S700
G1 X0.05S0
G1 X0.263S700
G1 X1.667S0
G1 X0.051Y0.05S0
G1 X-1.667S0
G1 X-0.265S700
G1 X-0.099S0
G1 X-0.22S700
G1 X-1.667S0
G1 Y0.05S0
G1 X1.667S0
G1 X0.22S700
G1 X0.149S0
G1 X0.267S700
G1 X1.667S0
G1 X0.051Y0.05S0
G1 X-1.666S0
G1 X-0.27S700
G1 X-0.198S0
G1 X-0.22S700
G1 X-1.667S0
G1 Y0.05S0
G1 X1.667S0
G1 X0.22S700
G1 X0.247S0
G1 X0.272S700
G1 X1.667S0
G1 X0.051Y0.05S0
G1 X-1.666S0
G1 X-0.274S700
G1 X-0.297S0
G1 X-0.22S700
G1 X-1.667S0
G1 Y0.05S0
G1 X1.667S0
G1 X0.22S700
G1 X0.346S0
G1 X0.276S700
G1 X1.667S0
G1 X0.052Y0.05S0
G1 X-1.667S0
G1 X-0.279S700
G1 X-0.395S0
G1 X-0.22S700
G1 X-1.667S0
G1 Y0.05S0
G1 X1.667S0
G1 X0.22S700
G1 X0.444S0
G1 X0.281S700
G1 X1.667S0
G1 X0.052Y0.05S0
G1 X-1.667S0
G1 X-0.283S700
G1 X-0.494S0
G1 X-0.22S700
G1 X-1.667S0
G1 Y0.05S0
G1 X1.667S0
G1 X0.22S700
G1 X1.667S0
G1 Y0.05S0
G1 X-1.667S0
G1 X-0.22S700
G1 X-1.667S0
G1 Y0.05S0
G1 X1.667S0
G1 X0.22S700
G1 X1.667S0
G1 Y0.05S0
G1 X-1.667S0
G1 X-0.22S700
G1 X-1.667S0
G1 Y0.05S0
G1 X1.667S0
G1 X0.22S700
G1 X1.667S0
G1 Y0.05S0
G1 X-1.667S0
G1 X-0.22S700
G1 X-1.667S0
G1 Y0.05S0
G1 X1.667S0
G1 X0.22S700
G1 X1.667S0
G1 Y0.05S0
G1 X-1.667S0
G1 X-0.22S700
G1 X-1.667S0
G1 Y0.05S0
G1 X1.667S0
G1 X0.22S700
G1 X1.667S0
G1 Y0.05S0
G1 X-1.667S0
G1 X-0.22S700
G1 X-1.667S0
M9
G1 S0
M5
; return to starting pos
G0 X1.667Y-1.77
M2
