; LightBurn 1.2.01
; GRBL device profile, current position
; Bounds: X-1.67 Y0 to X2.36 Y1.29
G00 G17 G40 G21 G54
G91
M4
; Cut @ 4999.998 mm/min, 0% power
M8
G0 X0.334Y0
; Layer Lim
G1 X0.1S0F5000
; Scan @ 4000.002 mm/min, 70% power
M8
G0 X-2.101Y0.038
; Layer C02
G1 X1.667F4000S0
G1 X0.22S700
G1 X1.666S0
G1 Y0.05S0
G1 X-1.666S0
G1 X-0.22S700
G1 X-1.667S0
G1 Y0.05S0
G1 X1.667S0
G1 X0.22S700
G1 X1.666S0
G1 Y0.05S0
G1 X-1.666S0
G1 X-0.22S700
G1 X-1.667S0
G1 Y0.05S0
G1 X1.667S0
G1 X0.22S700
G1 X1.666S0
G1 Y0.05S0
G1 X-1.666S0
G1 X-0.22S700
G1 X-1.667S0
G1 Y0.05S0
G1 X1.667S0
G1 X0.22S700
G1 X1.666S0
G1 Y0.05S0
G1 X-1.666S0
G1 X-0.22S700
G1 X-1.667S0
G1 Y0.05S0
G1 X1.667S0
G1 X0.22S700
G1 X1.666S0
G1 Y0.05S0
G1 X-1.666S0
G1 X-0.22S700
G1 X-1.667S0
G1 Y0.05S0
G1 X1.667S0
G1 X0.22S700
G1 X1.666S0
G1 Y0.05S0
G1 X-1.666S0
G1 X-0.22S700
G1 X-1.667S0
G1 Y0.05S0
G1 X1.667S0
G1 X0.22S700
G1 X1.666S0
G1 Y0.05S0
G1 X-1.667S0
G1 X-0.219S700
G1 X-1.667S0
G1 Y0.05S0
G1 X1.667S0
G1 X0.218S700
G1 X1.666S0
G1 Y0.05S0
G1 X-1.667S0
G1 X-0.217S700
G1 X-1.667S0
G1 Y0.05S0
G1 X1.667S0
G1 X0.227S700
G1 X1.667S0
G1 X0.011Y0.05S0
G1 X-1.666S0
G1 X-0.239S700
G1 X-1.667S0
G1 Y0.05S0
G1 X1.667S0
G1 X0.261S700
G1 X1.666S0
G1 X0.027Y0.05S0
G1 X-1.667S0
G1 X-0.287S700
G1 X-1.667S0
G1 Y0.05S0
G1 X1.667S0
G1 X0.325S700
G1 X1.666S0
G1 X0.318Y0.05S0
G1 X-1.667S0
G1 X-0.089S700
G1 X-0.147S0
G1 X-0.406S700
G1 X-1.667S0
G1 Y0.05S0
G1 X1.667S0
G1 X0.198S700
G1 X0.023S0
G1 X0.44S700
G1 X1.666S0
G1 X0.019Y0.05S0
G1 X-1.667S0
G1 X-0.428S700
G1 X-0.053S0
G1 X-0.198S700
G1 X-1.667S0
G1 Y0.05S0
G1 X1.667S0
G1 X0.198S700
G1 X0.097S0
G1 X0.403S700
G1 X1.666S0
G1 X-0.05Y0.05S0
G1 X-1.666S0
G1 X-0.296S700
G1 X-0.154S0
G1 X-0.198S700
G1 X-1.667S0
M9
G1 S0
M5
; return to starting pos
G0 X1.667Y-1.288
M2
