; LightBurn 1.2.01
; GRBL device profile, current position
; Bounds: X-1.67 Y0 to X2.81 Y1.27
G00 G17 G40 G21 G54
G91
M4
; Cut @ 4999.998 mm/min, 0% power
M8
G0 X0.448Y0
; Layer Lim
G1 X0.1S0F5000
; Scan @ 4000.002 mm/min, 70% power
M8
G0 X-2.215Y0.023
; Layer C02
G1 X1.667F4000S0
G1 X1.148S700
G1 X1.667S0
G1 Y0.05S0
G1 X-1.667S0
G1 X-1.148S700
G1 X-1.667S0
G1 Y0.05S0
G1 X1.667S0
G1 X1.148S700
G1 X1.667S0
G1 Y0.05S0
G1 X-1.667S0
G1 X-1.148S700
G1 X-1.667S0
G1 X0.04Y0.05S0
G1 X1.666S0
G1 X0.273S700
G1 X1.666S0
G1 X0.045Y0.05S0
G1 X-1.666S0
G1 X-0.274S700
G1 X-1.667S0
G1 X0.044Y0.05S0
G1 X1.666S0
G1 X0.276S700
G1 X1.667S0
G1 X0.043Y0.05S0
G1 X-1.667S0
G1 X-0.275S700
G1 X-1.667S0
G1 X0.044Y0.05S0
G1 X1.667S0
G1 X0.274S700
G1 X1.666S0
G1 X0.043Y0.05S0
G1 X-1.667S0
G1 X-0.273S700
G1 X-1.667S0
G1 X0.044Y0.05S0
G1 X1.667S0
G1 X0.272S700
G1 X1.667S0
G1 X0.042Y0.05S0
G1 X-1.666S0
G1 X-0.272S700
G1 X-1.666S0
G1 X0.043Y0.05S0
G1 X1.667S0
G1 X0.27S700
G1 X1.667S0
G1 X0.043Y0.05S0
G1 X-1.667S0
G1 X-0.27S700
G1 X-1.666S0
G1 X0.043Y0.05S0
G1 X1.667S0
G1 X0.269S700
G1 X1.666S0
G1 X0.043Y0.05S0
G1 X-1.667S0
G1 X-0.267S700
G1 X-1.667S0
G1 X0.043Y0.05S0
G1 X1.667S0
G1 X0.267S700
G1 X1.667S0
G1 X0.042Y0.05S0
G1 X-1.666S0
G1 X-0.266S700
G1 X-1.667S0
G1 X0.044Y0.05S0
G1 X1.666S0
G1 X0.265S700
G1 X1.667S0
G1 X0.043Y0.05S0
G1 X-1.667S0
G1 X-0.264S700
G1 X-1.667S0
G1 X0.044Y0.05S0
G1 X1.666S0
G1 X0.264S700
G1 X1.666S0
G1 X0.043Y0.05S0
G1 X-1.667S0
G1 X-0.262S700
G1 X-1.667S0
G1 X-0.731Y0.05S0
G1 X1.667S0
G1 X0.693S700
G1 X0.082S0
G1 X0.261S700
G1 X1.667S0
G1 X0.024Y0.05S0
G1 X-1.667S0
G1 X-1.06S700
G1 X-1.667S0
G1 Y0.05S0
G1 X1.667S0
G1 X1.06S700
G1 X1.667S0
G1 Y0.05S0
G1 X-1.667S0
G1 X-1.06S700
G1 X-1.667S0
M9
G1 S0
M5
; return to starting pos
G0 X1.618Y-1.273
M2
