; LightBurn 1.2.01
; GRBL device profile, current position
; Bounds: X-1.67 Y0.01 to X2.79 Y1.36
G00 G17 G40 G21 G54
G91
M4
; Cut @ 4999.998 mm/min, 0% power
M8
G0 X0.401Y0.03
; Layer Lim
G1 X0.1S0F5000
; Scan @ 4000.002 mm/min, 70% power
M8
G0 X-1.656Y-0.023
; Layer C02
G1 X1.666F4000S0
G1 X0.153S700
G1 X1.667S0
G1 X0.169Y0.05S0
G1 X-1.666S0
G1 X-0.494S700
G1 X-1.667S0
G1 X-0.09Y0.05S0
G1 X1.667S0
G1 X0.662S700
G1 X1.666S0
G1 X0.065Y0.05S0
G1 X-1.667S0
G1 X-0.79S700
G1 X-1.666S0
G1 X-0.041Y0.05S0
G1 X1.667S0
G1 X0.315S700
G1 X0.243S0
G1 X0.313S700
G1 X1.667S0
G1 X0.034Y0.05S0
G1 X-1.667S0
G1 X-0.26S700
G1 X-0.403S0
G1 X-0.27S700
G1 X-1.666S0
G1 X-0.028Y0.05S0
G1 X1.667S0
G1 X0.24S700
G1 X0.502S0
G1 X0.251S700
G1 X1.667S0
G1 X0.015Y0.05S0
G1 X-1.667S0
G1 X-0.227S700
G1 X-0.574S0
G1 X-0.234S700
G1 X-1.667S0
G1 X-0.018Y0.05S0
G1 X1.667S0
G1 X0.22S700
G1 X0.622S0
G1 X0.225S700
G1 X1.666S0
G1 X0.014Y0.05S0
G1 X-1.667S0
G1 X-0.224S700
G1 X-0.653S0
G1 X-0.216S700
G1 X-1.666S0
G1 X-0.012Y0.05S0
G1 X1.666S0
G1 X0.214S700
G1 X1.667S0
G1 X-0.01Y0.05S0
G1 X-1.667S0
G1 X-0.216S700
G1 X-1.666S0
G1 X-0.009Y0.05S0
G1 X1.666S0
G1 X0.226S700
G1 X1.667S0
G1 Y0.05S0
G1 X-1.666S0
G1 X-0.225S700
G1 X-1.667S0
G1 Y0.05S0
G1 X1.668S0
G1 X0.224S700
G1 X1.667S0
G1 Y0.05S0
G1 X-1.667S0
G1 X-0.223S700
G1 X-1.667S0
G1 Y0.05S0
G1 X1.668S0
G1 X0.221S700
G1 X1.667S0
G1 X0.012Y0.05S0
G1 X-1.667S0
G1 X-0.222S700
G1 X-1.666S0
G1 X0.015Y0.05S0
G1 X1.666S0
G1 X0.222S700
G1 X1.667S0
G1 X0.854Y0.05S0
G1 X-1.666S0
G1 X-0.227S700
G1 X-0.609S0
G1 X-0.226S700
G1 X-1.666S0
G1 X0.015Y0.05S0
G1 X1.666S0
G1 X0.245S700
G1 X0.556S0
G1 X0.231S700
G1 X1.667S0
G1 X-0.015Y0.05S0
G1 X-1.666S0
G1 X-0.25S700
G1 X-0.489S0
G1 X-0.257S700
G1 X-1.666S0
G1 X0.037Y0.05S0
G1 X1.666S0
G1 X0.282S700
G1 X0.383S0
G1 X0.268S700
G1 X1.667S0
G1 X-0.032Y0.05S0
G1 X-1.667S0
G1 X-0.325S700
G1 X-0.206S0
G1 X-0.332S700
G1 X-1.667S0
G1 X0.037Y0.05S0
G1 X1.667S0
G1 X0.784S700
G1 X1.667S0
G1 X-0.057Y0.05S0
G1 X-1.666S0
G1 X-0.653S700
G1 X-1.667S0
G1 X0.079Y0.05S0
G1 X1.667S0
G1 X0.483S700
G1 X1.667S0
G1 X-0.216Y0.05S0
G1 X-1.666S0
G1 X-0.076S700
G1 X-1.666S0
M9
G1 S0
M5
; return to starting pos
G0 X1.125Y-1.357
M2
