; LightBurn 1.2.01
; GRBL device profile, current position
; Bounds: X-1.67 Y0 to X3.44 Y1.29
G00 G17 G40 G21 G54
G91
M4
; Cut @ 4999.998 mm/min, 0% power
M8
G0 X0.332Y0
; Layer Lim
G1 X0.1S0F5000
; Scan @ 4000.002 mm/min, 70% power
M8
G0 X-2.099Y0.037
; Layer C02
G1 X1.667F4000S0
G1 X0.22S700
G1 X0.55S0
G1 X0.22S700
G1 X0.549S0
G1 X0.219S700
G1 X1.667S0
G1 Y0.05S0
G1 X-1.666S0
G1 X-0.219S700
G1 X-0.55S0
G1 X-0.22S700
G1 X-0.55S0
G1 X-0.22S700
G1 X-1.667S0
G1 Y0.05S0
G1 X1.667S0
G1 X0.22S700
G1 X0.55S0
G1 X0.22S700
G1 X0.551S0
G1 X0.219S700
G1 X1.667S0
G1 Y0.05S0
G1 X-1.665S0
G1 X-0.221S700
G1 X-0.551S0
G1 X-0.22S700
G1 X-0.55S0
G1 X-0.22S700
G1 X-1.667S0
G1 Y0.05S0
G1 X1.667S0
G1 X0.22S700
G1 X0.55S0
G1 X0.22S700
G1 X0.552S0
G1 X0.221S700
G1 X1.666S0
G1 Y0.05S0
G1 X-1.665S0
G1 X-0.221S700
G1 X-0.553S0
G1 X-0.22S700
G1 X-0.55S0
G1 X-0.22S700
G1 X-1.667S0
G1 Y0.05S0
G1 X1.667S0
G1 X0.22S700
G1 X0.55S0
G1 X0.22S700
G1 X0.554S0
G1 X0.221S700
G1 X1.667S0
G1 Y0.05S0
G1 X-1.666S0
G1 X-0.221S700
G1 X-0.555S0
G1 X-0.22S700
G1 X-0.55S0
G1 X-0.22S700
G1 X-1.667S0
G1 Y0.05S0
G1 X1.667S0
G1 X0.22S700
G1 X0.55S0
G1 X0.22S700
G1 X0.556S0
G1 X0.222S700
G1 X1.666S0
G1 Y0.05S0
G1 X-1.665S0
G1 X-0.223S700
G1 X-0.556S0
G1 X-0.22S700
G1 X-0.55S0
G1 X-0.22S700
G1 X-1.667S0
G1 Y0.05S0
G1 X1.667S0
G1 X0.22S700
G1 X0.55S0
G1 X0.22S700
G1 X0.554S0
G1 X0.224S700
G1 X1.666S0
G1 Y0.05S0
G1 X-1.668S0
G1 X-0.223S700
G1 X-0.553S0
G1 X-0.22S700
G1 X-0.55S0
G1 X-0.22S700
G1 X-1.667S0
G1 Y0.05S0
G1 X1.667S0
G1 X0.22S700
G1 X0.55S0
G1 X0.22S700
G1 X0.551S0
G1 X0.223S700
G1 X1.667S0
G1 Y0.05S0
G1 X-1.669S0
G1 X-0.222S700
G1 X-0.55S0
G1 X-0.22S700
G1 X-0.55S0
G1 X-0.22S700
G1 X-1.667S0
G1 Y0.05S0
G1 X1.667S0
G1 X0.223S700
G1 X0.547S0
G1 X0.22S700
G1 X0.549S0
G1 X0.221S700
G1 X1.667S0
G1 Y0.05S0
G1 X-1.669S0
G1 X-0.221S700
G1 X-0.545S0
G1 X-0.222S700
G1 X-0.544S0
G1 X-0.226S700
G1 X-1.667S0
G1 Y0.05S0
G1 X1.667S0
G1 X0.23S700
G1 X0.54S0
G1 X0.224S700
G1 X0.542S0
G1 X0.22S700
G1 X1.667S0
G1 Y0.05S0
G1 X-1.668S0
G1 X-0.221S700
G1 X-0.539S0
G1 X-0.229S700
G1 X-0.525S0
G1 X-0.241S700
G1 X-1.667S0
G1 Y0.05S0
G1 X1.667S0
G1 X0.251S700
G1 X0.51S0
G1 X0.257S700
G1 X0.514S0
G1 X0.221S700
G1 X1.666S0
G1 Y0.05S0
G1 X-1.668S0
G1 X-0.231S700
G1 X-0.477S0
G1 X-0.292S700
G1 X-0.471S0
G1 X-0.28S700
G1 X-1.667S0
G1 Y0.05S0
G1 X1.667S0
G1 X0.314S700
G1 X0.419S0
G1 X0.35S700
G1 X0.414S0
G1 X0.244S700
G1 X1.667S0
G1 X-0.012Y0.05S0
G1 X-1.667S0
G1 X-0.274S700
G1 X-0.307S0
G1 X-0.458S700
G1 X-0.308S0
G1 X-0.382S700
G1 X-1.667S0
G1 Y0.05S0
G1 X1.667S0
G1 X0.197S700
G1 X0.018S0
G1 X0.721S700
G1 X0.052S0
G1 X0.72S700
G1 X1.667S0
G1 X-0.033Y0.05S0
G1 X-1.667S0
G1 X-0.645S700
G1 X-0.121S0
G1 X-0.653S700
G1 X-0.059S0
G1 X-0.197S700
G1 X-1.667S0
G1 Y0.05S0
G1 X1.667S0
G1 X0.197S700
G1 X0.12S0
G1 X0.529S700
G1 X0.245S0
G1 X0.535S700
G1 X1.667S0
G1 X-0.072Y0.05S0
G1 X-1.667S0
G1 X-0.382S700
G1 X-0.407S0
G1 X-0.355S700
G1 X-0.213S0
G1 X-0.197S700
G1 X-1.667S0
M9
G1 S0
M5
; return to starting pos
G0 X1.667Y-1.287
M2
