; LightBurn 1.2.01
; GRBL device profile, current position
; Bounds: X-1.66 Y0 to X2.73 Y1.35
G00 G17 G40 G21 G54
G91
M4
; Cut @ 4999.998 mm/min, 0% power
M8
G0 X0.42Y0.029
; Layer Lim
G1 X0.1S0F5000
; Scan @ 4000.002 mm/min, 70% power
M8
G0 X-1.7Y-0.025
; Layer C02
G1 X1.666F4000S0
G1 X0.087S700
G1 X1.667S0
G1 X0.26Y0.05S0
G1 X-1.667S0
G1 X-0.566S700
G1 X-1.666S0
G1 X-0.088Y0.05S0
G1 X1.666S0
G1 X0.732S700
G1 X1.666S0
G1 X0.057Y0.05S0
G1 X-1.667S0
G1 X-0.845S700
G1 X-1.667S0
G1 X-0.039Y0.05S0
G1 X1.667S0
G1 X0.333S700
G1 X0.29S0
G1 X0.301S700
G1 X1.666S0
G1 X0.022Y0.05S0
G1 X-1.666S0
G1 X-0.24S700
G1 X-0.461S0
G1 X-0.276S700
G1 X-1.667S0
G1 X-0.023Y0.05S0
G1 X1.667S0
G1 X0.252S700
G1 X0.544S0
G1 X0.226S700
G1 X1.666S0
G1 X0.015Y0.05S0
G1 X-1.666S0
G1 X-0.223S700
G1 X-0.597S0
G1 X-0.23S700
G1 X-1.667S0
G1 X-0.013Y0.05S0
G1 X1.667S0
G1 X0.228S700
G1 X0.613S0
G1 X0.221S700
G1 X1.667S0
G1 Y0.05S0
G1 X-1.668S0
G1 X-0.239S700
G1 X-1.667S0
G1 X-0.042Y0.05S0
G1 X1.666S0
G1 X0.282S700
G1 X1.667S0
G1 X-0.028Y0.05S0
G1 X-1.667S0
G1 X-0.377S700
G1 X-1.667S0
G1 X-0.195Y0.05S0
G1 X1.667S0
G1 X0.538S700
G1 X1.667S0
G1 X-0.05Y0.05S0
G1 X-1.667S0
G1 X-0.638S700
G1 X-1.667S0
G1 X-0.099Y0.05S0
G1 X1.666S0
G1 X0.68S700
G1 X1.666S0
G1 X-0.098Y0.05S0
G1 X-1.667S0
G1 X-0.643S700
G1 X-1.667S0
G1 X-0.063Y0.05S0
G1 X1.667S0
G1 X0.507S700
G1 X1.666S0
G1 X-0.178Y0.05S0
G1 X-1.667S0
G1 X-0.351S700
G1 X-1.666S0
G1 X-0.02Y0.05S0
G1 X1.666S0
G1 X0.259S700
G1 X1.667S0
G1 X-0.033Y0.05S0
G1 X-1.667S0
G1 X-0.23S700
G1 X-1.667S0
G1 Y0.05S0
G1 X1.664S0
G1 X0.211S700
G1 X0.55S0
G1 X0.225S700
G1 X1.667S0
G1 X-0.011Y0.05S0
G1 X-1.667S0
G1 X-0.233S700
G1 X-0.51S0
G1 X-0.223S700
G1 X-1.666S0
G1 X0.013Y0.05S0
G1 X1.666S0
G1 X0.234S700
G1 X0.434S0
G1 X0.272S700
G1 X1.667S0
G1 X-0.028Y0.05S0
G1 X-1.667S0
G1 X-0.327S700
G1 X-0.26S0
G1 X-0.298S700
G1 X-1.667S0
G1 X0.032Y0.05S0
G1 X1.667S0
G1 X0.818S700
G1 X1.666S0
G1 X-0.051Y0.05S0
G1 X-1.667S0
G1 X-0.694S700
G1 X-1.667S0
G1 X0.077Y0.05S0
G1 X1.667S0
G1 X0.526S700
G1 X1.667S0
G1 X-0.169Y0.05S0
G1 X-1.667S0
G1 X-0.194S700
G1 X-1.667S0
M9
G1 S0
M5
; return to starting pos
G0 X1.235Y-1.354
M2
