; LightBurn 1.2.01
; GRBL device profile, current position
; Bounds: X-1.67 Y0.01 to X2.29 Y1.76
G00 G17 G40 G21 G54
G91
M4
; Cut @ 4999.998 mm/min, 0% power
M8
G0 X0.452Y0.014
; Layer Lim
G1 X0.1S0F5000
; Scan @ 4000.002 mm/min, 70% power
M8
G0 X-1.833Y-0.007
; Layer C02
G1 X1.667F4000S0
G1 X0.188S700
G1 X1.667S0
G1 X0.051Y0.05S0
G1 X-1.666S0
G1 X-0.366S700
G1 X-1.666S0
G1 X-0.047Y0.05S0
G1 X1.667S0
G1 X0.403S700
G1 X1.667S0
G1 X-0.008Y0.05S0
G1 X-1.667S0
G1 X-0.421S700
G1 X-1.666S0
G1 X-0.022Y0.05S0
G1 X1.667S0
G1 X0.288S700
G1 X0.114S0
G1 X0.032S700
G1 X1.667S0
G1 X-0.206Y0.05S0
G1 X-1.666S0
G1 X-0.239S700
G1 X-1.666S0
G1 X-0.006Y0.05S0
G1 X1.667S0
G1 X0.231S700
G1 X1.666S0
G1 Y0.05S0
G1 X-1.669S0
G1 X-0.223S700
G1 X-1.667S0
G1 Y0.05S0
G1 X1.671S0
G1 X0.219S700
G1 X1.667S0
G1 Y0.05S0
G1 X-1.667S0
G1 X-0.219S700
G1 X-1.667S0
G1 Y0.05S0
G1 X1.667S0
G1 X0.219S700
G1 X1.667S0
G1 Y0.05S0
G1 X-1.667S0
G1 X-0.219S700
G1 X-1.667S0
G1 Y0.05S0
G1 X1.667S0
G1 X0.219S700
G1 X1.667S0
G1 Y0.05S0
G1 X-1.667S0
G1 X-0.219S700
G1 X-1.667S0
G1 Y0.05S0
G1 X1.667S0
G1 X0.219S700
G1 X1.666S0
G1 Y0.05S0
G1 X-1.666S0
G1 X-0.219S700
G1 X-1.667S0
G1 Y0.05S0
G1 X1.667S0
G1 X0.219S700
G1 X1.666S0
G1 Y0.05S0
G1 X-1.666S0
G1 X-0.219S700
G1 X-1.667S0
G1 Y0.05S0
G1 X1.667S0
G1 X0.219S700
G1 X1.666S0
G1 Y0.05S0
G1 X-1.667S0
G1 X-0.218S700
G1 X-1.667S0
G1 Y0.05S0
G1 X1.667S0
G1 X0.218S700
G1 X1.667S0
G1 Y0.05S0
G1 X-1.667S0
G1 X-0.218S700
G1 X-1.667S0
G1 Y0.05S0
G1 X1.667S0
G1 X0.218S700
G1 X1.667S0
G1 X0.221Y0.05S0
G1 X-1.667S0
G1 X-0.6S700
G1 X-1.667S0
G1 Y0.05S0
G1 X1.667S0
G1 X0.6S700
G1 X1.667S0
G1 Y0.05S0
G1 X-1.667S0
G1 X-0.6S700
G1 X-1.667S0
G1 Y0.05S0
G1 X1.667S0
G1 X0.6S700
G1 X1.667S0
G1 X-0.221Y0.05S0
G1 X-1.667S0
G1 X-0.218S700
G1 X-1.667S0
G1 Y0.05S0
G1 X1.667S0
G1 X0.218S700
G1 X1.667S0
G1 Y0.05S0
G1 X-1.667S0
G1 X-0.218S700
G1 X-1.667S0
G1 Y0.05S0
G1 X1.667S0
G1 X0.218S700
G1 X1.667S0
G1 Y0.05S0
G1 X-1.667S0
G1 X-0.218S700
G1 X-1.667S0
G1 Y0.05S0
G1 X1.667S0
G1 X0.218S700
G1 X1.667S0
G1 Y0.05S0
G1 X-1.667S0
G1 X-0.177S700
G1 X-1.666S0
G1 X0.083Y0.05S0
G1 X1.666S0
G1 X0.094S700
G1 X1.667S0
G1 Y0.05S0
G1 X-1.667S0
G1 X-0.011S700
G1 X-1.666S0
M9
G1 S0
M5
; return to starting pos
G0 X1.298Y-1.757
M2
