; LightBurn 1.2.01
; GRBL device profile, current position
; Bounds: X-1.67 Y0.03 to X2.72 Y1.29
G00 G17 G40 G21 G54
G91
M4
; Cut @ 4999.998 mm/min, 0% power
M8
G0 X0.342Y0.029
; Layer Lim
G1 X0.1S0F5000
; Scan @ 4000.002 mm/min, 70% power
M8
G0 X-1.852Y0.009
; Layer C02
G1 X1.667F4000S0
G1 X0.379S700
G1 X0.224S0
G1 X0.196S700
G1 X1.667S0
G1 Y0.05S0
G1 X-1.667S0
G1 X-0.196S700
G1 X-0.133S0
G1 X-0.563S700
G1 X-1.666S0
G1 X-0.061Y0.05S0
G1 X1.667S0
G1 X0.686S700
G1 X0.07S0
G1 X0.196S700
G1 X1.667S0
G1 Y0.05S0
G1 X-1.667S0
G1 X-0.196S700
G1 X-0.028S0
G1 X-0.76S700
G1 X-1.667S0
G1 X-0.028Y0.05S0
G1 X1.666S0
G1 X0.286S700
G1 X0.332S0
G1 X0.395S700
G1 X1.667S0
G1 Y0.05S0
G1 X-1.667S0
G1 X-0.333S700
G1 X-0.443S0
G1 X-0.254S700
G1 X-1.667S0
G1 X-0.008Y0.05S0
G1 X1.667S0
G1 X0.236S700
G1 X0.522S0
G1 X0.28S700
G1 X1.667S0
G1 Y0.05S0
G1 X-1.667S0
G1 X-0.257S700
G1 X-0.561S0
G1 X-0.228S700
G1 X-1.666S0
G1 Y0.05S0
G1 X1.664S0
G1 X0.227S700
G1 X0.588S0
G1 X0.233S700
G1 X1.667S0
G1 Y0.05S0
G1 X-1.667S0
G1 X-0.218S700
G1 X-0.605S0
G1 X-0.226S700
G1 X-1.667S0
G1 Y0.05S0
G1 X1.666S0
G1 X0.225S700
G1 X0.607S0
G1 X0.218S700
G1 X1.667S0
G1 Y0.05S0
G1 X-1.667S0
G1 X-0.219S700
G1 X-0.608S0
G1 X-0.224S700
G1 X-1.667S0
G1 Y0.05S0
G1 X1.666S0
G1 X0.222S700
G1 X0.611S0
G1 X0.219S700
G1 X1.667S0
G1 Y0.05S0
G1 X-1.667S0
G1 X-0.219S700
G1 X-0.613S0
G1 X-0.221S700
G1 X-1.667S0
G1 Y0.05S0
G1 X1.666S0
G1 X0.22S700
G1 X0.615S0
G1 X0.219S700
G1 X1.667S0
G1 Y0.05S0
G1 X-1.667S0
G1 X-0.219S700
G1 X-0.617S0
G1 X-0.219S700
G1 X-1.666S0
G1 Y0.05S0
G1 X1.665S0
G1 X0.218S700
G1 X0.619S0
G1 X0.219S700
G1 X1.667S0
G1 Y0.05S0
G1 X-1.667S0
G1 X-0.219S700
G1 X-0.619S0
G1 X-0.218S700
G1 X-1.666S0
G1 Y0.05S0
G1 X1.667S0
G1 X0.217S700
G1 X0.619S0
G1 X0.219S700
G1 X1.667S0
G1 Y0.05S0
G1 X-1.667S0
G1 X-0.219S700
G1 X-0.618S0
G1 X-0.218S700
G1 X-1.666S0
G1 Y0.05S0
G1 X1.667S0
G1 X0.218S700
G1 X0.617S0
G1 X0.219S700
G1 X1.667S0
G1 Y0.05S0
G1 X-1.667S0
G1 X-0.219S700
G1 X-0.616S0
G1 X-0.219S700
G1 X-1.666S0
G1 Y0.05S0
G1 X1.667S0
G1 X0.219S700
G1 X0.615S0
G1 X0.219S700
G1 X1.667S0
G1 Y0.05S0
G1 X-1.667S0
G1 X-0.219S700
G1 X-0.614S0
G1 X-0.22S700
G1 X-1.666S0
G1 Y0.05S0
G1 X1.667S0
G1 X0.219S700
G1 X0.614S0
G1 X0.219S700
G1 X1.667S0
G1 Y0.05S0
G1 X-1.667S0
G1 X-0.219S700
G1 X-0.613S0
G1 X-0.22S700
G1 X-1.666S0
M9
G1 S0
M5
; return to starting pos
G0 X1.662Y-1.288
M2
