; LightBurn 1.2.01
; GRBL device profile, current position
; Bounds: X-1.65 Y0.04 to X2.84 Y1.79
G00 G17 G40 G21 G54
G91
M4
; Cut @ 4999.998 mm/min, 0% power
M8
G0 X0.456Y0.525
; Layer Lim
G1 X0.1S0F5000
; Scan @ 4000.002 mm/min, 70% power
M8
G0 X-2.109Y-0.489
; Layer C02
G1 X1.667F4000S0
G1 X0.293S700
G1 X1.666S0
G1 X0.058Y0.05S0
G1 X-1.666S0
G1 X-0.357S700
G1 X-1.667S0
G1 X-0.006Y0.05S0
G1 X1.667S0
G1 X0.401S700
G1 X1.667S0
G1 X0.038Y0.05S0
G1 X-1.666S0
G1 X-0.446S700
G1 X-1.667S0
G1 X0.198Y0.05S0
G1 X1.667S0
G1 X0.286S700
G1 X1.667S0
G1 X0.028Y0.05S0
G1 X-1.667S0
G1 X-0.222S700
G1 X-1.667S0
G1 X0.033Y0.05S0
G1 X1.667S0
G1 X0.209S700
G1 X1.667S0
G1 X0.02Y0.05S0
G1 X-1.667S0
G1 X-0.196S700
G1 X-1.667S0
G1 X0.015Y0.05S0
G1 X1.666S0
G1 X0.202S700
G1 X1.667S0
G1 X0.019Y0.05S0
G1 X-1.666S0
G1 X-0.207S700
G1 X-1.666S0
G1 X0.006Y0.05S0
G1 X1.666S0
G1 X0.22S700
G1 X1.667S0
G1 X0.018Y0.05S0
G1 X-1.666S0
G1 X-0.258S700
G1 X-1.666S0
G1 X-0.019Y0.05S0
G1 X1.666S0
G1 X0.295S700
G1 X1.667S0
G1 X0.019Y0.05S0
G1 X-1.667S0
G1 X-0.332S700
G1 X-1.667S0
G1 X-0.019Y0.05S0
G1 X1.667S0
G1 X0.37S700
G1 X1.666S0
G1 X0.019Y0.05S0
G1 X-1.667S0
G1 X-0.194S700
G1 X-0.213
G1 X-1.667S0
G1 X-0.019Y0.05S0
G1 X1.667S0
G1 X0.208S700
G1 X0.039S0
G1 X0.198S700
G1 X1.667S0
G1 X0.019Y0.05S0
G1 X-1.667S0
G1 X-0.201S700
G1 X-0.069S0
G1 X-0.213S700
G1 X-1.667S0
G1 X-0.019Y0.05S0
G1 X1.667S0
G1 X0.217S700
G1 X0.099S0
G1 X0.205S700
G1 X1.666S0
G1 X0.019Y0.05S0
G1 X-1.667S0
G1 X-0.208S700
G1 X-0.132S0
G1 X-0.218S700
G1 X-1.667S0
G1 X-0.019Y0.05S0
G1 X1.667S0
G1 X0.22S700
G1 X0.165S0
G1 X0.211S700
G1 X1.667S0
G1 X0.018Y0.05S0
G1 X-1.666S0
G1 X-0.215S700
G1 X-0.197S0
G1 X-0.222S700
G1 X-1.667S0
G1 X-0.019Y0.05S0
G1 X1.667S0
G1 X0.223S700
G1 X0.231S0
G1 X0.217S700
G1 X1.667S0
G1 X0.019Y0.05S0
G1 X-1.667S0
G1 X-0.221S700
G1 X-0.263S0
G1 X-0.225S700
G1 X-1.667S0
G1 X-0.019Y0.05S0
G1 X1.667S0
G1 X0.227S700
G1 X0.296S0
G1 X0.224S700
G1 X1.666S0
G1 X0.019Y0.05S0
G1 X-1.666S0
G1 X-0.228S700
G1 X-0.329S0
G1 X-0.228S700
G1 X-1.667S0
G1 X-0.019Y0.05S0
G1 X1.667S0
G1 X0.23S700
G1 X0.364S0
G1 X0.228S700
G1 X1.667S0
G1 X0.019Y0.05S0
G1 X-1.667S0
G1 X-0.227S700
G1 X-0.402S0
G1 X-0.231S700
G1 X-1.666S0
G1 X-0.019Y0.05S0
G1 X1.666S0
G1 X0.232S700
G1 X0.439S0
G1 X0.227S700
G1 X1.666S0
G1 X0.019Y0.05S0
G1 X-1.667S0
G1 X-0.225S700
G1 X-0.477S0
G1 X-0.233S700
G1 X-1.666S0
G1 X-0.019Y0.05S0
G1 X1.666S0
G1 X0.233S700
G1 X0.515S0
G1 X0.225S700
G1 X1.667S0
G1 X0.018Y0.05S0
G1 X-1.666S0
G1 X-0.224S700
G1 X-0.553S0
G1 X-0.234S700
G1 X-1.666S0
G1 X-0.019Y0.05S0
G1 X1.666S0
G1 X0.235S700
G1 X0.591S0
G1 X0.222S700
G1 X1.667S0
G1 X0.019Y0.05S0
G1 X-1.667S0
G1 X-0.222S700
G1 X-0.629S0
G1 X-0.235S700
G1 X-1.666S0
G1 X-0.019Y0.05S0
G1 X1.667S0
G1 X0.235S700
G1 X0.667S0
G1 X0.221S700
G1 X1.667S0
G1 X0.018Y0.05S0
G1 X-1.666S0
G1 X-0.221S700
G1 X-0.704S0
G1 X-0.236S700
G1 X-1.667S0
M9
G1 S0
M5
; return to starting pos
G0 X1.653Y-1.786
M2
