; LightBurn 1.2.01
; GRBL device profile, current position
; Bounds: X-1.67 Y0.03 to X3.7 Y2.88
G00 G17 G40 G21 G54
G91
M4
; Cut @ 4999.998 mm/min, 0% power
M8
G0 X0.008Y0.049
; Layer Lim
G1 X1S0F5000
; Scan @ 4000.002 mm/min, 70% power
M8
G0 X-1.997Y-0.02
; Layer C02
G1 X1.667F4000S0
G1 X0.39S700
G1 X1.667S0
G1 X0.963Y0.05S0
G1 X-1.667S0
G1 X-0.509S700
G1 X-0.321S0
G1 X-0.634S700
G1 X-1.667S0
G1 X-0.111Y0.05S0
G1 X1.667S0
G1 X0.827S700
G1 X0.239S0
G1 X0.509S700
G1 X1.667S0
G1 Y0.05S0
G1 X-1.667S0
G1 X-0.509S700
G1 X-0.166S0
G1 X-0.964S700
G1 X-1.666S0
G1 X-0.056Y0.05S0
G1 X1.667S0
G1 X1.076S700
G1 X0.109S0
G1 X0.509S700
G1 X1.667S0
G1 Y0.05S0
G1 X-1.667S0
G1 X-0.509S700
G1 X-0.064S0
G1 X-1.177S700
G1 X-1.666S0
G1 X-0.054Y0.05S0
G1 X1.667S0
G1 X1.274S700
G1 X0.02S0
G1 X0.509S700
G1 X1.667S0
G1 Y0.05S0
G1 X-1.667S0
G1 X-1.833S700
G1 X-1.666S0
G1 X-0.03Y0.05S0
G1 X1.667S0
G1 X1.862S700
G1 X1.667S0
G1 Y0.05S0
G1 X-1.667S0
G1 X-0.826S700
G1 X-0.362S0
G1 X-0.704S700
G1 X-1.666S0
G1 X-0.03Y0.05S0
G1 X1.667S0
G1 X0.655S700
G1 X0.52S0
G1 X0.746S700
G1 X1.667S0
G1 Y0.05S0
G1 X-1.667S0
G1 X-0.695S700
G1 X-0.624S0
G1 X-0.627S700
G1 X-1.667S0
G1 X-0.011Y0.05S0
G1 X1.666S0
G1 X0.598S700
G1 X0.699S0
G1 X0.661S700
G1 X1.667S0
G1 Y0.05S0
G1 X-1.667S0
G1 X-0.634S700
G1 X-0.752S0
G1 X-0.583S700
G1 X-1.667S0
G1 X-0.011Y0.05S0
G1 X1.667S0
G1 X0.57S700
G1 X0.802S0
G1 X0.608S700
G1 X1.667S0
G1 Y0.05S0
G1 X-1.667S0
G1 X-0.59S700
G1 X-0.833S0
G1 X-0.569S700
G1 X-1.666S0
G1 X-0.012Y0.05S0
G1 X1.667S0
G1 X0.567S700
G1 X0.861S0
G1 X0.575S700
G1 X1.667S0
G1 Y0.05S0
G1 X-1.667S0
G1 X-0.56S700
G1 X-0.888S0
G1 X-0.562S700
G1 X-1.667S0
G1 Y0.05S0
G1 X1.663S0
G1 X0.554S700
G1 X0.91S0
G1 X0.55S700
G1 X1.667S0
G1 Y0.05S0
G1 X-1.667S0
G1 X-0.545S700
G1 X-0.921S0
G1 X-0.553S700
G1 X-1.666S0
G1 Y0.05S0
G1 X1.662S0
G1 X0.556S700
G1 X0.926S0
G1 X0.541S700
G1 X1.667S0
G1 Y0.05S0
G1 X-1.667S0
G1 X-0.537S700
G1 X-0.931S0
G1 X-0.559S700
G1 X-1.667S0
G1 Y0.05S0
G1 X1.664S0
G1 X0.561S700
G1 X0.927S0
G1 X0.542S700
G1 X1.667S0
G1 Y0.05S0
G1 X-1.667S0
G1 X-0.548S700
G1 X-0.92S0
G1 X-0.556S700
G1 X-1.667S0
G1 X0.006Y0.05S0
G1 X1.667S0
G1 X0.56S700
G1 X0.905S0
G1 X0.553S700
G1 X1.667S0
G1 Y0.05S0
G1 X-1.667S0
G1 X-0.559S700
G1 X-0.888S0
G1 X-0.566S700
G1 X-1.666S0
G1 X0.006Y0.05S0
G1 X1.666S0
G1 X0.57S700
G1 X0.872S0
G1 X0.565S700
G1 X1.667S0
G1 Y0.05S0
G1 X-1.667S0
G1 X-0.572S700
G1 X-0.855S0
G1 X-0.574S700
G1 X-1.666S0
G1 X0.013Y0.05S0
G1 X1.667S0
G1 X0.581S700
G1 X0.815S0
G1 X0.591S700
G1 X1.667S0
G1 Y0.05S0
G1 X-1.667S0
G1 X-0.612S700
G1 X-0.771S0
G1 X-0.588S700
G1 X-1.667S0
G1 X0.017Y0.05S0
G1 X1.667S0
G1 X0.593S700
G1 X0.722S0
G1 X0.639S700
G1 X1.667S0
G1 Y0.05S0
G1 X-1.667S0
G1 X-0.677S700
G1 X-0.661S0
G1 X-0.6S700
G1 X-1.667S0
G1 X0.017Y0.05S0
G1 X1.667S0
G1 X0.632S700
G1 X0.57S0
G1 X0.719S700
G1 X1.667S0
G1 Y0.05S0
G1 X-1.667S0
G1 X-0.784S700
G1 X-0.448S0
G1 X-0.666S700
G1 X-1.667S0
G1 X0.029Y0.05S0
G1 X1.666S0
G1 X0.752S700
G1 X0.22S0
G1 X0.898S700
G1 X1.667S0
G1 Y0.05S0
G1 X-1.667S0
G1 X-1.841S700
G1 X-1.667S0
G1 X0.029Y0.05S0
G1 X1.667S0
G1 X1.812S700
G1 X1.667S0
G1 Y0.05S0
G1 X-1.667S0
G1 X-0.548S700
G1 X-1.235
G1 X-1.667S0
G1 X0.047Y0.05S0
G1 X1.666S0
G1 X1.135S700
G1 X0.054S0
G1 X0.548S700
G1 X1.667S0
G1 Y0.05S0
G1 X-1.667S0
G1 X-0.548S700
G1 X-0.107S0
G1 X-1.028S700
G1 X-1.667S0
G1 X0.069Y0.05S0
G1 X1.667S0
G1 X0.892S700
G1 X0.174S0
G1 X0.548S700
G1 X1.667S0
G1 Y0.05S0
G1 X-1.667S0
G1 X-0.548S700
G1 X-0.255S0
G1 X-0.732S700
G1 X-1.667S0
G1 X0.126Y0.05S0
G1 X1.667S0
G1 X0.479S700
G1 X0.382S0
G1 X0.548S700
G1 X1.667S0
G1 Y0.05S0
G1 X-1.667S0
G1 X-0.548S700
G1 X-1.667S0
G1 Y0.05S0
G1 X1.667S0
G1 X0.548S700
G1 X1.667S0
G1 Y0.05S0
G1 X-1.667S0
G1 X-0.548S700
G1 X-1.667S0
G1 Y0.05S0
G1 X1.667S0
G1 X0.548S700
G1 X1.667S0
G1 Y0.05S0
G1 X-1.667S0
G1 X-0.548S700
G1 X-1.667S0
G1 Y0.05S0
G1 X1.667S0
G1 X0.548S700
G1 X1.667S0
G1 Y0.05S0
G1 X-1.667S0
G1 X-0.548S700
G1 X-1.667S0
G1 Y0.05S0
G1 X1.667S0
G1 X0.548S700
G1 X1.667S0
G1 Y0.05S0
G1 X-1.667S0
G1 X-0.548S700
G1 X-1.667S0
G1 Y0.05S0
G1 X1.667S0
G1 X0.548S700
G1 X1.667S0
G1 Y0.05S0
G1 X-1.667S0
G1 X-0.548S700
G1 X-1.667S0
G1 Y0.05S0
G1 X1.667S0
G1 X0.548S700
G1 X1.667S0
G1 Y0.05S0
G1 X-1.667S0
G1 X-0.548S700
G1 X-1.667S0
G1 Y0.05S0
G1 X1.667S0
G1 X0.548S700
G1 X1.667S0
G1 Y0.05S0
G1 X-1.667S0
G1 X-0.548S700
G1 X-1.667S0
M9
G1 S0
M5
; return to starting pos
G0 X0.184Y-2.879
M2
