; LightBurn 1.2.01
; GRBL device profile, current position
; Bounds: X-1.67 Y0 to X3.69 Y2.95
G00 G17 G40 G21 G54
G91
M4
; Cut @ 5000 mm/min, 0% power
M8
G0 X0.003Y0.839
; Layer Lim
G1 X1S0F5000
; Scan @ 4000 mm/min, 70% power
M8
G0 X-1.756Y-0.835
; Layer C02
G1 X1.666F4000S0
G1 X0.127S700
G1 X1.667S0
G1 X0.462Y0.05S0
G1 X-1.666S0
G1 X-0.941S700
G1 X-1.666S0
G1 X-0.141Y0.05S0
G1 X1.666S0
G1 X1.203S700
G1 X1.667S0
G1 X0.074Y0.05S0
G1 X-1.667S0
G1 X-1.364S700
G1 X-1.666S0
G1 X-0.057Y0.05S0
G1 X1.667S0
G1 X1.49S700
G1 X1.667S0
G1 X0.046Y0.05S0
G1 X-1.667S0
G1 X-1.593S700
G1 X-1.667S0
G1 X-0.036Y0.05S0
G1 X1.666S0
G1 X1.674S700
G1 X1.667S0
G1 X0.038Y0.05S0
G1 X-1.667S0
G1 X-1.737S700
G1 X-1.667S0
G1 X-0.026Y0.05S0
G1 X1.667S0
G1 X1.783S700
G1 X1.667S0
G1 X0.019Y0.05S0
G1 X-1.666S0
G1 X-0.648S700
G1 X-0.459S0
G1 X-0.722S700
G1 X-1.667S0
G1 X-0.012Y0.05S0
G1 X1.667S0
G1 X0.659S700
G1 X0.613S0
G1 X0.588S700
G1 X1.667S0
G1 X0.014Y0.05S0
G1 X-1.667S0
G1 X-0.554S700
G1 X-0.695S0
G1 X-0.63S700
G1 X-1.667S0
G1 Y0.05S0
G1 X1.662S0
G1 X0.622S700
G1 X0.735S0
G1 X0.54S700
G1 X1.667S0
G1 X0.012Y0.05S0
G1 X-1.666S0
G1 X-0.54S700
G1 X-0.975S0
G1 X-0.4S700
G1 X-1.667S0
G1 X1.382Y0.05S0
G1 X1.667S0
G1 X0.544S700
G1 X1.666S0
G1 X0.006Y0.05S0
G1 X-1.666S0
G1 X-0.544S700
G1 X-1.666S0
G1 X0.006Y0.05S0
G1 X1.667S0
G1 X0.543S700
G1 X1.667S0
G1 X0.006Y0.05S0
G1 X-1.667S0
G1 X-0.543S700
G1 X-0.5S0
G1 X-0.271S700
G1 X-1.666S0
G1 X-0.171Y0.05S0
G1 X1.667S0
G1 X0.608S700
G1 X0.339S0
G1 X0.539S700
G1 X1.667S0
G1 Y0.05S0
G1 X-1.667S0
G1 X-0.541S700
G1 X-0.245S0
G1 X-0.795S700
G1 X-1.667S0
G1 X-0.074Y0.05S0
G1 X1.667S0
G1 X0.939S700
G1 X0.173S0
G1 X0.543S700
G1 X1.667S0
G1 Y0.05S0
G1 X-1.667S0
G1 X-0.545S700
G1 X-0.112S0
G1 X-1.056S700
G1 X-1.666S0
G1 X-0.049Y0.05S0
G1 X1.667S0
G1 X1.148S700
G1 X0.066S0
G1 X0.547S700
G1 X1.667S0
G1 Y0.05S0
G1 X-1.667S0
G1 X-0.549S700
G1 X-0.02S0
G1 X-1.231S700
G1 X-1.667S0
G1 X-0.036Y0.05S0
G1 X1.666S0
G1 X1.837S700
G1 X1.666S0
G1 Y0.05S0
G1 X-1.666S0
G1 X-1.862S700
G1 X-1.667S0
G1 X-0.025Y0.05S0
G1 X1.666S0
G1 X0.756S700
G1 X0.248S0
G1 X0.884S700
G1 X1.666S0
G1 Y0.05S0
G1 X-1.666S0
G1 X-0.778S700
G1 X-0.456S0
G1 X-0.679S700
G1 X-1.667S0
G1 X-0.02Y0.05S0
G1 X1.667S0
G1 X0.641S700
G1 X0.574S0
G1 X0.718S700
G1 X1.666S0
G1 Y0.05S0
G1 X-1.666S0
G1 X-0.67S700
G1 X-0.673S0
G1 X-0.607S700
G1 X-1.666S0
G1 X-0.017Y0.05S0
G1 X1.667S0
G1 X0.589S700
G1 X0.736S0
G1 X0.641S700
G1 X1.666S0
G1 Y0.05S0
G1 X-1.666S0
G1 X-0.613S700
G1 X-0.789S0
G1 X-0.581S700
G1 X-1.667S0
G1 X-0.01Y0.05S0
G1 X1.667S0
G1 X0.566S700
G1 X0.837S0
G1 X0.59S700
G1 X1.666S0
G1 Y0.05S0
G1 X-1.666S0
G1 X-0.574S700
G1 X-0.862S0
G1 X-0.566S700
G1 X-1.667S0
G1 X-0.009Y0.05S0
G1 X1.667S0
G1 X0.567S700
G1 X0.887S0
G1 X0.557S700
G1 X1.666S0
G1 Y0.05S0
G1 X-1.666S0
G1 X-0.546S700
G1 X-0.905S0
G1 X-0.569S700
G1 X-1.666S0
G1 Y0.05S0
G1 X1.665S0
G1 X0.564S700
G1 X0.917S0
G1 X0.54S700
G1 X1.666S0
G1 Y0.05S0
G1 X-1.666S0
G1 X-0.535S700
G1 X-0.927S0
G1 X-0.561S700
G1 X-1.667S0
G1 Y0.05S0
G1 X1.665S0
G1 X0.558S700
G1 X0.935S0
G1 X0.532S700
G1 X1.666S0
G1 Y0.05S0
G1 X-1.666S0
G1 X-0.537S700
G1 X-0.93S0
G1 X-0.558S700
G1 X-1.667S0
G1 X0.006Y0.05S0
G1 X1.666S0
G1 X0.558S700
G1 X0.92S0
G1 X0.541S700
G1 X1.667S0
G1 Y0.05S0
G1 X-1.667S0
G1 X-0.547S700
G1 X-0.91S0
G1 X-0.556S700
G1 X-1.667S0
G1 X0.006Y0.05S0
G1 X1.667S0
G1 X0.558S700
G1 X0.895S0
G1 X0.554S700
G1 X1.667S0
G1 Y0.05S0
G1 X-1.667S0
G1 X-0.563S700
G1 X-0.871S0
G1 X-0.566S700
G1 X-1.667S0
G1 X0.013Y0.05S0
G1 X1.667S0
G1 X0.568S700
G1 X0.845S0
G1 X0.574S700
G1 X1.667S0
G1 Y0.05S0
G1 X-1.667S0
G1 X-0.597S700
G1 X-0.805S0
G1 X-0.572S700
G1 X-1.666S0
G1 X0.013Y0.05S0
G1 X1.666S0
G1 X0.586S700
G1 X0.756S0
G1 X0.619S700
G1 X1.667S0
G1 Y0.05S0
G1 X-1.667S0
G1 X-0.656S700
G1 X-0.693S0
G1 X-0.595S700
G1 X-1.666S0
G1 X0.021Y0.05S0
G1 X1.667S0
G1 X0.61S700
G1 X0.616S0
G1 X0.696S700
G1 X1.667S0
G1 Y0.05S0
G1 X-1.667S0
G1 X-0.756S700
G1 X-0.498S0
G1 X-0.647S700
G1 X-1.667S0
G1 X0.021Y0.05S0
G1 X1.667S0
G1 X0.716S700
G1 X0.331S0
G1 X0.833S700
G1 X1.667S0
G1 Y0.05S0
G1 X-1.667S0
G1 X-1.851S700
G1 X-1.667S0
G1 X0.031Y0.05S0
G1 X1.667S0
G1 X1.82S700
G1 X1.667S0
G1 Y0.05S0
G1 X-1.667S0
G1 X-0.513S700
G1 X-0.029S0
G1 X-1.248S700
G1 X-1.666S0
G1 X0.039Y0.05S0
G1 X1.667S0
G1 X1.163S700
G1 X0.074S0
G1 X0.513S700
G1 X1.667S0
G1 Y0.05S0
G1 X-1.667S0
G1 X-0.513S700
G1 X-0.119S0
G1 X-1.065S700
G1 X-1.667S0
G1 X0.059Y0.05S0
G1 X1.666S0
G1 X0.943S700
G1 X0.183S0
G1 X0.513S700
G1 X1.667S0
G1 Y0.05S0
G1 X-1.667S0
G1 X-0.513S700
G1 X-0.256S0
G1 X-0.789S700
G1 X-1.667S0
G1 X0.108Y0.05S0
G1 X1.667S0
G1 X0.57S700
G1 X0.367S0
G1 X0.513S700
G1 X1.667S0
G1 X-1.071Y0.05S0
G1 X-1.667S0
G1 X-0.176S700
G1 X-1.667S0
M9
G1 S0
M5
; return to starting pos
G0 X0.889Y-2.954
M2
