; LightBurn 1.2.01
; GRBL device profile, current position
; Bounds: X-1.66 Y0 to X3.81 Y2.06
G00 G17 G40 G21 G54
G91
M4
; Cut @ 5000 mm/min, 0% power
M8
G0 X0Y0
; Layer Lim
G1 X1S0F5000
; Scan @ 4000 mm/min, 70% power
M8
G0 X-1.836Y0.011
; Layer C02
G1 X1.667F4000S0
G1 X0.503S700
G1 X1.667S0
G1 X0.02Y0.05S0
G1 X-1.667S0
G1 X-0.543S700
G1 X-1.667S0
G1 X-0.02Y0.05S0
G1 X1.667S0
G1 X0.583S700
G1 X1.667S0
G1 X0.019Y0.05S0
G1 X-1.666S0
G1 X-0.623S700
G1 X-1.667S0
G1 X-0.02Y0.05S0
G1 X1.666S0
G1 X0.664S700
G1 X1.666S0
G1 X0.02Y0.05S0
G1 X-1.667S0
G1 X-0.703S700
G1 X-1.666S0
G1 X-0.021Y0.05S0
G1 X1.667S0
G1 X0.743S700
G1 X1.667S0
G1 X0.02Y0.05S0
G1 X-1.667S0
G1 X-0.783S700
G1 X-1.667S0
G1 X-0.02Y0.05S0
G1 X1.667S0
G1 X0.823S700
G1 X1.667S0
G1 X0.02Y0.05S0
G1 X-1.667S0
G1 X-0.863S700
G1 X-1.667S0
G1 X-0.02Y0.05S0
G1 X1.666S0
G1 X0.904S700
G1 X1.666S0
G1 X0.02Y0.05S0
G1 X-1.666S0
G1 X-0.944S700
G1 X-1.666S0
G1 X-0.02Y0.05S0
G1 X1.666S0
G1 X0.983S700
G1 X1.667S0
G1 X0.02Y0.05S0
G1 X-1.667S0
G1 X-0.512S700
G1 X-0.511
G1 X-1.667S0
G1 X-0.02Y0.05S0
G1 X1.667S0
G1 X0.515S700
G1 X0.033S0
G1 X0.515S700
G1 X1.667S0
G1 X0.02Y0.05S0
G1 X-1.667S0
G1 X-0.519S700
G1 X-0.065S0
G1 X-0.519S700
G1 X-1.667S0
G1 X-0.02Y0.05S0
G1 X1.667S0
G1 X0.523S700
G1 X0.098S0
G1 X0.522S700
G1 X1.667S0
G1 X0.019Y0.05S0
G1 X-1.666S0
G1 X-0.525S700
G1 X-0.132S0
G1 X-0.527S700
G1 X-1.666S0
G1 X-0.02Y0.05S0
G1 X1.666S0
G1 X0.531S700
G1 X0.165S0
G1 X0.528S700
G1 X1.666S0
G1 X0.02Y0.05S0
G1 X-1.667S0
G1 X-0.531S700
G1 X-0.197S0
G1 X-0.535S700
G1 X-1.667S0
G1 X-0.02Y0.05S0
G1 X1.667S0
G1 X0.539S700
G1 X0.23S0
G1 X0.534S700
G1 X1.667S0
G1 X0.02Y0.05S0
G1 X-1.667S0
G1 X-0.537S700
G1 X-0.265S0
G1 X-0.541S700
G1 X-1.667S0
G1 X-0.02Y0.05S0
G1 X1.667S0
G1 X0.542S700
G1 X0.301S0
G1 X0.54S700
G1 X1.667S0
G1 X0.019Y0.05S0
G1 X-1.666S0
G1 X-0.544S700
G1 X-0.335S0
G1 X-0.545S700
G1 X-1.666S0
G1 X-0.02Y0.05S0
G1 X1.666S0
G1 X0.547S700
G1 X0.37S0
G1 X0.547S700
G1 X1.666S0
G1 X0.02Y0.05S0
G1 X-1.666S0
G1 X-0.55S700
G1 X-0.406S0
G1 X-0.548S700
G1 X-1.667S0
G1 X-0.02Y0.05S0
G1 X1.667S0
G1 X0.55S700
G1 X0.441S0
G1 X0.552S700
G1 X1.667S0
G1 X0.02Y0.05S0
G1 X-1.667S0
G1 X-0.556S700
G1 X-0.476S0
G1 X-0.551S700
G1 X-1.667S0
G1 X-0.02Y0.05S0
G1 X1.667S0
G1 X0.553S700
G1 X0.513S0
G1 X0.557S700
G1 X1.667S0
G1 X0.02Y0.05S0
G1 X-1.667S0
G1 X-0.558S700
G1 X-0.551S0
G1 X-0.554S700
G1 X-1.667S0
G1 X-0.02Y0.05S0
G1 X1.666S0
G1 X0.557S700
G1 X0.589S0
G1 X0.558S700
G1 X1.666S0
G1 X0.02Y0.05S0
G1 X-1.666S0
G1 X-0.559S700
G1 X-0.626S0
G1 X-0.559S700
G1 X-1.666S0
G1 X-0.021Y0.05S0
G1 X1.667S0
G1 X0.56S700
G1 X0.664S0
G1 X0.56S700
G1 X1.666S0
G1 X0.02Y0.05S0
G1 X-1.667S0
G1 X-0.559S700
G1 X-0.702S0
G1 X-0.562S700
G1 X-1.667S0
G1 X-0.02Y0.05S0
G1 X1.667S0
G1 X0.563S700
G1 X0.74S0
G1 X0.56S700
G1 X1.667S0
G1 X0.02Y0.05S0
G1 X-1.667S0
G1 X-0.561S700
G1 X-0.777S0
G1 X-0.565S700
G1 X-1.667S0
G1 X-0.02Y0.05S0
G1 X1.666S0
G1 X0.567S700
G1 X0.816S0
G1 X0.561S700
G1 X1.667S0
G1 X0.019Y0.05S0
G1 X-1.666S0
G1 X-0.562S700
G1 X-0.853S0
G1 X-0.569S700
G1 X-1.666S0
G1 X-0.021Y0.05S0
G1 X1.667S0
G1 X0.57S700
G1 X0.891S0
G1 X0.563S700
G1 X1.666S0
G1 X0.02Y0.05S0
G1 X-1.666S0
G1 X-0.563S700
G1 X-0.929S0
G1 X-0.572S700
G1 X-1.667S0
G1 X-0.02Y0.05S0
G1 X1.667S0
G1 X0.574S700
G1 X0.966S0
G1 X0.563S700
G1 X1.667S0
G1 X0.02Y0.05S0
G1 X-1.667S0
G1 X-0.564S700
G1 X-1.004S0
G1 X-0.575S700
G1 X-1.667S0
M9
G1 S0
M5
; return to starting pos
G0 X1.662Y-2.061
M2
