; LightBurn 1.2.01
; GRBL device profile, current position
; Bounds: X-1.67 Y0 to X3.8 Y2.95
G00 G17 G40 G21 G54
G91
M4
; Cut @ 5000 mm/min, 0% power
M8
G0 X0Y0.046
; Layer Lim
G1 X1S0F5000
; Scan @ 4000 mm/min, 70% power
M8
G0 X-1.627Y-0.043
; Layer C02
G1 X1.667F4000S0
G1 X0.1S700
G1 X1.667S0
G1 X0.269Y0.05S0
G1 X-1.666S0
G1 X-0.7S700
G1 X-1.667S0
G1 X-0.127Y0.05S0
G1 X1.667S0
G1 X0.954S700
G1 X1.666S0
G1 X0.1Y0.05S0
G1 X-1.666S0
G1 X-1.146S700
G1 X-1.666S0
G1 X-0.078Y0.05S0
G1 X1.666S0
G1 X1.292S700
G1 X1.667S0
G1 X0.067Y0.05S0
G1 X-1.667S0
G1 X-1.422S700
G1 X-1.666S0
G1 X-0.052Y0.05S0
G1 X1.667S0
G1 X1.525S700
G1 X1.667S0
G1 X0.047Y0.05S0
G1 X-1.667S0
G1 X-1.624S700
G1 X-1.667S0
G1 X-0.038Y0.05S0
G1 X1.667S0
G1 X1.708S700
G1 X1.667S0
G1 X0.033Y0.05S0
G1 X-1.667S0
G1 X-0.82S700
G1 X-0.116S0
G1 X-0.839S700
G1 X-1.667S0
G1 X-0.034Y0.05S0
G1 X1.666S0
G1 X0.72S700
G1 X0.428S0
G1 X0.695S700
G1 X1.667S0
G1 X0.032Y0.05S0
G1 X-1.667S0
G1 X-0.65S700
G1 X-0.586S0
G1 X-0.667S700
G1 X-1.667S0
G1 X-0.021Y0.05S0
G1 X1.667S0
G1 X0.632S700
G1 X0.698S0
G1 X0.616S700
G1 X1.666S0
G1 X0.022Y0.05S0
G1 X-1.667S0
G1 X-0.608S700
G1 X-0.772S0
G1 X-0.609S700
G1 X-1.666S0
G1 X-0.021Y0.05S0
G1 X1.666S0
G1 X0.6S700
G1 X0.827S0
G1 X0.605S700
G1 X1.667S0
G1 X0.014Y0.05S0
G1 X-1.666S0
G1 X-0.596S700
G1 X-0.88S0
G1 X-0.584S700
G1 X-1.666S0
G1 X-0.011Y0.05S0
G1 X1.667S0
G1 X0.576S700
G1 X0.922S0
G1 X0.584S700
G1 X1.666S0
G1 X0.012Y0.05S0
G1 X-1.667S0
G1 X-0.571S700
G1 X-0.957S0
G1 X-0.576S700
G1 X-1.666S0
G1 X-0.011Y0.05S0
G1 X1.667S0
G1 X0.575S700
G1 X0.977S0
G1 X0.573S700
G1 X1.667S0
G1 Y0.05S0
G1 X-1.664S0
G1 X-0.571S700
G1 X-0.991S0
G1 X-0.568S700
G1 X-1.667S0
G1 Y0.05S0
G1 X1.666S0
G1 X0.564S700
G1 X1.001S0
G1 X0.569S700
G1 X1.666S0
G1 Y0.05S0
G1 X-1.664S0
G1 X-0.566S700
G1 X-1.011S0
G1 X-0.559S700
G1 X-1.667S0
G1 Y0.05S0
G1 X1.666S0
G1 X0.555S700
G1 X1.02S0
G1 X0.563S700
G1 X1.667S0
G1 Y0.05S0
G1 X-1.67S0
G1 X-0.562S700
G1 X-1.016S0
G1 X-0.554S700
G1 X-1.666S0
G1 Y0.05S0
G1 X1.67S0
G1 X0.559S700
G1 X0.995S0
G1 X0.571S700
G1 X1.666S0
G1 Y0.05S0
G1 X-1.67S0
G1 X-0.58S700
G1 X-0.974S0
G1 X-0.563S700
G1 X-1.666S0
G1 Y0.05S0
G1 X1.67S0
G1 X0.568S700
G1 X0.952S0
G1 X0.59S700
G1 X1.667S0
G1 X-0.014Y0.05S0
G1 X-1.667S0
G1 X-0.589S700
G1 X-0.918S0
G1 X-0.578S700
G1 X-1.667S0
G1 X0.015Y0.05S0
G1 X1.666S0
G1 X0.587S700
G1 X0.88S0
G1 X0.59S700
G1 X1.667S0
G1 X-0.014Y0.05S0
G1 X-1.667S0
G1 X-0.611S700
G1 X-0.822S0
G1 X-0.595S700
G1 X-1.667S0
G1 X0.014Y0.05S0
G1 X1.667S0
G1 X0.612S700
G1 X0.757S0
G1 X0.631S700
G1 X1.667S0
G1 X-0.025Y0.05S0
G1 X-1.666S0
G1 X-0.641S700
G1 X-0.68S0
G1 X-0.633S700
G1 X-1.667S0
G1 X0.026Y0.05S0
G1 X1.667S0
G1 X0.649S700
G1 X0.603S0
G1 X0.65S700
G1 X1.667S0
G1 X-0.026Y0.05S0
G1 X-1.667S0
G1 X-0.692S700
G1 X-0.463S0
G1 X-0.695S700
G1 X-1.666S0
G1 X0.026Y0.05S0
G1 X1.667S0
G1 X0.795S700
G1 X0.209S0
G1 X0.791S700
G1 X1.667S0
G1 X-0.041Y0.05S0
G1 X-1.666S0
G1 X-1.716S700
G1 X-1.666S0
G1 X0.041Y0.05S0
G1 X1.666S0
G1 X1.634S700
G1 X1.667S0
G1 X-0.041Y0.05S0
G1 X-1.666S0
G1 X-1.552S700
G1 X-1.667S0
G1 X0.055Y0.05S0
G1 X1.667S0
G1 X1.439S700
G1 X1.666S0
G1 X-0.061Y0.05S0
G1 X-1.667S0
G1 X-1.315S700
G1 X-1.667S0
G1 X0.064Y0.05S0
G1 X1.666S0
G1 X1.186S700
G1 X1.667S0
G1 X-0.096Y0.05S0
G1 X-1.667S0
G1 X-0.991S700
G1 X-1.667S0
G1 X0.109Y0.05S0
G1 X1.667S0
G1 X0.77S700
G1 X1.667S0
G1 X-0.201Y0.05S0
G1 X-1.666S0
G1 X-0.376S700
G1 X-1.666S0
G1 X-0.483Y0.35S0
G1 X1.667S0
G1 X0.471S700
G1 X0.369S0
G1 X0.472S700
G1 X1.667S0
G1 Y0.05S0
G1 X-1.667S0
G1 X-0.472S700
G1 X-0.369S0
G1 X-0.471S700
G1 X-1.667S0
G1 Y0.05S0
G1 X1.667S0
G1 X0.471S700
G1 X0.369S0
G1 X0.472S700
G1 X1.667S0
G1 Y0.05S0
G1 X-1.667S0
G1 X-0.472S700
G1 X-0.369S0
G1 X-0.471S700
G1 X-1.667S0
G1 Y0.05S0
G1 X1.667S0
G1 X0.471S700
G1 X0.369S0
G1 X0.472S700
G1 X1.667S0
G1 Y0.05S0
G1 X-1.667S0
G1 X-0.472S700
G1 X-0.369S0
G1 X-0.471S700
G1 X-1.667S0
G1 Y0.05S0
G1 X1.667S0
G1 X0.471S700
G1 X0.369S0
G1 X0.472S700
G1 X1.667S0
G1 Y0.05S0
G1 X-1.667S0
G1 X-0.472S700
G1 X-0.369S0
G1 X-0.471S700
G1 X-1.667S0
G1 Y0.05S0
G1 X1.667S0
G1 X0.471S700
G1 X0.369S0
G1 X0.472S700
G1 X1.667S0
G1 Y0.05S0
G1 X-1.667S0
G1 X-0.472S700
G1 X-0.369S0
G1 X-0.471S700
G1 X-1.667S0
M9
G1 S0
M5
; return to starting pos
G0 X1.275Y-2.953
M2
