; LightBurn 1.2.01
; GRBL device profile, current position
; Bounds: X-1.67 Y0 to X3.56 Y2.95
G00 G17 G40 G21 G54
G91
M4
; Cut @ 5000 mm/min, 0% power
M8
G0 X0.01Y0.047
; Layer Lim
G1 X1S0F5000
; Scan @ 4000 mm/min, 70% power
M8
G0 X-2.035Y-0.044
; Layer C02
G1 X1.667F4000S0
G1 X0.111S700
G1 X1.666S0
G1 X1.142Y0.05S0
G1 X-1.666S0
G1 X-0.509S700
G1 X-0.396S0
G1 X-0.581S700
G1 X-1.667S0
G1 X-0.098Y0.05S0
G1 X1.667S0
G1 X0.787S700
G1 X0.288S0
G1 X0.509S700
G1 X1.666S0
G1 Y0.05S0
G1 X-1.666S0
G1 X-0.509S700
G1 X-0.209S0
G1 X-0.937S700
G1 X-1.666S0
G1 X-0.054Y0.05S0
G1 X1.667S0
G1 X1.056S700
G1 X0.143S0
G1 X0.509S700
G1 X1.666S0
G1 Y0.05S0
G1 X-1.666S0
G1 X-0.509S700
G1 X-0.09S0
G1 X-1.151S700
G1 X-1.666S0
G1 X-0.036Y0.05S0
G1 X1.667S0
G1 X1.229S700
G1 X0.047S0
G1 X0.509S700
G1 X1.666S0
G1 Y0.05S0
G1 X-1.666S0
G1 X-0.509S700
G1 X-1.303
G1 X-1.667S0
G1 X-0.022Y0.05S0
G1 X1.666S0
G1 X1.835S700
G1 X1.666S0
G1 Y0.05S0
G1 X-1.666S0
G1 X-0.826S700
G1 X-0.323S0
G1 X-0.703S700
G1 X-1.667S0
G1 X-0.012Y0.05S0
G1 X1.667S0
G1 X0.639S700
G1 X0.491S0
G1 X0.734S700
G1 X1.666S0
G1 Y0.05S0
G1 X-1.666S0
G1 X-0.679S700
G1 X-0.585S0
G1 X-0.611S700
G1 X-1.667S0
G1 Y0.05S0
G1 X1.665S0
G1 X0.583S700
G1 X0.656S0
G1 X0.638S700
G1 X1.666S0
G1 Y0.05S0
G1 X-1.666S0
G1 X-0.609S700
G1 X-0.698S0
G1 X-0.573S700
G1 X-1.666S0
G1 Y0.05S0
G1 X1.665S0
G1 X0.561S700
G1 X0.733S0
G1 X0.587S700
G1 X1.666S0
G1 Y0.05S0
G1 X-1.666S0
G1 X-0.58S700
G1 X-0.742S0
G1 X-0.56S700
G1 X-1.667S0
G1 Y0.05S0
G1 X1.666S0
G1 X0.559S700
G1 X0.751S0
G1 X0.573S700
G1 X1.666S0
G1 Y0.05S0
G1 X-1.666S0
G1 X-0.567S700
G1 X-0.759S0
G1 X-0.558S700
G1 X-1.667S0
G1 Y0.05S0
G1 X1.666S0
G1 X0.557S700
G1 X0.768S0
G1 X0.56S700
G1 X1.666S0
G1 Y0.05S0
G1 X-1.666S0
G1 X-0.553S700
G1 X-0.776S0
G1 X-0.557S700
G1 X-1.667S0
G1 Y0.05S0
G1 X1.666S0
G1 X0.556S700
G1 X0.78S0
G1 X0.551S700
G1 X1.666S0
G1 Y0.05S0
G1 X-1.666S0
G1 X-0.55S700
G1 X-0.783S0
G1 X-0.555S700
G1 X-1.667S0
G1 Y0.05S0
G1 X1.666S0
G1 X0.554S700
G1 X0.785S0
G1 X0.55S700
G1 X1.666S0
G1 Y0.05S0
G1 X-1.666S0
G1 X-0.549S700
G1 X-0.788S0
G1 X-0.553S700
G1 X-1.667S0
G1 Y0.05S0
G1 X1.666S0
G1 X0.552S700
G1 X0.79S0
G1 X0.549S700
G1 X1.666S0
G1 Y0.05S0
G1 X-1.666S0
G1 X-0.549S700
G1 X-0.792S0
G1 X-0.551S700
G1 X-1.667S0
G1 Y0.05S0
G1 X1.666S0
G1 X0.55S700
G1 X0.794S0
G1 X0.549S700
G1 X1.666S0
G1 Y0.05S0
G1 X-1.666S0
G1 X-0.549S700
G1 X-0.796S0
G1 X-0.549S700
G1 X-1.667S0
G1 Y0.05S0
G1 X1.666S0
G1 X0.548S700
G1 X0.798S0
G1 X0.549S700
G1 X1.666S0
G1 Y0.05S0
G1 X-1.666S0
G1 X-0.549S700
G1 X-0.798S0
G1 X-0.547S700
G1 X-1.667S0
G1 Y0.05S0
G1 X1.667S0
G1 X0.548S700
G1 X0.797S0
G1 X0.549S700
G1 X1.666S0
G1 Y0.05S0
G1 X-1.666S0
G1 X-0.549S700
G1 X-0.796S0
G1 X-0.548S700
G1 X-1.667S0
G1 Y0.05S0
G1 X1.668S0
G1 X0.548S700
G1 X0.795S0
G1 X0.549S700
G1 X1.666S0
G1 Y0.05S0
G1 X-1.666S0
G1 X-0.549S700
G1 X-0.795S0
G1 X-0.547S700
G1 X-1.667S0
G1 Y0.05S0
G1 X1.667S0
G1 X0.548S700
G1 X0.794S0
G1 X0.549S700
G1 X1.666S0
G1 Y0.05S0
G1 X-1.666S0
G1 X-0.549S700
G1 X-0.793S0
G1 X-0.548S700
G1 X-1.667S0
G1 Y0.05S0
G1 X1.668S0
G1 X0.548S700
G1 X0.792S0
G1 X0.549S700
G1 X1.666S0
G1 Y0.05S0
G1 X-1.666S0
G1 X-0.549S700
G1 X-0.792S0
G1 X-0.548S700
G1 X-1.666S0
G1 Y0.05S0
G1 X1.667S0
G1 X0.548S700
G1 X0.791S0
G1 X0.549S700
G1 X1.666S0
G1 Y0.05S0
G1 X-1.666S0
G1 X-0.549S700
G1 X-0.79S0
G1 X-0.548S700
G1 X-1.667S0
G1 Y0.05S0
G1 X1.667S0
G1 X0.548S700
G1 X0.79S0
G1 X0.549S700
G1 X1.666S0
G1 Y0.05S0
G1 X-1.666S0
G1 X-0.549S700
G1 X-0.789S0
G1 X-0.548S700
G1 X-1.667S0
G1 Y0.05S0
G1 X1.668S0
G1 X0.548S700
G1 X0.788S0
G1 X0.549S700
G1 X1.666S0
G1 X-0.286Y0.4S0
G1 X-1.667S0
G1 X-0.472S700
G1 X-0.369S0
G1 X-0.471S700
G1 X-1.666S0
G1 Y0.05S0
G1 X1.666S0
G1 X0.471S700
G1 X0.369S0
G1 X0.472S700
G1 X1.667S0
G1 Y0.05S0
G1 X-1.667S0
G1 X-0.472S700
G1 X-0.369S0
G1 X-0.471S700
G1 X-1.666S0
G1 Y0.05S0
G1 X1.666S0
G1 X0.471S700
G1 X0.369S0
G1 X0.472S700
G1 X1.667S0
G1 Y0.05S0
G1 X-1.667S0
G1 X-0.472S700
G1 X-0.369S0
G1 X-0.471S700
G1 X-1.666S0
G1 Y0.05S0
G1 X1.666S0
G1 X0.471S700
G1 X0.369S0
G1 X0.472S700
G1 X1.667S0
G1 Y0.05S0
G1 X-1.667S0
G1 X-0.472S700
G1 X-0.369S0
G1 X-0.471S700
G1 X-1.666S0
G1 Y0.05S0
G1 X1.666S0
G1 X0.471S700
G1 X0.369S0
G1 X0.472S700
G1 X1.667S0
G1 Y0.05S0
G1 X-1.667S0
G1 X-0.472S700
G1 X-0.369S0
G1 X-0.471S700
G1 X-1.666S0
G1 Y0.05S0
G1 X1.666S0
G1 X0.471S700
G1 X0.369S0
G1 X0.472S700
G1 X1.667S0
M9
G1 S0
M5
; return to starting pos
G0 X-3.275Y-2.953
M2
