; LightBurn 1.2.01
; GRBL device profile, current position
; Bounds: X-1.67 Y0.03 to X2.79 Y1.79
G00 G17 G40 G21 G54
G91
M4
; Cut @ 4999.998 mm/min, 0% power
M8
G0 X0.333Y0.031
; Layer Lim
G1 X0.1S0F5000
; Scan @ 4000.002 mm/min, 70% power
M8
G0 X-2.1Y0.005
; Layer C02
G1 X1.667F4000S0
G1 X0.204S700
G1 X0.197S0
G1 X0.318S700
G1 X1.666S0
G1 X0.1Y0.05S0
G1 X-1.667S0
G1 X-0.507S700
G1 X-0.107S0
G1 X-0.204S700
G1 X-1.667S0
G1 Y0.05S0
G1 X1.667S0
G1 X0.204S700
G1 X0.05S0
G1 X0.641S700
G1 X1.667S0
G1 X0.047Y0.05S0
G1 X-1.667S0
G1 X-0.731S700
G1 X-0.211
G1 X-1.667S0
G1 Y0.05S0
G1 X1.667S0
G1 X0.377S700
G1 X0.326S0
G1 X0.286S700
G1 X1.667S0
G1 X0.041Y0.05S0
G1 X-1.667S0
G1 X-0.269S700
G1 X-0.434S0
G1 X-0.327S700
G1 X-1.667S0
G1 Y0.05S0
G1 X1.667S0
G1 X0.284S700
G1 X0.509S0
G1 X0.259S700
G1 X1.666S0
G1 X0.022Y0.05S0
G1 X-1.667S0
G1 X-0.247S700
G1 X-0.57S0
G1 X-0.256S700
G1 X-1.667S0
G1 Y0.05S0
G1 X1.667S0
G1 X0.229S700
G1 X0.623S0
G1 X0.243S700
G1 X1.667S0
G1 X0.017Y0.05S0
G1 X-1.667S0
G1 X-0.245S700
G1 X-0.651S0
G1 X-0.216S700
G1 X-1.667S0
G1 Y0.05S0
G1 X1.667S0
G1 X0.204S700
G1 X0.678S0
G1 X0.233S700
G1 X1.667S0
G1 Y0.05S0
G1 X-1.664S0
G1 X-0.222S700
G1 X-0.697S0
G1 X-0.199S700
G1 X-1.667S0
G1 Y0.05S0
G1 X1.667S0
G1 X0.2S700
G1 X0.702S0
G1 X0.219S700
G1 X1.667S0
G1 Y0.05S0
G1 X-1.664S0
G1 X-0.223S700
G1 X-0.7S0
G1 X-0.201S700
G1 X-1.667S0
G1 Y0.05S0
G1 X1.667S0
G1 X0.202S700
G1 X0.699S0
G1 X0.221S700
G1 X1.667S0
G1 Y0.05S0
G1 X-1.669S0
G1 X-0.219S700
G1 X-0.699S0
G1 X-0.202S700
G1 X-1.667S0
G1 Y0.05S0
G1 X1.667S0
G1 X0.203S700
G1 X0.686S0
G1 X0.228S700
G1 X1.666S0
G1 Y0.05S0
G1 X-1.67S0
G1 X-0.239S700
G1 X-0.654S0
G1 X-0.22S700
G1 X-1.667S0
G1 Y0.05S0
G1 X1.667S0
G1 X0.239S700
G1 X0.62S0
G1 X0.236S700
G1 X1.667S0
G1 X-0.018Y0.05S0
G1 X-1.667S0
G1 X-0.233S700
G1 X-0.583S0
G1 X-0.261S700
G1 X-1.667S0
G1 Y0.05S0
G1 X1.667S0
G1 X0.303S700
G1 X0.508S0
G1 X0.248S700
G1 X1.667S0
G1 X-0.031Y0.05S0
G1 X-1.666S0
G1 X-0.257S700
G1 X-0.426S0
G1 X-0.346S700
G1 X-1.667S0
G1 Y0.05S0
G1 X1.667S0
G1 X0.427S700
G1 X0.278S0
G1 X0.287S700
G1 X1.667S0
G1 X-0.036Y0.05S0
G1 X-1.667S0
G1 X-0.733S700
G1 X-0.223
G1 X-1.667S0
G1 Y0.05S0
G1 X1.667S0
G1 X0.22S700
G1 X0.059S0
G1 X0.619S700
G1 X1.666S0
G1 X-0.065Y0.05S0
G1 X-1.667S0
G1 X-0.496S700
G1 X-0.116S0
G1 X-0.22S700
G1 X-1.667S0
G1 Y0.05S0
G1 X1.667S0
G1 X0.22S700
G1 X0.233S0
G1 X0.263S700
G1 X1.666S0
G1 X-0.496Y0.05S0
G1 X-1.666S0
G1 X-0.22S700
G1 X-1.667S0
G1 Y0.05S0
G1 X1.667S0
G1 X0.22S700
G1 X1.666S0
G1 Y0.05S0
G1 X-1.666S0
G1 X-0.22S700
G1 X-1.667S0
G1 Y0.05S0
G1 X1.667S0
G1 X0.22S700
G1 X1.666S0
G1 Y0.05S0
G1 X-1.666S0
G1 X-0.22S700
G1 X-1.667S0
G1 Y0.05S0
G1 X1.667S0
G1 X0.22S700
G1 X1.666S0
G1 Y0.05S0
G1 X-1.666S0
G1 X-0.22S700
G1 X-1.667S0
G1 Y0.05S0
G1 X1.667S0
G1 X0.22S700
G1 X1.666S0
G1 Y0.05S0
G1 X-1.666S0
G1 X-0.22S700
G1 X-1.667S0
M9
G1 S0
M5
; return to starting pos
G0 X1.667Y-1.786
M2
