; LightBurn 1.2.01
; GRBL device profile, current position
; Bounds: X-1.67 Y0.03 to X2.79 Y1.78
G00 G17 G40 G21 G54
G91
M4
; Cut @ 4999.998 mm/min, 0% power
M8
G0 X0.411Y0.029
; Layer Lim
G1 X0.1S0F5000
; Scan @ 4000.002 mm/min, 70% power
M8
G0 X-1.803Y0.005
; Layer C02
G1 X1.667F4000S0
G1 X0.356S700
G1 X0.19S0
G1 X0.204S700
G1 X1.666S0
G1 Y0.05S0
G1 X-1.666S0
G1 X-0.204S700
G1 X-0.103S0
G1 X-0.543S700
G1 X-1.667S0
G1 X-0.053Y0.05S0
G1 X1.667S0
G1 X0.651S700
G1 X0.048S0
G1 X0.204S700
G1 X1.666S0
G1 Y0.05S0
G1 X-1.666S0
G1 X-0.204S700
G1 X-0.307
G1 X-0.055S0
G1 X-0.39S700
G1 X-1.666S0
G1 X-0.039Y0.05S0
G1 X1.666S0
G1 X0.287S700
G1 X0.335S0
G1 X0.373S700
G1 X1.666S0
G1 Y0.05S0
G1 X-1.666S0
G1 X-0.317S700
G1 X-0.451S0
G1 X-0.258S700
G1 X-1.666S0
G1 X-0.032Y0.05S0
G1 X1.667S0
G1 X0.24S700
G1 X0.531S0
G1 X0.286S700
G1 X1.666S0
G1 Y0.05S0
G1 X-1.666S0
G1 X-0.265S700
G1 X-0.578S0
G1 X-0.233S700
G1 X-1.667S0
G1 X-0.016Y0.05S0
G1 X1.667S0
G1 X0.222S700
G1 X0.626S0
G1 X0.244S700
G1 X1.666S0
G1 Y0.05S0
G1 X-1.666S0
G1 X-0.222S700
G1 X-0.657S0
G1 X-0.229S700
G1 X-1.667S0
G1 X-0.008Y0.05S0
G1 X1.666S0
G1 X0.229S700
G1 X0.675S0
G1 X0.213S700
G1 X1.666S0
G1 Y0.05S0
G1 X-1.666S0
G1 X-0.209S700
G1 X-0.686S0
G1 X-0.225S700
G1 X-1.666S0
G1 Y0.05S0
G1 X1.663S0
G1 X0.222S700
G1 X0.697S0
G1 X0.204S700
G1 X1.666S0
G1 Y0.05S0
G1 X-1.666S0
G1 X-0.2S700
G1 X-0.706S0
G1 X-0.219S700
G1 X-1.666S0
G1 Y0.05S0
G1 X1.668S0
G1 X0.218S700
G1 X0.702S0
G1 X0.203S700
G1 X1.666S0
G1 Y0.05S0
G1 X-1.666S0
G1 X-0.215S700
G1 X-0.683S0
G1 X-0.223S700
G1 X-1.667S0
G1 Y0.05S0
G1 X1.67S0
G1 X0.227S700
G1 X0.665S0
G1 X0.226S700
G1 X1.666S0
G1 Y0.05S0
G1 X-1.666S0
G1 X-0.238S700
G1 X-0.638S0
G1 X-0.23S700
G1 X-1.666S0
G1 X0.012Y0.05S0
G1 X1.667S0
G1 X0.237S700
G1 X0.6S0
G1 X0.256S700
G1 X1.666S0
G1 Y0.05S0
G1 X-1.666S0
G1 X-0.286S700
G1 X-0.55S0
G1 X-0.242S700
G1 X-1.666S0
G1 X0.024Y0.05S0
G1 X1.667S0
G1 X0.253S700
G1 X0.484S0
G1 X0.316S700
G1 X1.666S0
G1 Y0.05S0
G1 X-1.666S0
G1 X-0.346S700
G1 X-0.418S0
G1 X-0.265S700
G1 X-1.667S0
G1 X0.033Y0.05S0
G1 X1.667S0
G1 X0.3S700
G1 X0.283S0
G1 X0.413S700
G1 X1.666S0
G1 Y0.05S0
G1 X-1.666S0
G1 X-0.219S700
G1 X-0.739
G1 X-1.666S0
G1 X0.047Y0.05S0
G1 X1.666S0
G1 X0.639S700
G1 X0.053S0
G1 X0.219S700
G1 X1.666S0
G1 Y0.05S0
G1 X-1.666S0
G1 X-0.219S700
G1 X-0.132S0
G1 X-0.481S700
G1 X-1.667S0
G1 X0.125Y0.05S0
G1 X1.667S0
G1 X0.25S700
G1 X0.238S0
G1 X0.219S700
G1 X1.666S0
G1 Y0.05S0
G1 X-1.666S0
G1 X-0.219S700
G1 X-1.666S0
G1 Y0.05S0
G1 X1.666S0
G1 X0.219S700
G1 X1.666S0
G1 Y0.05S0
G1 X-1.666S0
G1 X-0.219S700
G1 X-1.666S0
G1 Y0.05S0
G1 X1.666S0
G1 X0.219S700
G1 X1.666S0
G1 Y0.05S0
G1 X-1.666S0
G1 X-0.219S700
G1 X-1.666S0
G1 Y0.05S0
G1 X1.666S0
G1 X0.219S700
G1 X1.666S0
G1 Y0.05S0
G1 X-1.666S0
G1 X-0.219S700
G1 X-1.666S0
G1 Y0.05S0
G1 X1.666S0
G1 X0.219S700
G1 X1.666S0
G1 Y0.05S0
G1 X-1.666S0
G1 X-0.219S700
G1 X-1.666S0
M9
G1 S0
M5
; return to starting pos
G0 X0.76Y-1.784
M2
