; LightBurn 1.2.01
; GRBL device profile, current position
; Bounds: X-1.66 Y0.01 to X2.87 Y1.36
G00 G17 G40 G21 G54
G91
M4
; Cut @ 4999.998 mm/min, 0% power
M8
G0 X0.409Y0.031
; Layer Lim
G1 X0.5S0F5000
; Scan @ 4000.002 mm/min, 70% power
M8
G0 X-2.03Y-0.025
; Layer C02
G1 X1.667F4000S0
G1 X0.131S700
G1 X1.667S0
G1 X0.219Y0.05S0
G1 X-1.667S0
G1 X-0.534S700
G1 X-1.666S0
G1 X-0.097Y0.05S0
G1 X1.667S0
G1 X0.707S700
G1 X1.667S0
G1 X0.066Y0.05S0
G1 X-1.667S0
G1 X-0.84S700
G1 X-1.666S0
G1 X-0.045Y0.05S0
G1 X1.666S0
G1 X0.348S700
G1 X0.225S0
G1 X0.354S700
G1 X1.666S0
G1 X0.041Y0.05S0
G1 X-1.666S0
G1 X-0.296S700
G1 X-0.426S0
G1 X-0.274S700
G1 X-1.667S0
G1 X-0.028Y0.05S0
G1 X1.667S0
G1 X0.252S700
G1 X0.531S0
G1 X0.265S700
G1 X1.667S0
G1 X0.02Y0.05S0
G1 X-1.667S0
G1 X-0.247S700
G1 X-0.607S0
G1 X-0.242S700
G1 X-1.667S0
G1 X-0.022Y0.05S0
G1 X1.667S0
G1 X0.233S700
G1 X0.663S0
G1 X0.242S700
G1 X1.667S0
G1 X-0.924Y0.05S0
G1 X-1.667S0
G1 X-0.225S700
G1 X-1.667S0
G1 X-0.012Y0.05S0
G1 X1.667S0
G1 X0.22S700
G1 X1.667S0
G1 X-0.008Y0.05S0
G1 X-1.666S0
G1 X-0.224S700
G1 X-1.667S0
G1 X-0.011Y0.05S0
G1 X1.666S0
G1 X0.231S700
G1 X1.667S0
G1 X0.965Y0.05S0
G1 X-1.667S0
G1 X-1.195S700
G1 X-1.667S0
G1 Y0.05S0
G1 X1.67S0
G1 X1.193S700
G1 X1.666S0
G1 Y0.05S0
G1 X-1.666S0
G1 X-1.19S700
G1 X-1.667S0
G1 Y0.05S0
G1 X1.67S0
G1 X0.232S700
G1 X0.723S0
G1 X0.233S700
G1 X1.666S0
G1 X-0.007Y0.05S0
G1 X-1.667S0
G1 X-0.232S700
G1 X-0.706S0
G1 X-0.237S700
G1 X-1.667S0
G1 X0.019Y0.05S0
G1 X1.666S0
G1 X0.23S700
G1 X0.689S0
G1 X0.222S700
G1 X1.667S0
G1 X-0.017Y0.05S0
G1 X-1.666S0
G1 X-0.224S700
G1 X-0.66S0
G1 X-0.222S700
G1 X-1.667S0
G1 X0.019Y0.05S0
G1 X1.666S0
G1 X0.238S700
G1 X0.6S0
G1 X0.233S700
G1 X1.667S0
G1 X-0.028Y0.05S0
G1 X-1.667S0
G1 X-0.242S700
G1 X-0.524S0
G1 X-0.258S700
G1 X-1.667S0
G1 X0.034Y0.05S0
G1 X1.666S0
G1 X0.279S700
G1 X0.417S0
G1 X0.259S700
G1 X1.667S0
G1 X-0.037Y0.05S0
G1 X-1.667S0
G1 X-0.322S700
G1 X-0.215S0
G1 X-0.336S700
G1 X-1.666S0
G1 X0.044Y0.05S0
G1 X1.667S0
G1 X0.782S700
G1 X1.667S0
G1 X-0.071Y0.05S0
G1 X-1.666S0
G1 X-0.648S700
G1 X-1.667S0
G1 X0.096Y0.05S0
G1 X1.666S0
G1 X0.482S700
G1 X1.667S0
G1 X-0.195Y0.05S0
G1 X-1.667S0
G1 X-0.068S700
G1 X-1.666S0
M9
G1 S0
M5
; return to starting pos
G0 X1.074Y-1.356
M2
