; LightBurn 1.2.01
; GRBL device profile, current position
; Bounds: X-1.67 Y0.05 to X2.82 Y1.8
G00 G17 G40 G21 G54
G91
M4
; Cut @ 4999.998 mm/min, 0% power
M8
G0 X0.419Y0.526
; Layer Lim
G1 X0.1S0F5000
; Scan @ 4000.002 mm/min, 70% power
M8
G0 X-1.896Y-0.477
; Layer C02
G1 X1.667F4000S0
G1 X0.526S700
G1 X1.666S0
G1 X0.108Y0.05S0
G1 X-1.667S0
G1 X-0.727S700
G1 X-1.666S0
G1 X-0.057Y0.05S0
G1 X1.667S0
G1 X0.837S700
G1 X1.666S0
G1 X0.054Y0.05S0
G1 X-1.667S0
G1 X-0.34S700
G1 X-0.265S0
G1 X-0.327S700
G1 X-1.666S0
G1 X-0.022Y0.05S0
G1 X1.667S0
G1 X0.253S700
G1 X0.458S0
G1 X0.274S700
G1 X1.667S0
G1 X0.025Y0.05S0
G1 X-1.667S0
G1 X-0.242S700
G1 X-0.555S0
G1 X-0.233S700
G1 X-1.667S0
G1 X-0.006Y0.05S0
G1 X1.667S0
G1 X0.219S700
G1 X0.604S0
G1 X0.238S700
G1 X1.666S0
G1 X0.015Y0.05S0
G1 X-1.666S0
G1 X-0.238S700
G1 X-0.712S0
G1 X-0.129S700
G1 X-1.667S0
G1 X0.857Y0.05S0
G1 X1.667S0
G1 X0.226S700
G1 X1.667S0
G1 Y0.05S0
G1 X-1.662S0
G1 X-0.216S700
G1 X-1.666S0
G1 X-0.518Y0.05S0
G1 X1.667S0
G1 X0.297S700
G1 X0.221S0
G1 X0.219S700
G1 X1.667S0
G1 Y0.05S0
G1 X-1.665S0
G1 X-0.221S700
G1 X-0.12S0
G1 X-0.507S700
G1 X-1.667S0
G1 X-0.074Y0.05S0
G1 X1.667S0
G1 X0.654S700
G1 X0.048S0
G1 X0.221S700
G1 X1.667S0
G1 Y0.05S0
G1 X-1.666S0
G1 X-0.959S700
G1 X-1.667S0
G1 X-0.034Y0.05S0
G1 X1.666S0
G1 X0.286S700
G1 X0.304S0
G1 X0.405S700
G1 X1.666S0
G1 Y0.05S0
G1 X-1.665S0
G1 X-0.336S700
G1 X-0.446S0
G1 X-0.248S700
G1 X-1.667S0
G1 X-0.035Y0.05S0
G1 X1.667S0
G1 X0.23S700
G1 X0.538S0
G1 X0.298S700
G1 X1.666S0
G1 Y0.05S0
G1 X-1.666S0
G1 X-0.275S700
G1 X-0.588S0
G1 X-0.224S700
G1 X-1.667S0
G1 X-0.012Y0.05S0
G1 X1.666S0
G1 X0.211S700
G1 X0.636S0
G1 X0.254S700
G1 X1.667S0
G1 Y0.05S0
G1 X-1.666S0
G1 X-0.232S700
G1 X-0.67S0
G1 X-0.212S700
G1 X-1.667S0
G1 X-0.013Y0.05S0
G1 X1.667S0
G1 X0.217S700
G1 X0.689S0
G1 X0.222S700
G1 X1.667S0
G1 Y0.05S0
G1 X-1.666S0
G1 X-0.219S700
G1 X-0.7S0
G1 X-0.223S700
G1 X-1.667S0
G1 X-0.007Y0.05S0
G1 X1.666S0
G1 X0.226S700
G1 X0.71S0
G1 X0.215S700
G1 X1.666S0
G1 Y0.05S0
G1 X-1.666S0
G1 X-0.211S700
G1 X-0.719S0
G1 X-0.216S700
G1 X-1.666S0
G1 Y0.05S0
G1 X1.671S0
G1 X0.213S700
G1 X0.713S0
G1 X0.215S700
G1 X1.666S0
G1 Y0.05S0
G1 X-1.667S0
G1 X-0.226S700
G1 X-0.694S0
G1 X-0.215S700
G1 X-1.666S0
G1 Y0.05S0
G1 X1.671S0
G1 X0.218S700
G1 X0.674S0
G1 X0.238S700
G1 X1.666S0
G1 Y0.05S0
G1 X-1.667S0
G1 X-0.25S700
G1 X-0.643S0
G1 X-0.231S700
G1 X-1.666S0
G1 X0.021Y0.05S0
G1 X1.666S0
G1 X0.232S700
G1 X0.599S0
G1 X0.272S700
G1 X1.666S0
G1 Y0.05S0
G1 X-1.667S0
G1 X-0.304S700
G1 X-0.541S0
G1 X-0.232S700
G1 X-1.667S0
G1 X0.025Y0.05S0
G1 X1.666S0
G1 X0.247S700
G1 X0.47S0
G1 X0.335S700
G1 X1.667S0
G1 Y0.05S0
G1 X-1.667S0
G1 X-0.367S700
G1 X-0.399S0
G1 X-0.261S700
G1 X-1.667S0
G1 X0.025Y0.05S0
G1 X1.666S0
G1 X0.327S700
G1 X0.22S0
G1 X0.455S700
G1 X1.667S0
G1 Y0.05S0
G1 X-1.667S0
G1 X-0.204S700
G1 X-0.032S0
G1 X-0.715S700
G1 X-1.667S0
G1 X0.061Y0.05S0
G1 X1.667S0
G1 X0.603S700
G1 X0.083S0
G1 X0.203S700
G1 X1.667S0
G1 Y0.05S0
G1 X-1.667S0
G1 X-0.203S700
G1 X-0.186S0
G1 X-0.422S700
G1 X-1.667S0
M9
G1 S0
M5
; return to starting pos
G0 X1.332Y-1.799
M2
