; LightBurn 1.2.01
; GRBL device profile, current position
; Bounds: X-1.67 Y0 to X2.73 Y1.77
G00 G17 G40 G21 G54
G91
M4
; Cut @ 4999.998 mm/min, 0% power
M8
G0 X0.332Y0
; Layer Lim
G1 X0.1S0F5000
; Scan @ 4000.002 mm/min, 70% power
M8
G0 X-2.099Y0.02
; Layer C02
G1 X1.667F4000S0
G1 X0.22S700
G1 X0.617S0
G1 X0.22S700
G1 X1.666S0
G1 Y0.05S0
G1 X-1.665S0
G1 X-0.221S700
G1 X-0.617S0
G1 X-0.22S700
G1 X-1.667S0
G1 Y0.05S0
G1 X1.667S0
G1 X0.22S700
G1 X0.617S0
G1 X0.222S700
G1 X1.667S0
G1 Y0.05S0
G1 X-1.666S0
G1 X-0.223S700
G1 X-0.617S0
G1 X-0.22S700
G1 X-1.667S0
G1 Y0.05S0
G1 X1.667S0
G1 X0.22S700
G1 X0.617S0
G1 X0.224S700
G1 X1.667S0
G1 Y0.05S0
G1 X-1.666S0
G1 X-0.225S700
G1 X-0.617S0
G1 X-0.22S700
G1 X-1.667S0
G1 Y0.05S0
G1 X1.667S0
G1 X0.22S700
G1 X0.617S0
G1 X0.226S700
G1 X1.667S0
G1 Y0.05S0
G1 X-1.666S0
G1 X-0.227S700
G1 X-0.617S0
G1 X-0.22S700
G1 X-1.667S0
G1 Y0.05S0
G1 X1.667S0
G1 X0.22S700
G1 X0.617S0
G1 X0.229S700
G1 X1.666S0
G1 Y0.05S0
G1 X-1.665S0
G1 X-0.23S700
G1 X-0.617S0
G1 X-0.22S700
G1 X-1.667S0
G1 Y0.05S0
G1 X1.667S0
G1 X0.22S700
G1 X0.617S0
G1 X0.229S700
G1 X1.667S0
G1 Y0.05S0
G1 X-1.669S0
G1 X-0.227S700
G1 X-0.617S0
G1 X-0.22S700
G1 X-1.667S0
G1 Y0.05S0
G1 X1.667S0
G1 X0.22S700
G1 X0.617S0
G1 X0.225S700
G1 X1.666S0
G1 Y0.05S0
G1 X-1.669S0
G1 X-0.222S700
G1 X-0.617S0
G1 X-0.22S700
G1 X-1.667S0
G1 Y0.05S0
G1 X1.667S0
G1 X0.219S700
G1 X0.618S0
G1 X0.22S700
G1 X1.667S0
G1 Y0.05S0
G1 X-1.669S0
G1 X-0.218S700
G1 X-0.619S0
G1 X-0.218S700
G1 X-1.667S0
G1 Y0.05S0
G1 X1.667S0
G1 X0.218S700
G1 X0.619S0
G1 X0.215S700
G1 X1.667S0
G1 Y0.05S0
G1 X-1.669S0
G1 X-0.217S700
G1 X-0.606S0
G1 X-0.227S700
G1 X-1.667S0
G1 Y0.05S0
G1 X1.667S0
G1 X0.246S700
G1 X0.582S0
G1 X0.22S700
G1 X1.667S0
G1 Y0.05S0
G1 X-1.669S0
G1 X-0.234S700
G1 X-0.545S0
G1 X-0.267S700
G1 X-1.667S0
G1 Y0.05S0
G1 X1.667S0
G1 X0.311S700
G1 X0.484S0
G1 X0.242S700
G1 X1.666S0
G1 X-0.013Y0.05S0
G1 X-1.667S0
G1 X-0.276S700
G1 X-0.385S0
G1 X-0.362S700
G1 X-1.667S0
G1 Y0.05S0
G1 X1.667S0
G1 X0.461S700
G1 X0.206S0
G1 X0.337S700
G1 X1.666S0
G1 X-0.033Y0.05S0
G1 X-1.667S0
G1 X-0.726S700
G1 X-0.024S0
G1 X-0.22S700
G1 X-1.667S0
G1 Y0.05S0
G1 X1.667S0
G1 X0.22S700
G1 X0.081S0
G1 X0.624S700
G1 X1.667S0
G1 X-0.065Y0.05S0
G1 X-1.667S0
G1 X-0.477S700
G1 X-0.163S0
G1 X-0.22S700
G1 X-1.667S0
G1 Y0.05S0
G1 X1.667S0
G1 X0.22S700
G1 X0.325S0
G1 X0.128S700
G1 X1.666S0
G1 X-0.453Y0.05S0
G1 X-1.666S0
G1 X-0.22S700
G1 X-1.667S0
G1 Y0.05S0
G1 X1.667S0
G1 X0.22S700
G1 X1.666S0
G1 Y0.05S0
G1 X-1.666S0
G1 X-0.22S700
G1 X-1.667S0
G1 Y0.05S0
G1 X1.667S0
G1 X0.22S700
G1 X1.666S0
G1 Y0.05S0
G1 X-1.666S0
G1 X-0.22S700
G1 X-1.667S0
G1 Y0.05S0
G1 X1.667S0
G1 X0.22S700
G1 X1.666S0
G1 Y0.05S0
G1 X-1.666S0
G1 X-0.22S700
G1 X-1.667S0
G1 Y0.05S0
G1 X1.667S0
G1 X0.22S700
G1 X1.666S0
G1 Y0.05S0
G1 X-1.666S0
G1 X-0.22S700
G1 X-1.667S0
M9
G1 S0
M5
; return to starting pos
G0 X1.667Y-1.77
M2
