; LightBurn 1.2.01
; GRBL device profile, current position
; Bounds: X-1.67 Y0 to X2.72 Y1.29
G00 G17 G40 G21 G54
G91
M4
; Cut @ 4999.998 mm/min, 0% power
M8
G0 X0.332Y0
; Layer Lim
G1 X0.1S0F5000
; Scan @ 4000.002 mm/min, 70% power
M8
G0 X-2.099Y0.039
; Layer C02
G1 X1.667F4000S0
G1 X0.22S700
G1 X0.614S0
G1 X0.22S700
G1 X1.667S0
G1 Y0.05S0
G1 X-1.667S0
G1 X-0.22S700
G1 X-0.614S0
G1 X-0.22S700
G1 X-1.667S0
G1 Y0.05S0
G1 X1.667S0
G1 X0.22S700
G1 X0.614S0
G1 X0.221S700
G1 X1.667S0
G1 Y0.05S0
G1 X-1.667S0
G1 X-0.221S700
G1 X-0.614S0
G1 X-0.22S700
G1 X-1.667S0
G1 Y0.05S0
G1 X1.667S0
G1 X0.22S700
G1 X0.614S0
G1 X0.222S700
G1 X1.666S0
G1 Y0.05S0
G1 X-1.666S0
G1 X-0.222S700
G1 X-0.614S0
G1 X-0.22S700
G1 X-1.667S0
G1 Y0.05S0
G1 X1.667S0
G1 X0.22S700
G1 X0.614S0
G1 X0.222S700
G1 X1.667S0
G1 Y0.05S0
G1 X-1.666S0
G1 X-0.223S700
G1 X-0.614S0
G1 X-0.22S700
G1 X-1.667S0
G1 Y0.05S0
G1 X1.667S0
G1 X0.22S700
G1 X0.614S0
G1 X0.223S700
G1 X1.667S0
G1 Y0.05S0
G1 X-1.667S0
G1 X-0.223S700
G1 X-0.614S0
G1 X-0.22S700
G1 X-1.667S0
G1 Y0.05S0
G1 X1.667S0
G1 X0.22S700
G1 X0.614S0
G1 X0.222S700
G1 X1.667S0
G1 Y0.05S0
G1 X-1.667S0
G1 X-0.222S700
G1 X-0.614S0
G1 X-0.22S700
G1 X-1.667S0
G1 Y0.05S0
G1 X1.667S0
G1 X0.22S700
G1 X0.614S0
G1 X0.221S700
G1 X1.667S0
G1 Y0.05S0
G1 X-1.668S0
G1 X-0.22S700
G1 X-0.614S0
G1 X-0.22S700
G1 X-1.667S0
G1 Y0.05S0
G1 X1.667S0
G1 X0.218S700
G1 X0.616S0
G1 X0.219S700
G1 X1.667S0
G1 Y0.05S0
G1 X-1.667S0
G1 X-0.219S700
G1 X-0.617S0
G1 X-0.217S700
G1 X-1.667S0
G1 Y0.05S0
G1 X1.667S0
G1 X0.217S700
G1 X0.615S0
G1 X0.22S700
G1 X1.667S0
G1 Y0.05S0
G1 X-1.668S0
G1 X-0.221S700
G1 X-0.596S0
G1 X-0.234S700
G1 X-1.667S0
G1 Y0.05S0
G1 X1.667S0
G1 X0.25S700
G1 X0.569S0
G1 X0.23S700
G1 X1.667S0
G1 X-0.008Y0.05S0
G1 X-1.666S0
G1 X-0.234S700
G1 X-0.524S0
G1 X-0.284S700
G1 X-1.667S0
G1 Y0.05S0
G1 X1.667S0
G1 X0.323S700
G1 X0.444S0
G1 X0.267S700
G1 X1.667S0
G1 X-0.017Y0.05S0
G1 X-1.667S0
G1 X-0.306S700
G1 X-0.315S0
G1 X-0.396S700
G1 X-1.667S0
G1 Y0.05S0
G1 X1.667S0
G1 X0.198S700
G1 X0.025S0
G1 X0.316S700
G1 X0.449
G1 X1.667S0
G1 X-0.032Y0.05S0
G1 X-1.666S0
G1 X-0.688S700
G1 X-0.071S0
G1 X-0.198S700
G1 X-1.667S0
G1 Y0.05S0
G1 X1.667S0
G1 X0.198S700
G1 X0.13S0
G1 X0.568S700
G1 X1.666S0
G1 X-0.094Y0.05S0
G1 X-1.666S0
G1 X-0.387S700
G1 X-0.217S0
G1 X-0.198S700
G1 X-1.667S0
M9
G1 S0
M5
; return to starting pos
G0 X1.667Y-1.289
M2
