; LightBurn 1.2.01
; GRBL device profile, current position
; Bounds: X-1.66 Y0 to X2.89 Y1.35
G00 G17 G40 G21 G54
G91
M4
; Cut @ 4999.998 mm/min, 0% power
M8
G0 X0.422Y0.032
; Layer Lim
G1 X0.1S0F5000
; Scan @ 4000.002 mm/min, 70% power
M8
G0 X-1.602Y-0.028
; Layer C02
G1 X1.667F4000S0
G1 X0.057S700
G1 X1.667S0
G1 X0.214Y0.05S0
G1 X-1.666S0
G1 X-0.487S700
G1 X-1.667S0
G1 X-0.097Y0.05S0
G1 X1.667S0
G1 X0.681S700
G1 X1.667S0
G1 X0.06Y0.05S0
G1 X-1.667S0
G1 X-0.808S700
G1 X-1.667S0
G1 X-0.049Y0.05S0
G1 X1.667S0
G1 X0.354S700
G1 X0.208S0
G1 X0.352S700
G1 X1.667S0
G1 X0.033Y0.05S0
G1 X-1.666S0
G1 X-0.276S700
G1 X-0.414S0
G1 X-0.29S700
G1 X-1.667S0
G1 X-0.032Y0.05S0
G1 X1.667S0
G1 X0.266S700
G1 X0.503S0
G1 X0.276S700
G1 X1.667S0
G1 X0.03Y0.05S0
G1 X-1.666S0
G1 X-0.273S700
G1 X-0.581S0
G1 X-0.247S700
G1 X-1.667S0
G1 X-0.017Y0.05S0
G1 X1.666S0
G1 X0.232S700
G1 X0.647S0
G1 X0.255S700
G1 X1.667S0
G1 X0.015Y0.05S0
G1 X-1.666S0
G1 X-0.245S700
G1 X-0.693S0
G1 X-0.23S700
G1 X-1.666S0
G1 X-0.016Y0.05S0
G1 X1.667S0
G1 X0.225S700
G1 X0.725S0
G1 X0.248S700
G1 X1.667S0
G1 Y0.05S0
G1 X-1.662S0
G1 X-0.241S700
G1 X-0.744S0
G1 X-0.224S700
G1 X-1.666S0
G1 X-0.006Y0.05S0
G1 X1.667S0
G1 X0.228S700
G1 X0.758S0
G1 X0.228S700
G1 X1.667S0
G1 Y0.05S0
G1 X-1.666S0
G1 X-0.221S700
G1 X-0.767S0
G1 X-0.233S700
G1 X-1.667S0
G1 Y0.05S0
G1 X1.669S0
G1 X0.231S700
G1 X0.762S0
G1 X0.226S700
G1 X1.667S0
G1 Y0.05S0
G1 X-1.667S0
G1 X-0.231S700
G1 X-0.757S0
G1 X-0.225S700
G1 X-1.667S0
G1 X0.006Y0.05S0
G1 X1.667S0
G1 X0.219S700
G1 X0.752S0
G1 X0.235S700
G1 X1.667S0
G1 X-0.006Y0.05S0
G1 X-1.667S0
G1 X-0.234S700
G1 X-0.735S0
G1 X-0.224S700
G1 X-1.667S0
G1 X0.015Y0.05S0
G1 X1.667S0
G1 X0.225S700
G1 X0.695S0
G1 X0.247S700
G1 X1.667S0
G1 X-0.013Y0.05S0
G1 X-1.666S0
G1 X-0.258S700
G1 X-0.654S0
G1 X-0.227S700
G1 X-1.667S0
G1 X0.015Y0.05S0
G1 X1.667S0
G1 X0.247S700
G1 X0.595S0
G1 X0.259S700
G1 X1.667S0
G1 X-0.023Y0.05S0
G1 X-1.666S0
G1 X-0.263S700
G1 X-0.534S0
G1 X-0.266S700
G1 X-1.667S0
G1 X0.039Y0.05S0
G1 X1.667S0
G1 X0.288S700
G1 X0.413S0
G1 X0.288S700
G1 X1.667S0
G1 X-0.037Y0.05S0
G1 X-1.667S0
G1 X-0.347S700
G1 X-0.23S0
G1 X-0.335S700
G1 X-1.667S0
G1 X0.041Y0.05S0
G1 X1.666S0
G1 X0.819S700
G1 X1.667S0
G1 X-0.061Y0.05S0
G1 X-1.666S0
G1 X-0.687S700
G1 X-1.667S0
G1 X0.087Y0.05S0
G1 X1.666S0
G1 X0.511S700
G1 X1.666S0
G1 X-0.214Y0.05S0
G1 X-1.667S0
G1 X-0.067S700
G1 X-1.667S0
M9
G1 S0
M5
; return to starting pos
G0 X1.076Y-1.354
M2
