; LightBurn 1.2.01
; GRBL device profile, current position
; Bounds: X-1.67 Y0.04 to X2.79 Y1.79
G00 G17 G40 G21 G54
G91
M4
; Cut @ 4999.998 mm/min, 0% power
M8
G0 X0.332Y0.497
; Layer Lim
G1 X0.1S0F5000
; Scan @ 4000.002 mm/min, 70% power
M8
G0 X-2.099Y-0.462
; Layer C02
G1 X1.667F4000S0
G1 X0.22S700
G1 X1.666S0
G1 Y0.05S0
G1 X-1.666S0
G1 X-0.22S700
G1 X-1.667S0
G1 Y0.05S0
G1 X1.667S0
G1 X0.22S700
G1 X1.666S0
G1 Y0.05S0
G1 X-1.666S0
G1 X-0.22S700
G1 X-1.667S0
G1 Y0.05S0
G1 X1.667S0
G1 X0.22S700
G1 X1.666S0
G1 Y0.05S0
G1 X-1.666S0
G1 X-0.22S700
G1 X-1.667S0
G1 Y0.05S0
G1 X1.667S0
G1 X0.22S700
G1 X1.666S0
G1 Y0.05S0
G1 X-1.666S0
G1 X-0.22S700
G1 X-1.667S0
G1 Y0.05S0
G1 X1.667S0
G1 X0.22S700
G1 X1.666S0
G1 X0.474Y0.05S0
G1 X-1.667S0
G1 X-0.203S700
G1 X-0.27S0
G1 X-0.22S700
G1 X-1.667S0
G1 Y0.05S0
G1 X1.667S0
G1 X0.22S700
G1 X0.128S0
G1 X0.476S700
G1 X1.667S0
G1 X0.077Y0.05S0
G1 X-1.667S0
G1 X-0.626S700
G1 X-0.055S0
G1 X-0.22S700
G1 X-1.667S0
G1 Y0.05S0
G1 X1.667S0
G1 X0.95S700
G1 X1.667S0
G1 X0.045Y0.05S0
G1 X-1.666S0
G1 X-0.321S700
G1 X-0.271S0
G1 X-0.404S700
G1 X-1.667S0
G1 Y0.05S0
G1 X1.667S0
G1 X0.344S700
G1 X0.409S0
G1 X0.269S700
G1 X1.667S0
G1 X0.026Y0.05S0
G1 X-1.667S0
G1 X-0.263S700
G1 X-0.489S0
G1 X-0.296S700
G1 X-1.667S0
G1 Y0.05S0
G1 X1.667S0
G1 X0.263S700
G1 X0.554S0
G1 X0.249S700
G1 X1.667S0
G1 X0.015Y0.05S0
G1 X-1.667S0
G1 X-0.232S700
G1 X-0.616S0
G1 X-0.233S700
G1 X-1.667S0
G1 Y0.05S0
G1 X1.667S0
G1 X0.218S700
G1 X0.645S0
G1 X0.233S700
G1 X1.667S0
G1 X0.015Y0.05S0
G1 X-1.667S0
G1 X-0.233S700
G1 X-0.674S0
G1 X-0.204S700
G1 X-1.667S0
G1 Y0.05S0
G1 X1.667S0
G1 X0.199S700
G1 X0.693S0
G1 X0.227S700
G1 X1.666S0
G1 Y0.05S0
G1 X-1.664S0
G1 X-0.218S700
G1 X-0.704S0
G1 X-0.199S700
G1 X-1.667S0
G1 Y0.05S0
G1 X1.667S0
G1 X0.199S700
G1 X0.703S0
G1 X0.22S700
G1 X1.667S0
G1 Y0.05S0
G1 X-1.665S0
G1 X-0.222S700
G1 X-0.702S0
G1 X-0.2S700
G1 X-1.667S0
G1 Y0.05S0
G1 X1.667S0
G1 X0.2S700
G1 X0.702S0
G1 X0.222S700
G1 X1.666S0
G1 X-0.011Y0.05S0
G1 X-1.666S0
G1 X-0.217S700
G1 X-0.696S0
G1 X-0.2S700
G1 X-1.667S0
G1 Y0.05S0
G1 X1.667S0
G1 X0.215S700
G1 X0.666S0
G1 X0.221S700
G1 X1.667S0
G1 X-0.011Y0.05S0
G1 X-1.667S0
G1 X-0.225S700
G1 X-0.633S0
G1 X-0.233S700
G1 X-1.667S0
G1 Y0.05S0
G1 X1.667S0
G1 X0.251S700
G1 X0.6S0
G1 X0.229S700
G1 X1.667S0
G1 X-0.025Y0.05S0
G1 X-1.666S0
G1 X-0.23S700
G1 X-0.537S0
G1 X-0.289S700
G1 X-1.667S0
G1 Y0.05S0
G1 X1.667S0
G1 X0.331S700
G1 X0.462S0
G1 X0.237S700
G1 X1.667S0
G1 X-0.025Y0.05S0
G1 X-1.667S0
G1 X-0.269S700
G1 X-0.344S0
G1 X-0.392S700
G1 X-1.667S0
G1 Y0.05S0
G1 X1.667S0
G1 X0.2S700
G1 X0.276
G1 X0.155S0
G1 X0.348S700
G1 X1.667S0
G1 X-0.057Y0.05S0
G1 X-1.667S0
G1 X-0.67S700
G1 X-0.052S0
G1 X-0.2S700
G1 X-1.667S0
G1 Y0.05S0
G1 X1.667S0
G1 X0.2S700
G1 X0.109S0
G1 X0.556S700
G1 X1.666S0
G1 X-0.107Y0.05S0
G1 X-1.666S0
G1 X-0.356S700
G1 X-0.202S0
G1 X-0.2S700
G1 X-1.667S0
M9
G1 S0
M5
; return to starting pos
G0 X1.667Y-1.785
M2
