; LightBurn 1.2.01
; GRBL device profile, current position
; Bounds: X-1.67 Y0.04 to X2.79 Y1.79
G00 G17 G40 G21 G54
G91
M4
; Cut @ 4999.998 mm/min, 0% power
M8
G0 X0.409Y0.497
; Layer Lim
G1 X0.5S0F5000
; Scan @ 4000.002 mm/min, 70% power
M8
G0 X-1.672Y-0.46
; Layer C02
G1 X1.667F4000S0
G1 X0.219S700
G1 X1.667S0
G1 Y0.05S0
G1 X-1.667S0
G1 X-0.219S700
G1 X-1.667S0
G1 Y0.05S0
G1 X1.667S0
G1 X0.219S700
G1 X1.667S0
G1 Y0.05S0
G1 X-1.667S0
G1 X-0.219S700
G1 X-1.667S0
G1 Y0.05S0
G1 X1.667S0
G1 X0.219S700
G1 X1.667S0
G1 Y0.05S0
G1 X-1.667S0
G1 X-0.219S700
G1 X-1.667S0
G1 Y0.05S0
G1 X1.667S0
G1 X0.219S700
G1 X1.667S0
G1 Y0.05S0
G1 X-1.667S0
G1 X-0.219S700
G1 X-1.667S0
G1 Y0.05S0
G1 X1.667S0
G1 X0.219S700
G1 X1.667S0
G1 Y0.05S0
G1 X-1.667S0
G1 X-0.219S700
G1 X-0.221S0
G1 X-0.246S700
G1 X-1.666S0
G1 X-0.102Y0.05S0
G1 X1.667S0
G1 X0.456S700
G1 X0.112S0
G1 X0.219S700
G1 X1.667S0
G1 Y0.05S0
G1 X-1.667S0
G1 X-0.219S700
G1 X-0.051S0
G1 X-0.609S700
G1 X-1.667S0
G1 X-0.048Y0.05S0
G1 X1.667S0
G1 X0.927S700
G1 X1.667S0
G1 Y0.05S0
G1 X-1.667S0
G1 X-0.411S700
G1 X-0.252S0
G1 X-0.311S700
G1 X-1.667S0
G1 X-0.047Y0.05S0
G1 X1.667S0
G1 X0.274S700
G1 X0.408S0
G1 X0.339S700
G1 X1.667S0
G1 Y0.05S0
G1 X-1.667S0
G1 X-0.308S700
G1 X-0.481S0
G1 X-0.255S700
G1 X-1.666S0
G1 X-0.022Y0.05S0
G1 X1.666S0
G1 X0.236S700
G1 X0.553S0
G1 X0.277S700
G1 X1.667S0
G1 Y0.05S0
G1 X-1.667S0
G1 X-0.246S700
G1 X-0.61S0
G1 X-0.232S700
G1 X-1.666S0
G1 X-0.022Y0.05S0
G1 X1.667S0
G1 X0.235S700
G1 X0.645S0
G1 X0.229S700
G1 X1.667S0
G1 Y0.05S0
G1 X-1.667S0
G1 X-0.217S700
G1 X-0.676S0
G1 X-0.219S700
G1 X-1.667S0
G1 Y0.05S0
G1 X1.664S0
G1 X0.219S700
G1 X0.69S0
G1 X0.206S700
G1 X1.667S0
G1 Y0.05S0
G1 X-1.667S0
G1 X-0.195S700
G1 X-0.702S0
G1 X-0.221S700
G1 X-1.667S0
G1 Y0.05S0
G1 X1.663S0
G1 X0.225S700
G1 X0.704S0
G1 X0.193S700
G1 X1.667S0
G1 Y0.05S0
G1 X-1.667S0
G1 X-0.198S700
G1 X-0.7S0
G1 X-0.224S700
G1 X-1.667S0
G1 Y0.05S0
G1 X1.669S0
G1 X0.222S700
G1 X0.695S0
G1 X0.203S700
G1 X1.667S0
G1 Y0.05S0
G1 X-1.667S0
G1 X-0.208S700
G1 X-0.691S0
G1 X-0.219S700
G1 X-1.667S0
G1 X0.009Y0.05S0
G1 X1.667S0
G1 X0.225S700
G1 X0.665S0
G1 X0.219S700
G1 X1.667S0
G1 Y0.05S0
G1 X-1.667S0
G1 X-0.243S700
G1 X-0.627S0
G1 X-0.226S700
G1 X-1.667S0
G1 X0.013Y0.05S0
G1 X1.666S0
G1 X0.236S700
G1 X0.582S0
G1 X0.266S700
G1 X1.667S0
G1 Y0.05S0
G1 X-1.667S0
G1 X-0.289S700
G1 X-0.528S0
G1 X-0.245S700
G1 X-1.666S0
G1 X0.025Y0.05S0
G1 X1.667S0
G1 X0.255S700
G1 X0.459S0
G1 X0.322S700
G1 X1.667S0
G1 Y0.05S0
G1 X-1.667S0
G1 X-0.373S700
G1 X-0.351S0
G1 X-0.286S700
G1 X-1.666S0
G1 X0.04Y0.05S0
G1 X1.667S0
G1 X0.347S700
G1 X0.149S0
G1 X0.261S700
G1 X0.015S0
G1 X0.197S700
G1 X1.667S0
G1 Y0.05S0
G1 X-1.667S0
G1 X-0.197S700
G1 X-0.057S0
G1 X-0.674S700
G1 X-1.667S0
G1 X0.073Y0.05S0
G1 X1.666S0
G1 X0.534S700
G1 X0.125S0
G1 X0.197S700
G1 X1.667S0
G1 Y0.05S0
G1 X-1.667S0
G1 X-0.197S700
G1 X-0.214S0
G1 X-0.363S700
G1 X-1.666S0
M9
G1 S0
M5
; return to starting pos
G0 X1.317Y-1.787
M2
