; LightBurn 1.2.01
; GRBL device profile, current position
; Bounds: X-1.66 Y0 to X2.85 Y1.27
G00 G17 G40 G21 G54
G91
M4
; Cut @ 4999.998 mm/min, 0% power
M8
G0 X0.465Y0
; Layer Lim
G1 X0.1S0F5000
; Scan @ 4000.002 mm/min, 70% power
M8
G0 X-1.747Y0.023
; Layer C02
G1 X1.666F4000S0
G1 X0.223S700
G1 X1.667S0
G1 X0.019Y0.05S0
G1 X-1.667S0
G1 X-0.261S700
G1 X-1.666S0
G1 X-0.019Y0.05S0
G1 X1.666S0
G1 X0.299S700
G1 X1.667S0
G1 X0.019Y0.05S0
G1 X-1.667S0
G1 X-0.337S700
G1 X-1.666S0
G1 X-0.019Y0.05S0
G1 X1.666S0
G1 X0.375S700
G1 X1.667S0
G1 X0.019Y0.05S0
G1 X-1.667S0
G1 X-0.204S700
G1 X-0.209
G1 X-1.666S0
G1 X-0.019Y0.05S0
G1 X1.666S0
G1 X0.204S700
G1 X0.041S0
G1 X0.206S700
G1 X1.666S0
G1 X0.019Y0.05S0
G1 X-1.666S0
G1 X-0.209S700
G1 X-0.072S0
G1 X-0.208S700
G1 X-1.666S0
G1 X-0.019Y0.05S0
G1 X1.666S0
G1 X0.211S700
G1 X0.105S0
G1 X0.211S700
G1 X1.666S0
G1 X0.019Y0.05S0
G1 X-1.666S0
G1 X-0.213S700
G1 X-0.139S0
G1 X-0.213S700
G1 X-1.666S0
G1 X-0.019Y0.05S0
G1 X1.666S0
G1 X0.215S700
G1 X0.172S0
G1 X0.215S700
G1 X1.667S0
G1 X0.019Y0.05S0
G1 X-1.667S0
G1 X-0.217S700
G1 X-0.207S0
G1 X-0.216S700
G1 X-1.666S0
G1 X-0.02Y0.05S0
G1 X1.667S0
G1 X0.218S700
G1 X0.24S0
G1 X0.22S700
G1 X1.667S0
G1 X0.019Y0.05S0
G1 X-1.667S0
G1 X-0.222S700
G1 X-0.274S0
G1 X-0.22S700
G1 X-1.667S0
G1 X-0.019Y0.05S0
G1 X1.667S0
G1 X0.222S700
G1 X0.308S0
G1 X0.224S700
G1 X1.667S0
G1 X0.019Y0.05S0
G1 X-1.667S0
G1 X-0.227S700
G1 X-0.342S0
G1 X-0.223S700
G1 X-1.667S0
G1 X-0.019Y0.05S0
G1 X1.667S0
G1 X0.225S700
G1 X0.378S0
G1 X0.227S700
G1 X1.667S0
G1 X0.019Y0.05S0
G1 X-1.667S0
G1 X-0.227S700
G1 X-0.415S0
G1 X-0.226S700
G1 X-1.667S0
G1 X-0.019Y0.05S0
G1 X1.667S0
G1 X0.227S700
G1 X0.452S0
G1 X0.227S700
G1 X1.667S0
G1 X0.019Y0.05S0
G1 X-1.667S0
G1 X-0.227S700
G1 X-0.489S0
G1 X-0.228S700
G1 X-1.667S0
G1 X-0.019Y0.05S0
G1 X1.667S0
G1 X0.228S700
G1 X0.527S0
G1 X0.227S700
G1 X1.666S0
G1 X0.019Y0.05S0
G1 X-1.666S0
G1 X-0.227S700
G1 X-0.564S0
G1 X-0.229S700
G1 X-1.667S0
G1 X-0.019Y0.05S0
G1 X1.667S0
G1 X0.23S700
G1 X0.601S0
G1 X0.227S700
G1 X1.666S0
G1 X0.019Y0.05S0
G1 X-1.666S0
G1 X-0.227S700
G1 X-0.639S0
G1 X-0.23S700
G1 X-1.667S0
G1 X-0.019Y0.05S0
G1 X1.667S0
G1 X0.231S700
G1 X0.676S0
G1 X0.227S700
G1 X1.666S0
G1 X0.019Y0.05S0
G1 X-1.667S0
G1 X-0.225S700
G1 X-0.715S0
G1 X-0.231S700
G1 X-1.667S0
M9
G1 S0
M5
; return to starting pos
G0 X1.658Y-1.273
M2
