; LightBurn 1.2.01
; GRBL device profile, current position
; Bounds: X-1.66 Y0 to X3.44 Y1.27
G00 G17 G40 G21 G54
G91
M4
; Cut @ 4999.998 mm/min, 0% power
M8
G0 X0.489Y0
; Layer Lim
G1 X0.5S0F5000
; Scan @ 4000.002 mm/min, 70% power
M8
G0 X-2.266Y0.023
; Layer C02
G1 X1.666F4000S0
G1 X0.243S700
G1 X0.507S0
G1 X0.242S700
G1 X1.666S0
G1 X0.016Y0.05S0
G1 X-1.667S0
G1 X-0.27S700
G1 X-0.48S0
G1 X-0.272S700
G1 X-1.666S0
G1 X-0.016Y0.05S0
G1 X1.667S0
G1 X0.3S700
G1 X0.454S0
G1 X0.299S700
G1 X1.667S0
G1 X0.015Y0.05S0
G1 X-1.666S0
G1 X-0.329S700
G1 X-0.427S0
G1 X-0.328S700
G1 X-1.667S0
G1 X-0.015Y0.05S0
G1 X1.666S0
G1 X0.357S700
G1 X0.401S0
G1 X0.357S700
G1 X1.667S0
G1 X0.016Y0.05S0
G1 X-1.667S0
G1 X-0.386S700
G1 X-0.375S0
G1 X-0.187S700
G1 X-0.198
G1 X-1.667S0
G1 X-0.015Y0.05S0
G1 X1.667S0
G1 X0.198S700
G1 X0.028S0
G1 X0.187S700
G1 X0.348S0
G1 X0.203S700
G1 X0.015S0
G1 X0.197S700
G1 X1.667S0
G1 X0.016Y0.05S0
G1 X-1.667S0
G1 X-0.198S700
G1 X-0.043S0
G1 X-0.203S700
G1 X-0.321S0
G1 X-0.188S700
G1 X-0.055S0
G1 X-0.2S700
G1 X-1.666S0
G1 X-0.016Y0.05S0
G1 X1.667S0
G1 X0.201S700
G1 X0.082S0
G1 X0.188S700
G1 X0.295S0
G1 X0.203S700
G1 X0.07S0
G1 X0.2S700
G1 X1.666S0
G1 X0.016Y0.05S0
G1 X-1.667S0
G1 X-0.2S700
G1 X-0.098S0
G1 X-0.203S700
G1 X-0.269S0
G1 X-0.189S700
G1 X-0.108S0
G1 X-0.202S700
G1 X-1.667S0
G1 X-0.015Y0.05S0
G1 X1.667S0
G1 X0.203S700
G1 X0.135S0
G1 X0.189S700
G1 X0.242S0
G1 X0.204S700
G1 X0.126S0
G1 X0.201S700
G1 X1.667S0
G1 X0.015Y0.05S0
G1 X-1.666S0
G1 X-0.202S700
G1 X-0.154S0
G1 X-0.204S700
G1 X-0.216S0
G1 X-0.189S700
G1 X-0.161S0
G1 X-0.206S700
G1 X-1.666S0
G1 X-0.016Y0.05S0
G1 X1.667S0
G1 X0.207S700
G1 X0.188S0
G1 X0.189S700
G1 X0.19S0
G1 X0.204S700
G1 X0.182S0
G1 X0.202S700
G1 X1.667S0
G1 X0.016Y0.05S0
G1 X-1.667S0
G1 X-0.203S700
G1 X-0.21S0
G1 X-0.205S700
G1 X-0.162S0
G1 X-0.19S700
G1 X-0.215S0
G1 X-0.208S700
G1 X-1.667S0
G1 X-0.015Y0.05S0
G1 X1.666S0
G1 X0.21S700
G1 X0.242S0
G1 X0.19S700
G1 X0.136S0
G1 X0.205S700
G1 X0.237S0
G1 X0.205S700
G1 X1.666S0
G1 X0.016Y0.05S0
G1 X-1.667S0
G1 X-0.205S700
G1 X-0.265S0
G1 X-0.205S700
G1 X-0.11S0
G1 X-0.191S700
G1 X-0.267S0
G1 X-0.212S700
G1 X-1.667S0
G1 X-0.015Y0.05S0
G1 X1.667S0
G1 X0.213S700
G1 X0.295S0
G1 X0.19S700
G1 X0.085S0
G1 X0.204S700
G1 X0.293S0
G1 X0.206S700
G1 X1.667S0
G1 X0.015Y0.05S0
G1 X-1.666S0
G1 X-0.207S700
G1 X-0.321S0
G1 X-0.202S700
G1 X-0.061S0
G1 X-0.189S700
G1 X-0.323S0
G1 X-0.215S700
G1 X-1.666S0
G1 X-0.016Y0.05S0
G1 X1.667S0
G1 X0.216S700
G1 X0.351S0
G1 X0.188S700
G1 X0.037S0
G1 X0.2S700
G1 X0.349S0
G1 X0.207S700
G1 X1.667S0
G1 X0.016Y0.05S0
G1 X-1.667S0
G1 X-0.209S700
G1 X-0.376S0
G1 X-0.199S700
G1 X-0.011S0
G1 X-0.189S700
G1 X-0.378S0
G1 X-0.217S700
G1 X-1.667S0
G1 X-0.015Y0.05S0
G1 X1.667S0
G1 X0.219S700
G1 X0.405S0
G1 X0.373S700
G1 X0.403S0
G1 X0.21S700
G1 X1.666S0
G1 X0.016Y0.05S0
G1 X-1.667S0
G1 X-0.21S700
G1 X-0.431S0
G1 X-0.346S700
G1 X-0.433S0
G1 X-0.221S700
G1 X-1.666S0
G1 X-0.016Y0.05S0
G1 X1.667S0
G1 X0.222S700
G1 X0.461S0
G1 X0.319S700
G1 X0.459S0
G1 X0.211S700
G1 X1.666S0
G1 X0.016Y0.05S0
G1 X-1.667S0
G1 X-0.211S700
G1 X-0.487S0
G1 X-0.292S700
G1 X-0.489S0
G1 X-0.223S700
G1 X-1.667S0
G1 X-0.015Y0.05S0
G1 X1.666S0
G1 X0.225S700
G1 X0.517S0
G1 X0.265S700
G1 X0.515S0
G1 X0.212S700
G1 X1.667S0
G1 X0.015Y0.05S0
G1 X-1.666S0
G1 X-0.214S700
G1 X-0.542S0
G1 X-0.239S700
G1 X-0.543S0
G1 X-0.227S700
G1 X-1.667S0
M9
G1 S0
M5
; return to starting pos
G0 X1.66Y-1.273
M2
