; LightBurn 1.2.01
; GRBL device profile, current position
; Bounds: X-1.65 Y0 to X2.86 Y1.27
G00 G17 G40 G21 G54
G91
M4
; Cut @ 4999.998 mm/min, 0% power
M8
G0 X0.478Y0
; Layer Lim
G1 X0.1S0F5000
; Scan @ 4000.002 mm/min, 70% power
M8
G0 X-2.228Y0.023
; Layer C02
G1 X1.666F4000S0
G1 X0.266S700
G1 X0.647S0
G1 X0.268S700
G1 X1.667S0
G1 X-0.035Y0.05S0
G1 X-1.667S0
G1 X-0.266S700
G1 X-0.581S0
G1 X-0.264S700
G1 X-1.666S0
G1 X0.035Y0.05S0
G1 X1.667S0
G1 X0.261S700
G1 X0.515S0
G1 X0.264S700
G1 X1.667S0
G1 X-0.035Y0.05S0
G1 X-1.667S0
G1 X-0.262S700
G1 X-0.448S0
G1 X-0.26S700
G1 X-1.667S0
G1 X0.035Y0.05S0
G1 X1.667S0
G1 X0.258S700
G1 X0.382S0
G1 X0.26S700
G1 X1.666S0
G1 X-0.035Y0.05S0
G1 X-1.666S0
G1 X-0.258S700
G1 X-0.316S0
G1 X-0.256S700
G1 X-1.667S0
G1 X0.035Y0.05S0
G1 X1.667S0
G1 X0.255S700
G1 X0.249S0
G1 X0.255S700
G1 X1.667S0
G1 X-0.035Y0.05S0
G1 X-1.667S0
G1 X-0.253S700
G1 X-0.183S0
G1 X-0.253S700
G1 X-1.666S0
G1 X0.035Y0.05S0
G1 X1.666S0
G1 X0.251S700
G1 X0.117S0
G1 X0.251S700
G1 X1.667S0
G1 X-0.035Y0.05S0
G1 X-1.667S0
G1 X-0.249S700
G1 X-0.051S0
G1 X-0.248S700
G1 X-1.667S0
G1 X0.035Y0.05S0
G1 X1.667S0
G1 X0.478S700
G1 X1.667S0
G1 X-0.036Y0.05S0
G1 X-1.666S0
G1 X-0.408S700
G1 X-1.667S0
G1 X0.035Y0.05S0
G1 X1.667S0
G1 X0.338S700
G1 X1.666S0
G1 X-0.035Y0.05S0
G1 X-1.667S0
G1 X-0.267S700
G1 X-1.667S0
G1 X-0.034Y0.05S0
G1 X1.667S0
G1 X0.32S700
G1 X1.666S0
G1 X0.037Y0.05S0
G1 X-1.667S0
G1 X-0.391S700
G1 X-1.667S0
G1 X-0.035Y0.05S0
G1 X1.666S0
G1 X0.464S700
G1 X1.667S0
G1 X0.037Y0.05S0
G1 X-1.667S0
G1 X-0.252S700
G1 X-0.033S0
G1 X-0.251S700
G1 X-1.666S0
G1 X-0.036Y0.05S0
G1 X1.667S0
G1 X0.255S700
G1 X0.099S0
G1 X0.254S700
G1 X1.666S0
G1 X0.037Y0.05S0
G1 X-1.667S0
G1 X-0.256S700
G1 X-0.165S0
G1 X-0.258S700
G1 X-1.667S0
G1 X-0.035Y0.05S0
G1 X1.667S0
G1 X0.26S700
G1 X0.233S0
G1 X0.258S700
G1 X1.667S0
G1 X0.036Y0.05S0
G1 X-1.666S0
G1 X-0.261S700
G1 X-0.299S0
G1 X-0.263S700
G1 X-1.667S0
G1 X-0.035Y0.05S0
G1 X1.666S0
G1 X0.266S700
G1 X0.369S0
G1 X0.26S700
G1 X1.667S0
G1 X0.037Y0.05S0
G1 X-1.667S0
G1 X-0.261S700
G1 X-0.437S0
G1 X-0.269S700
G1 X-1.666S0
G1 X-0.036Y0.05S0
G1 X1.667S0
G1 X0.271S700
G1 X0.506S0
G1 X0.262S700
G1 X1.667S0
G1 X0.036Y0.05S0
G1 X-1.666S0
G1 X-0.263S700
G1 X-0.575S0
G1 X-0.273S700
G1 X-1.667S0
M9
G1 S0
M5
; return to starting pos
G0 X1.615Y-1.273
M2
