; LightBurn 1.2.01
; GRBL device profile, current position
; Bounds: X-1.67 Y0.04 to X2.85 Y1.79
G00 G17 G40 G21 G54
G91
M4
; Cut @ 4999.998 mm/min, 0% power
M8
G0 X0.401Y0.037
; Layer Lim
G1 X0.1S0F5000
; Scan @ 4000.002 mm/min, 70% power
M8
G0 X-1.929Y0.007
; Layer C02
G1 X1.666F4000S0
G1 X0.398S700
G1 X0.321S0
G1 X0.229S700
G1 X1.667S0
G1 X-0.023Y0.05S0
G1 X-1.667S0
G1 X-0.225S700
G1 X-0.172S0
G1 X-0.62S700
G1 X-1.667S0
G1 X-0.058Y0.05S0
G1 X1.666S0
G1 X0.751S700
G1 X0.087S0
G1 X0.223S700
G1 X1.667S0
G1 X-0.009Y0.05S0
G1 X-1.667S0
G1 X-0.223S700
G1 X-0.308
G1 X-0.223S0
G1 X-0.337S700
G1 X-1.667S0
G1 X-0.021Y0.05S0
G1 X1.667S0
G1 X0.265S700
G1 X0.431S0
G1 X0.407S700
G1 X1.666S0
G1 X-0.006Y0.05S0
G1 X-1.667S0
G1 X-0.331S700
G1 X-0.538S0
G1 X-0.249S700
G1 X-1.666S0
G1 Y0.05S0
G1 X1.662S0
G1 X0.235S700
G1 X0.592S0
G1 X0.294S700
G1 X1.667S0
G1 Y0.05S0
G1 X-1.668S0
G1 X-0.264S700
G1 X-0.626S0
G1 X-0.23S700
G1 X-1.667S0
G1 Y0.05S0
G1 X1.666S0
G1 X0.242S700
G1 X0.633S0
G1 X0.245S700
G1 X1.667S0
G1 Y0.05S0
G1 X-1.667S0
G1 X-0.229S700
G1 X-0.622S0
G1 X-0.249S700
G1 X-1.667S0
G1 X0.02Y0.05S0
G1 X1.666S0
G1 X0.279S700
G1 X0.58S0
G1 X0.222S700
G1 X1.666S0
G1 Y0.05S0
G1 X-1.666S0
G1 X-0.217S700
G1 X-0.426S0
G1 X-0.407S700
G1 X-1.667S0
G1 X0.048Y0.05S0
G1 X1.667S0
G1 X0.633S700
G1 X0.149S0
G1 X0.219S700
G1 X1.667S0
G1 Y0.05S0
G1 X-1.667S0
G1 X-0.941S700
G1 X-1.667S0
G1 X0.16Y0.05S0
G1 X1.667S0
G1 X0.781S700
G1 X1.667S0
G1 Y0.05S0
G1 X-1.667S0
G1 X-0.535S700
G1 X-1.666S0
G1 X0.236Y0.05S0
G1 X1.667S0
G1 X0.298S700
G1 X1.667S0
G1 Y0.05S0
G1 X-1.667S0
G1 X-0.221S700
G1 X-1.667S0
G1 X-0.72Y0.05S0
G1 X1.667S0
G1 X0.073S700
G1 X0.644S0
G1 X0.226S700
G1 X1.666S0
G1 Y0.05S0
G1 X-1.665S0
G1 X-0.232S700
G1 X-0.62S0
G1 X-0.227S700
G1 X-1.666S0
G1 X0.018Y0.05S0
G1 X1.667S0
G1 X0.228S700
G1 X0.582S0
G1 X0.25S700
G1 X1.667S0
G1 X-0.021Y0.05S0
G1 X-1.667S0
G1 X-0.258S700
G1 X-0.506S0
G1 X-0.257S700
G1 X-1.667S0
G1 X0.026Y0.05S0
G1 X1.666S0
G1 X0.302S700
G1 X0.371S0
G1 X0.301S700
G1 X1.667S0
G1 X-0.022Y0.05S0
G1 X-1.666S0
G1 X-0.908S700
G1 X-1.666S0
G1 X0.044Y0.05S0
G1 X1.667S0
G1 X0.807S700
G1 X1.666S0
G1 X-0.057Y0.05S0
G1 X-1.667S0
G1 X-0.66S700
G1 X-1.667S0
G1 X0.153Y0.05S0
G1 X1.667S0
G1 X0.363S700
G1 X1.666S0
G1 X0.136Y0.25S0
G1 X-1.667S0
G1 X-0.23S700
G1 X-0.226S0
G1 X-0.229S700
G1 X-1.667S0
G1 Y0.05S0
G1 X1.667S0
G1 X0.229S700
G1 X0.226S0
G1 X0.23S700
G1 X1.667S0
G1 Y0.05S0
G1 X-1.667S0
G1 X-0.23S700
G1 X-0.226S0
G1 X-0.229S700
G1 X-1.667S0
G1 Y0.05S0
G1 X1.667S0
G1 X0.229S700
G1 X0.226S0
G1 X0.23S700
G1 X1.667S0
G1 Y0.05S0
G1 X-1.667S0
G1 X-0.23S700
G1 X-0.226S0
G1 X-0.229S700
G1 X-1.667S0
M9
G1 S0
M5
; return to starting pos
G0 X1.417Y-1.794
M2
