; LightBurn 1.2.01
; GRBL device profile, current position
; Bounds: X-1.67 Y0.03 to X2.89 Y1.79
G00 G17 G40 G21 G54
G91
M4
; Cut @ 4999.998 mm/min, 0% power
M8
G0 X0.416Y0.029
; Layer Lim
G1 X0.1S0F5000
; Scan @ 4000.002 mm/min, 70% power
M8
G0 X-1.792Y0.011
; Layer C02
G1 X1.666F4000S0
G1 X0.435S700
G1 X1.667S0
G1 X0.115Y0.05S0
G1 X-1.666S0
G1 X-0.653S700
G1 X-1.667S0
G1 X-0.071Y0.05S0
G1 X1.667S0
G1 X0.787S700
G1 X1.666S0
G1 X0.058Y0.05S0
G1 X-1.666S0
G1 X-0.373S700
G1 X-0.16S0
G1 X-0.368S700
G1 X-1.667S0
G1 X-0.039Y0.05S0
G1 X1.666S0
G1 X0.312S700
G1 X0.367S0
G1 X0.296S700
G1 X1.667S0
G1 X0.035Y0.05S0
G1 X-1.667S0
G1 X-0.28S700
G1 X-0.485S0
G1 X-0.28S700
G1 X-1.667S0
G1 X-0.026Y0.05S0
G1 X1.667S0
G1 X0.261S700
G1 X0.563S0
G1 X0.272S700
G1 X1.667S0
G1 X0.016Y0.05S0
G1 X-1.667S0
G1 X-0.255S700
G1 X-0.634S0
G1 X-0.245S700
G1 X-1.666S0
G1 X-0.018Y0.05S0
G1 X1.667S0
G1 X0.242S700
G1 X0.685S0
G1 X0.24S700
G1 X1.667S0
G1 X0.012Y0.05S0
G1 X-1.666S0
G1 X-0.241S700
G1 X-0.717S0
G1 X-0.232S700
G1 X-1.666S0
G1 X-0.01Y0.05S0
G1 X1.667S0
G1 X0.229S700
G1 X0.741S0
G1 X0.235S700
G1 X1.667S0
G1 X0.007Y0.05S0
G1 X-1.667S0
G1 X-0.229S700
G1 X-0.755S0
G1 X-0.229S700
G1 X-1.667S0
G1 Y0.05S0
G1 X1.668S0
G1 X0.227S700
G1 X0.768S0
G1 X0.224S700
G1 X1.667S0
G1 Y0.05S0
G1 X-1.667S0
G1 X-0.229S700
G1 X-0.764S0
G1 X-0.225S700
G1 X-1.667S0
G1 Y0.05S0
G1 X1.669S0
G1 X0.224S700
G1 X0.758S0
G1 X0.229S700
G1 X1.667S0
G1 Y0.05S0
G1 X-1.672S0
G1 X-0.229S700
G1 X-0.753S0
G1 X-0.222S700
G1 X-1.666S0
G1 Y0.05S0
G1 X1.668S0
G1 X0.228S700
G1 X0.74S0
G1 X0.23S700
G1 X1.666S0
G1 X-0.016Y0.05S0
G1 X-1.666S0
G1 X-0.233S700
G1 X-0.705S0
G1 X-0.231S700
G1 X-1.667S0
G1 X0.017Y0.05S0
G1 X1.666S0
G1 X0.231S700
G1 X0.665S0
G1 X0.24S700
G1 X1.667S0
G1 X-0.017Y0.05S0
G1 X-1.667S0
G1 X-0.247S700
G1 X-0.608S0
G1 X-0.247S700
G1 X-1.667S0
G1 X0.024Y0.05S0
G1 X1.667S0
G1 X0.258S700
G1 X0.549S0
G1 X0.249S700
G1 X1.666S0
G1 X-0.031Y0.05S0
G1 X-1.667S0
G1 X-0.27S700
G1 X-0.442S0
G1 X-0.279S700
G1 X-1.666S0
G1 X0.033Y0.05S0
G1 X1.666S0
G1 X0.311S700
G1 X0.296S0
G1 X0.32S700
G1 X1.667S0
G1 X-0.039Y0.05S0
G1 X-1.667S0
G1 X-0.84S700
G1 X-1.666S0
G1 X0.057Y0.05S0
G1 X1.667S0
G1 X0.709S700
G1 X1.666S0
G1 X-0.073Y0.05S0
G1 X-1.667S0
G1 X-0.552S700
G1 X-1.667S0
G1 X0.136Y0.05S0
G1 X1.667S0
G1 X0.255S700
G1 X1.667S0
G1 X0.227Y0.25S0
G1 X-1.667S0
G1 X-0.229S700
G1 X-0.226S0
G1 X-0.23S700
G1 X-1.666S0
G1 Y0.05S0
G1 X1.666S0
G1 X0.23S700
G1 X0.226S0
G1 X0.229S700
G1 X1.667S0
G1 Y0.05S0
G1 X-1.667S0
G1 X-0.229S700
G1 X-0.226S0
G1 X-0.23S700
G1 X-1.666S0
G1 Y0.05S0
G1 X1.666S0
G1 X0.23S700
G1 X0.226S0
G1 X0.229S700
G1 X1.667S0
G1 Y0.05S0
G1 X-1.667S0
G1 X-0.229S700
G1 X-0.226S0
G1 X-0.23S700
G1 X-1.666S0
M9
G1 S0
M5
; return to starting pos
G0 X1.399Y-1.79
M2
