; LightBurn 1.2.01
; GRBL device profile, current position
; Bounds: X-1.67 Y0.03 to X2.72 Y1.79
G00 G17 G40 G21 G54
G91
M4
; Cut @ 4999.998 mm/min, 0% power
M8
G0 X0.342Y0.029
; Layer Lim
G1 X0.1S0F5000
; Scan @ 4000.002 mm/min, 70% power
M8
G0 X-1.858Y0.011
; Layer C02
G1 X1.667F4000S0
G1 X0.377S700
G1 X0.232S0
G1 X0.196S700
G1 X1.667S0
G1 Y0.05S0
G1 X-1.667S0
G1 X-0.196S700
G1 X-0.125S0
G1 X-0.573S700
G1 X-1.667S0
G1 X-0.06Y0.05S0
G1 X1.666S0
G1 X0.682S700
G1 X0.077S0
G1 X0.196S700
G1 X1.667S0
G1 Y0.05S0
G1 X-1.667S0
G1 X-0.196S700
G1 X-0.029S0
G1 X-0.335S700
G1 X-0.012S0
G1 X-0.413S700
G1 X-1.667S0
G1 X-0.029Y0.05S0
G1 X1.667S0
G1 X0.285S700
G1 X0.337S0
G1 X0.392S700
G1 X1.667S0
G1 Y0.05S0
G1 X-1.667S0
G1 X-0.331S700
G1 X-0.447S0
G1 X-0.253S700
G1 X-1.666S0
G1 X-0.008Y0.05S0
G1 X1.667S0
G1 X0.236S700
G1 X0.523S0
G1 X0.279S700
G1 X1.667S0
G1 Y0.05S0
G1 X-1.667S0
G1 X-0.256S700
G1 X-0.562S0
G1 X-0.228S700
G1 X-1.667S0
G1 Y0.05S0
G1 X1.665S0
G1 X0.227S700
G1 X0.588S0
G1 X0.233S700
G1 X1.667S0
G1 Y0.05S0
G1 X-1.667S0
G1 X-0.218S700
G1 X-0.605S0
G1 X-0.226S700
G1 X-1.667S0
G1 Y0.05S0
G1 X1.666S0
G1 X0.225S700
G1 X0.607S0
G1 X0.218S700
G1 X1.667S0
G1 Y0.05S0
G1 X-1.667S0
G1 X-0.219S700
G1 X-0.608S0
G1 X-0.224S700
G1 X-1.667S0
G1 Y0.05S0
G1 X1.666S0
G1 X0.222S700
G1 X0.611S0
G1 X0.219S700
G1 X1.667S0
G1 Y0.05S0
G1 X-1.667S0
G1 X-0.219S700
G1 X-0.613S0
G1 X-0.221S700
G1 X-1.667S0
G1 Y0.05S0
G1 X1.666S0
G1 X0.22S700
G1 X0.615S0
G1 X0.219S700
G1 X1.667S0
G1 Y0.05S0
G1 X-1.667S0
G1 X-0.219S700
G1 X-0.617S0
G1 X-0.219S700
G1 X-1.666S0
G1 Y0.05S0
G1 X1.665S0
G1 X0.217S700
G1 X0.62S0
G1 X0.219S700
G1 X1.667S0
G1 Y0.05S0
G1 X-1.667S0
G1 X-0.219S700
G1 X-0.619S0
G1 X-0.218S700
G1 X-1.666S0
G1 Y0.05S0
G1 X1.667S0
G1 X0.217S700
G1 X0.619S0
G1 X0.219S700
G1 X1.667S0
G1 Y0.05S0
G1 X-1.667S0
G1 X-0.219S700
G1 X-0.618S0
G1 X-0.218S700
G1 X-1.666S0
G1 Y0.05S0
G1 X1.667S0
G1 X0.218S700
G1 X0.617S0
G1 X0.219S700
G1 X1.667S0
G1 Y0.05S0
G1 X-1.667S0
G1 X-0.219S700
G1 X-0.616S0
G1 X-0.219S700
G1 X-1.666S0
G1 Y0.05S0
G1 X1.667S0
G1 X0.219S700
G1 X0.615S0
G1 X0.219S700
G1 X1.667S0
G1 Y0.05S0
G1 X-1.667S0
G1 X-0.219S700
G1 X-0.614S0
G1 X-0.22S700
G1 X-1.666S0
G1 Y0.05S0
G1 X1.667S0
G1 X0.219S700
G1 X0.614S0
G1 X0.219S700
G1 X1.667S0
G1 Y0.05S0
G1 X-1.667S0
G1 X-0.219S700
G1 X-0.613S0
G1 X-0.22S700
G1 X-1.666S0
G1 X0.184Y0.3S0
G1 X1.666S0
G1 X0.23S700
G1 X0.226S0
G1 X0.229S700
G1 X1.667S0
G1 Y0.05S0
G1 X-1.667S0
G1 X-0.229S700
G1 X-0.226S0
G1 X-0.23S700
G1 X-1.666S0
G1 Y0.05S0
G1 X1.666S0
G1 X0.23S700
G1 X0.226S0
G1 X0.229S700
G1 X1.667S0
G1 Y0.05S0
G1 X-1.667S0
G1 X-0.229S700
G1 X-0.226S0
G1 X-0.23S700
G1 X-1.666S0
G1 Y0.05S0
G1 X1.666S0
G1 X0.23S700
G1 X0.226S0
G1 X0.229S700
G1 X1.667S0
M9
G1 S0
M5
; return to starting pos
G0 X-2.54Y-1.79
M2
