; LightBurn 1.2.01
; GRBL device profile, current position
; Bounds: X-1.67 Y0.01 to X3.8 Y2.16
G00 G17 G40 G21 G54
G91
M4
; Cut @ 5000 mm/min, 0% power
M8
G0 X0Y0.046
; Layer Lim
G1 X1S0F5000
; Scan @ 4000 mm/min, 70% power
M8
G0 X-1.738Y-0.038
; Layer C02
G1 X1.666F4000S0
G1 X0.261S700
G1 X1.666S0
G1 X0.238Y0.05S0
G1 X-1.666S0
G1 X-0.73S700
G1 X-1.667S0
G1 X-0.126Y0.05S0
G1 X1.666S0
G1 X0.977S700
G1 X1.666S0
G1 X0.099Y0.05S0
G1 X-1.667S0
G1 X-1.161S700
G1 X-1.667S0
G1 X-0.078Y0.05S0
G1 X1.667S0
G1 X1.306S700
G1 X1.667S0
G1 X0.067Y0.05S0
G1 X-1.667S0
G1 X-1.434S700
G1 X-1.666S0
G1 X-0.052Y0.05S0
G1 X1.667S0
G1 X1.535S700
G1 X1.667S0
G1 X0.047Y0.05S0
G1 X-1.667S0
G1 X-1.634S700
G1 X-1.667S0
G1 X-0.036Y0.05S0
G1 X1.666S0
G1 X1.715S700
G1 X1.667S0
G1 X0.033Y0.05S0
G1 X-1.667S0
G1 X-0.796S700
G1 X-0.193S0
G1 X-0.793S700
G1 X-1.667S0
G1 X-0.034Y0.05S0
G1 X1.667S0
G1 X0.711S700
G1 X0.45S0
G1 X0.688S700
G1 X1.667S0
G1 X0.031Y0.05S0
G1 X-1.667S0
G1 X-0.647S700
G1 X-0.596S0
G1 X-0.664S700
G1 X-1.667S0
G1 X-0.021Y0.05S0
G1 X1.667S0
G1 X0.628S700
G1 X0.71S0
G1 X0.612S700
G1 X1.667S0
G1 X0.021Y0.05S0
G1 X-1.666S0
G1 X-0.608S700
G1 X-0.778S0
G1 X-0.608S700
G1 X-1.666S0
G1 X-0.022Y0.05S0
G1 X1.667S0
G1 X0.599S700
G1 X0.832S0
G1 X0.605S700
G1 X1.667S0
G1 X0.014Y0.05S0
G1 X-1.667S0
G1 X-0.595S700
G1 X-0.885S0
G1 X-0.582S700
G1 X-1.666S0
G1 X-0.011Y0.05S0
G1 X1.667S0
G1 X0.575S700
G1 X0.926S0
G1 X0.583S700
G1 X1.666S0
G1 X0.012Y0.05S0
G1 X-1.666S0
G1 X-0.57S700
G1 X-0.961S0
G1 X-0.576S700
G1 X-1.666S0
G1 X-0.011Y0.05S0
G1 X1.667S0
G1 X0.575S700
G1 X0.978S0
G1 X0.574S700
G1 X1.666S0
G1 Y0.05S0
G1 X-1.664S0
G1 X-0.571S700
G1 X-0.992S0
G1 X-0.567S700
G1 X-1.667S0
G1 Y0.05S0
G1 X1.666S0
G1 X0.563S700
G1 X1.002S0
G1 X0.569S700
G1 X1.667S0
G1 Y0.05S0
G1 X-1.664S0
G1 X-0.567S700
G1 X-1.012S0
G1 X-0.558S700
G1 X-1.667S0
G1 Y0.05S0
G1 X1.666S0
G1 X0.554S700
G1 X1.022S0
G1 X0.562S700
G1 X1.667S0
G1 Y0.05S0
G1 X-1.67S0
G1 X-0.563S700
G1 X-1.014S0
G1 X-0.554S700
G1 X-1.667S0
G1 Y0.05S0
G1 X1.671S0
G1 X0.559S700
G1 X0.992S0
G1 X0.572S700
G1 X1.667S0
G1 Y0.05S0
G1 X-1.67S0
G1 X-0.581S700
G1 X-0.972S0
G1 X-0.563S700
G1 X-1.667S0
G1 Y0.05S0
G1 X1.671S0
G1 X0.568S700
G1 X0.95S0
G1 X0.59S700
G1 X1.666S0
G1 X-0.014Y0.05S0
G1 X-1.666S0
G1 X-0.589S700
G1 X-0.915S0
G1 X-0.579S700
G1 X-1.666S0
G1 X0.014Y0.05S0
G1 X1.667S0
G1 X0.587S700
G1 X0.874S0
G1 X0.593S700
G1 X1.666S0
G1 X-0.013Y0.05S0
G1 X-1.667S0
G1 X-0.613S700
G1 X-0.817S0
G1 X-0.596S700
G1 X-1.667S0
G1 X0.015Y0.05S0
G1 X1.667S0
G1 X0.615S700
G1 X0.748S0
G1 X0.634S700
G1 X1.666S0
G1 X-0.025Y0.05S0
G1 X-1.667S0
G1 X-0.642S700
G1 X-0.672S0
G1 X-0.635S700
G1 X-1.666S0
G1 X0.026Y0.05S0
G1 X1.667S0
G1 X0.65S700
G1 X0.596S0
G1 X0.65S700
G1 X1.667S0
G1 X-0.026Y0.05S0
G1 X-1.666S0
G1 X-0.699S700
G1 X-0.445S0
G1 X-0.701S700
G1 X-1.667S0
G1 X0.027Y0.05S0
G1 X1.666S0
G1 X0.825S700
G1 X0.145S0
G1 X0.819S700
G1 X1.667S0
G1 X-0.041Y0.05S0
G1 X-1.666S0
G1 X-1.708S700
G1 X-1.666S0
G1 X0.041Y0.05S0
G1 X1.667S0
G1 X1.625S700
G1 X1.667S0
G1 X-0.041Y0.05S0
G1 X-1.666S0
G1 X-1.544S700
G1 X-1.667S0
G1 X0.057Y0.05S0
G1 X1.667S0
G1 X1.427S700
G1 X1.666S0
G1 X-0.061Y0.05S0
G1 X-1.667S0
G1 X-1.303S700
G1 X-1.666S0
G1 X0.066Y0.05S0
G1 X1.667S0
G1 X1.166S700
G1 X1.667S0
G1 X-0.096Y0.05S0
G1 X-1.667S0
G1 X-0.972S700
G1 X-1.666S0
G1 X0.117Y0.05S0
G1 X1.667S0
G1 X0.734S700
G1 X1.667S0
G1 X-0.253Y0.05S0
G1 X-1.666S0
G1 X-0.231S700
G1 X-1.667S0
M9
G1 S0
M5
; return to starting pos
G0 X0.718Y-2.158
M2
