; LightBurn 1.2.01
; GRBL device profile, current position
; Bounds: X-1.67 Y0.03 to X3.69 Y2.88
G00 G17 G40 G21 G54
G91
M4
; Cut @ 5000 mm/min, 0% power
M8
G0 X0Y0.789
; Layer Lim
G1 X1S0F5000
; Scan @ 4000 mm/min, 70% power
M8
G0 X-2.667Y-0.76
; Layer C02
G1 X1.667F4000S0
G1 X0.549S700
G1 X1.667S0
G1 Y0.05S0
G1 X-1.667S0
G1 X-0.549S700
G1 X-1.667S0
G1 Y0.05S0
G1 X1.667S0
G1 X0.549S700
G1 X1.667S0
G1 Y0.05S0
G1 X-1.667S0
G1 X-0.549S700
G1 X-1.667S0
G1 Y0.05S0
G1 X1.667S0
G1 X0.549S700
G1 X1.667S0
G1 Y0.05S0
G1 X-1.667S0
G1 X-0.549S700
G1 X-1.667S0
G1 Y0.05S0
G1 X1.667S0
G1 X0.549S700
G1 X1.667S0
G1 Y0.05S0
G1 X-1.667S0
G1 X-0.549S700
G1 X-1.667S0
G1 Y0.05S0
G1 X1.667S0
G1 X0.549S700
G1 X1.667S0
G1 Y0.05S0
G1 X-1.667S0
G1 X-0.549S700
G1 X-1.667S0
G1 Y0.05S0
G1 X1.667S0
G1 X0.549S700
G1 X1.667S0
G1 Y0.05S0
G1 X-1.667S0
G1 X-0.549S700
G1 X-1.667S0
G1 Y0.05S0
G1 X1.667S0
G1 X0.549S700
G1 X1.667S0
G1 Y0.05S0
G1 X-1.667S0
G1 X-0.549S700
G1 X-1.667S0
G1 Y0.05S0
G1 X1.667S0
G1 X0.549S700
G1 X1.667S0
G1 X0.829Y0.05S0
G1 X-1.666S0
G1 X-0.419S700
G1 X-0.411S0
G1 X-0.549S700
G1 X-1.667S0
G1 Y0.05S0
G1 X1.667S0
G1 X0.549S700
G1 X0.274S0
G1 X0.689S700
G1 X1.666S0
G1 X0.095Y0.05S0
G1 X-1.667S0
G1 X-0.87S700
G1 X-0.187S0
G1 X-0.549S700
G1 X-1.667S0
G1 Y0.05S0
G1 X1.667S0
G1 X0.549S700
G1 X0.118S0
G1 X1.001S700
G1 X1.667S0
G1 X0.055Y0.05S0
G1 X-1.667S0
G1 X-1.107S700
G1 X-0.067S0
G1 X-0.549S700
G1 X-1.667S0
G1 Y0.05S0
G1 X1.667S0
G1 X0.549S700
G1 X0.015S0
G1 X1.211S700
G1 X1.666S0
G1 X0.033Y0.05S0
G1 X-1.666S0
G1 X-1.808S700
G1 X-1.667S0
G1 Y0.05S0
G1 X1.667S0
G1 X1.841S700
G1 X1.666S0
G1 X0.033Y0.05S0
G1 X-1.666S0
G1 X-0.822S700
G1 X-0.038S0
G1 X-1.014S700
G1 X-1.667S0
G1 Y0.05S0
G1 X1.667S0
G1 X0.822S700
G1 X0.389S0
G1 X0.683S700
G1 X1.666S0
G1 X0.018Y0.05S0
G1 X-1.667S0
G1 X-0.628S700
G1 X-0.527S0
G1 X-0.756S700
G1 X-1.667S0
G1 Y0.05S0
G1 X1.667S0
G1 X0.702S700
G1 X0.634S0
G1 X0.592S700
G1 X1.667S0
G1 X0.017Y0.05S0
G1 X-1.666S0
G1 X-0.585S700
G1 X-0.698S0
G1 X-0.663S700
G1 X-1.667S0
G1 Y0.05S0
G1 X1.667S0
G1 X0.627S700
G1 X0.759S0
G1 X0.577S700
G1 X1.667S0
G1 X0.017Y0.05S0
G1 X-1.667S0
G1 X-0.569S700
G1 X-0.806S0
G1 X-0.605S700
G1 X-1.667S0
G1 Y0.05S0
G1 X1.667S0
G1 X0.584S700
G1 X0.842S0
G1 X0.565S700
G1 X1.667S0
G1 X0.005Y0.05S0
G1 X-1.666S0
G1 X-0.557S700
G1 X-0.87S0
G1 X-0.57S700
G1 X-1.667S0
G1 Y0.05S0
G1 X1.667S0
G1 X0.562S700
G1 X0.892S0
G1 X0.548S700
G1 X1.667S0
G1 X0.006Y0.05S0
G1 X-1.667S0
G1 X-0.546S700
G1 X-0.908S0
G1 X-0.554S700
G1 X-1.667S0
G1 Y0.05S0
G1 X1.667S0
G1 X0.548S700
G1 X0.918S0
G1 X0.548S700
G1 X1.666S0
G1 X0.006Y0.05S0
G1 X-1.667S0
G1 X-0.549S700
G1 X-0.928S0
G1 X-0.542S700
G1 X-1.667S0
G1 Y0.05S0
G1 X1.667S0
G1 X0.537S700
G1 X0.935S0
G1 X0.553S700
G1 X1.666S0
G1 X-0.005Y0.05S0
G1 X-1.667S0
G1 X-0.552S700
G1 X-0.932S0
G1 X-0.535S700
G1 X-1.667S0
G1 Y0.05S0
G1 X1.667S0
G1 X0.54S700
G1 X0.922S0
G1 X0.552S700
G1 X1.666S0
G1 X-0.005Y0.05S0
G1 X-1.667S0
G1 X-0.552S700
G1 X-0.911S0
G1 X-0.545S700
G1 X-1.667S0
G1 Y0.05S0
G1 X1.667S0
G1 X0.551S700
G1 X0.898S0
G1 X0.554S700
G1 X1.666S0
G1 X-0.005Y0.05S0
G1 X-1.667S0
G1 X-0.556S700
G1 X-0.874S0
G1 X-0.567S700
G1 X-1.667S0
G1 Y0.05S0
G1 X1.667S0
G1 X0.582S700
G1 X0.849S0
G1 X0.561S700
G1 X1.666S0
G1 X-0.011Y0.05S0
G1 X-1.666S0
G1 X-0.572S700
G1 X-0.811S0
G1 X-0.598S700
G1 X-1.667S0
G1 Y0.05S0
G1 X1.667S0
G1 X0.626S700
G1 X0.762S0
G1 X0.576S700
G1 X1.666S0
G1 X-0.017Y0.05S0
G1 X-1.667S0
G1 X-0.592S700
G1 X-0.701S0
G1 X-0.653S700
G1 X-1.667S0
G1 Y0.05S0
G1 X1.667S0
G1 X0.686S700
G1 X0.629S0
G1 X0.614S700
G1 X1.667S0
G1 X-0.017Y0.05S0
G1 X-1.667S0
G1 X-0.651S700
G1 X-0.517S0
G1 X-0.744S700
G1 X-1.667S0
G1 Y0.05S0
G1 X1.667S0
G1 X0.823S700
G1 X0.372S0
G1 X0.7S700
G1 X1.667S0
G1 X-0.02Y0.05S0
G1 X-1.667S0
G1 X-1.875S700
G1 X-1.667S0
G1 Y0.05S0
G1 X1.667S0
G1 X1.843S700
G1 X1.667S0
G1 X-0.032Y0.05S0
G1 X-1.667S0
G1 X-1.28S700
G1 X-0.02S0
G1 X-0.511S700
G1 X-1.667S0
G1 Y0.05S0
G1 X1.667S0
G1 X0.511S700
G1 X0.065S0
G1 X1.193S700
G1 X1.667S0
G1 X-0.047Y0.05S0
G1 X-1.667S0
G1 X-1.102S700
G1 X-0.109S0
G1 X-0.511S700
G1 X-1.667S0
G1 Y0.05S0
G1 X1.667S0
G1 X0.511S700
G1 X0.153S0
G1 X1.001S700
G1 X1.667S0
G1 X-0.069Y0.05S0
G1 X-1.666S0
G1 X-0.852S700
G1 X-0.234S0
G1 X-0.511S700
G1 X-1.667S0
G1 Y0.05S0
G1 X1.667S0
G1 X0.511S700
G1 X0.317S0
G1 X0.675S700
G1 X1.667S0
G1 X-0.139Y0.05S0
G1 X-1.667S0
G1 X-0.405S700
G1 X-1.667S0
M9
G1 S0
M5
; return to starting pos
G0 X0.708Y-2.879
M2
