; LightBurn 1.2.01
; GRBL device profile, current position
; Bounds: X-1.67 Y0 to X3 Y2.08
G00 G17 G40 G21 G54
G91
M4
; Cut @ 5000 mm/min, 0% power
M8
G0 X0Y0
; Layer Lim
G1 X1S0F5000
; Scan @ 4000 mm/min, 70% power
M8
G0 X-2.667Y0.035
; Layer C02
G1 X1.667F4000S0
G1 X0.548S700
G1 X1.667S0
G1 Y0.05S0
G1 X-1.667S0
G1 X-0.548S700
G1 X-1.667S0
G1 Y0.05S0
G1 X1.667S0
G1 X0.548S700
G1 X1.667S0
G1 Y0.05S0
G1 X-1.667S0
G1 X-0.548S700
G1 X-1.667S0
G1 Y0.05S0
G1 X1.667S0
G1 X0.548S700
G1 X1.667S0
G1 Y0.05S0
G1 X-1.667S0
G1 X-0.548S700
G1 X-1.667S0
G1 Y0.05S0
G1 X1.667S0
G1 X0.548S700
G1 X1.667S0
G1 Y0.05S0
G1 X-1.667S0
G1 X-0.548S700
G1 X-1.667S0
G1 Y0.05S0
G1 X1.667S0
G1 X0.548S700
G1 X1.667S0
G1 Y0.05S0
G1 X-1.667S0
G1 X-0.548S700
G1 X-1.667S0
G1 Y0.05S0
G1 X1.667S0
G1 X0.548S700
G1 X1.667S0
G1 Y0.05S0
G1 X-1.667S0
G1 X-0.548S700
G1 X-1.667S0
G1 Y0.05S0
G1 X1.667S0
G1 X0.548S700
G1 X1.667S0
G1 Y0.05S0
G1 X-1.666S0
G1 X-0.549S700
G1 X-1.667S0
G1 Y0.05S0
G1 X1.667S0
G1 X0.55S700
G1 X1.666S0
G1 Y0.05S0
G1 X-1.666S0
G1 X-0.55S700
G1 X-1.667S0
G1 Y0.05S0
G1 X1.667S0
G1 X0.551S700
G1 X1.667S0
G1 Y0.05S0
G1 X-1.667S0
G1 X-0.551S700
G1 X-1.667S0
G1 Y0.05S0
G1 X1.667S0
G1 X0.552S700
G1 X1.667S0
G1 Y0.05S0
G1 X-1.666S0
G1 X-0.553S700
G1 X-1.667S0
G1 Y0.05S0
G1 X1.667S0
G1 X0.558S700
G1 X1.667S0
G1 X0.006Y0.05S0
G1 X-1.667S0
G1 X-0.564S700
G1 X-1.667S0
G1 Y0.05S0
G1 X1.667S0
G1 X0.57S700
G1 X1.667S0
G1 X0.006Y0.05S0
G1 X-1.667S0
G1 X-0.576S700
G1 X-1.667S0
G1 Y0.05S0
G1 X1.667S0
G1 X0.582S700
G1 X1.667S0
G1 X0.006Y0.05S0
G1 X-1.667S0
G1 X-0.588S700
G1 X-1.667S0
G1 Y0.05S0
G1 X1.667S0
G1 X0.594S700
G1 X1.667S0
G1 X0.014Y0.05S0
G1 X-1.667S0
G1 X-0.608S700
G1 X-1.667S0
G1 Y0.05S0
G1 X1.667S0
G1 X0.622S700
G1 X1.667S0
G1 X0.03Y0.05S0
G1 X-1.666S0
G1 X-0.653S700
G1 X-1.667S0
G1 Y0.05S0
G1 X1.667S0
G1 X0.69S700
G1 X1.667S0
G1 X0.499Y0.05S0
G1 X-1.667S0
G1 X-0.106S700
G1 X-0.32S0
G1 X-0.763S700
G1 X-1.667S0
G1 Y0.05S0
G1 X1.667S0
G1 X1.207S700
G1 X1.667S0
G1 X0.018Y0.05S0
G1 X-1.667S0
G1 X-1.225S700
G1 X-1.667S0
G1 Y0.05S0
G1 X1.667S0
G1 X1.243S700
G1 X1.666S0
G1 X0.018Y0.05S0
G1 X-1.666S0
G1 X-0.747S700
G1 X-0.514
G1 X-1.667S0
G1 Y0.05S0
G1 X1.667S0
G1 X0.51S700
G1 X0.037S0
G1 X0.731S700
G1 X1.667S0
G1 X0.018Y0.05S0
G1 X-1.667S0
G1 X-0.714S700
G1 X-0.072S0
G1 X-0.51S700
G1 X-1.667S0
G1 Y0.05S0
G1 X1.667S0
G1 X0.51S700
G1 X0.111S0
G1 X0.693S700
G1 X1.667S0
G1 X0.017Y0.05S0
G1 X-1.666S0
G1 X-0.653S700
G1 X-0.169S0
G1 X-0.51S700
G1 X-1.667S0
G1 Y0.05S0
G1 X1.667S0
G1 X0.51S700
G1 X0.236S0
G1 X0.559S700
G1 X1.667S0
G1 X-0.103Y0.05S0
G1 X-1.666S0
G1 X-0.352S700
G1 X-1.667S0
M9
G1 S0
M5
; return to starting pos
G0 X0.816Y-2.085
M2
