; LightBurn 1.2.01
; GRBL device profile, current position
; Bounds: X-1.66 Y0 to X3.82 Y2.06
G00 G17 G40 G21 G54
G91
M4
; Cut @ 5000 mm/min, 0% power
M8
G0 X0Y0
; Layer Lim
G1 X1S0F5000
; Scan @ 4000 mm/min, 70% power
M8
G0 X-2.659Y0.011
; Layer C02
G1 X1.667F4000S0
G1 X0.642S700
G1 X0.831S0
G1 X0.673S700
G1 X1.667S0
G1 X-0.035Y0.05S0
G1 X-1.667S0
G1 X-0.67S700
G1 X-0.766S0
G1 X-0.64S700
G1 X-1.667S0
G1 X0.035Y0.05S0
G1 X1.667S0
G1 X0.638S700
G1 X0.7S0
G1 X0.668S700
G1 X1.667S0
G1 X-0.036Y0.05S0
G1 X-1.666S0
G1 X-0.666S700
G1 X-0.634S0
G1 X-0.636S700
G1 X-1.667S0
G1 X0.035Y0.05S0
G1 X1.667S0
G1 X0.634S700
G1 X0.568S0
G1 X0.664S700
G1 X1.666S0
G1 X-0.035Y0.05S0
G1 X-1.667S0
G1 X-0.661S700
G1 X-0.502S0
G1 X-0.632S700
G1 X-1.667S0
G1 X0.035Y0.05S0
G1 X1.667S0
G1 X0.63S700
G1 X0.436S0
G1 X0.659S700
G1 X1.667S0
G1 X-0.035Y0.05S0
G1 X-1.667S0
G1 X-0.656S700
G1 X-0.37S0
G1 X-0.629S700
G1 X-1.667S0
G1 X0.035Y0.05S0
G1 X1.667S0
G1 X0.627S700
G1 X0.304S0
G1 X0.654S700
G1 X1.667S0
G1 X-0.035Y0.05S0
G1 X-1.667S0
G1 X-0.652S700
G1 X-0.238S0
G1 X-0.625S700
G1 X-1.667S0
G1 X0.035Y0.05S0
G1 X1.667S0
G1 X0.623S700
G1 X0.172S0
G1 X0.65S700
G1 X1.666S0
G1 X-0.035Y0.05S0
G1 X-1.666S0
G1 X-0.648S700
G1 X-0.106S0
G1 X-0.621S700
G1 X-1.667S0
G1 X0.035Y0.05S0
G1 X1.667S0
G1 X0.619S700
G1 X0.04S0
G1 X0.645S700
G1 X1.667S0
G1 X-0.035Y0.05S0
G1 X-1.667S0
G1 X-1.234S700
G1 X-1.667S0
G1 X0.035Y0.05S0
G1 X1.667S0
G1 X1.164S700
G1 X1.667S0
G1 X-0.035Y0.05S0
G1 X-1.667S0
G1 X-1.094S700
G1 X-1.667S0
G1 X0.035Y0.05S0
G1 X1.667S0
G1 X1.024S700
G1 X1.666S0
G1 X-0.035Y0.05S0
G1 X-1.666S0
G1 X-0.954S700
G1 X-1.667S0
G1 X0.035Y0.05S0
G1 X1.667S0
G1 X0.883S700
G1 X1.667S0
G1 X-0.035Y0.05S0
G1 X-1.667S0
G1 X-0.813S700
G1 X-1.667S0
G1 X0.035Y0.05S0
G1 X1.667S0
G1 X0.743S700
G1 X1.667S0
G1 X-0.035Y0.05S0
G1 X-1.667S0
G1 X-0.673S700
G1 X-1.667S0
G1 X-0.027Y0.05S0
G1 X1.667S0
G1 X0.694S700
G1 X1.667S0
G1 X0.035Y0.05S0
G1 X-1.666S0
G1 X-0.766S700
G1 X-1.667S0
G1 X-0.035Y0.05S0
G1 X1.666S0
G1 X0.837S700
G1 X1.667S0
G1 X0.036Y0.05S0
G1 X-1.667S0
G1 X-0.908S700
G1 X-1.667S0
G1 X-0.035Y0.05S0
G1 X1.666S0
G1 X0.98S700
G1 X1.667S0
G1 X0.035Y0.05S0
G1 X-1.666S0
G1 X-1.051S700
G1 X-1.667S0
G1 X-0.036Y0.05S0
G1 X1.667S0
G1 X1.123S700
G1 X1.666S0
G1 X0.036Y0.05S0
G1 X-1.667S0
G1 X-1.193S700
G1 X-1.667S0
G1 X-0.036Y0.05S0
G1 X1.667S0
G1 X0.631S700
G1 X0.011S0
G1 X0.623S700
G1 X1.667S0
G1 X0.036Y0.05S0
G1 X-1.667S0
G1 X-0.625S700
G1 X-0.078S0
G1 X-0.634S700
G1 X-1.666S0
G1 X-0.036Y0.05S0
G1 X1.667S0
G1 X0.637S700
G1 X0.144S0
G1 X0.627S700
G1 X1.666S0
G1 X0.036Y0.05S0
G1 X-1.667S0
G1 X-0.628S700
G1 X-0.21S0
G1 X-0.641S700
G1 X-1.667S0
G1 X-0.035Y0.05S0
G1 X1.667S0
G1 X0.644S700
G1 X0.276S0
G1 X0.63S700
G1 X1.667S0
G1 X0.036Y0.05S0
G1 X-1.667S0
G1 X-0.632S700
G1 X-0.342S0
G1 X-0.648S700
G1 X-1.667S0
G1 X-0.035Y0.05S0
G1 X1.666S0
G1 X0.652S700
G1 X0.408S0
G1 X0.634S700
G1 X1.666S0
G1 X0.036Y0.05S0
G1 X-1.666S0
G1 X-0.636S700
G1 X-0.475S0
G1 X-0.654S700
G1 X-1.667S0
G1 X-0.035Y0.05S0
G1 X1.666S0
G1 X0.658S700
G1 X0.541S0
G1 X0.637S700
G1 X1.667S0
G1 X0.036Y0.05S0
G1 X-1.667S0
G1 X-0.64S700
G1 X-0.606S0
G1 X-0.661S700
G1 X-1.667S0
G1 X-0.036Y0.05S0
G1 X1.667S0
G1 X0.665S700
G1 X0.672S0
G1 X0.642S700
G1 X1.667S0
G1 X0.035Y0.05S0
G1 X-1.666S0
G1 X-0.644S700
G1 X-0.738S0
G1 X-0.669S700
G1 X-1.666S0
M9
G1 S0
M5
; return to starting pos
G0 X1.627Y-2.061
M2
