; LightBurn 1.2.01
; GRBL device profile, current position
; Bounds: X-1.65 Y0.03 to X3.79 Y2.88
G00 G17 G40 G21 G54
G91
M4
; Cut @ 5000 mm/min, 0% power
M8
G0 X0Y0.839
; Layer Lim
G1 X1S0F5000
; Scan @ 4000 mm/min, 70% power
M8
G0 X-2.486Y-0.808
; Layer C02
G1 X1.667F4000S0
G1 X0.591S700
G1 X1.666S0
G1 X0.114Y0.05S0
G1 X-1.666S0
G1 X-0.711S700
G1 X-1.666S0
G1 X-0.006Y0.05S0
G1 X1.667S0
G1 X0.805S700
G1 X1.667S0
G1 X0.062Y0.05S0
G1 X-1.667S0
G1 X-0.873S700
G1 X-1.667S0
G1 X-0.005Y0.05S0
G1 X1.666S0
G1 X0.938S700
G1 X1.667S0
G1 X0.036Y0.05S0
G1 X-1.667S0
G1 X-0.979S700
G1 X-1.667S0
G1 X-0.006Y0.05S0
G1 X1.667S0
G1 X1.021S700
G1 X1.667S0
G1 X0.035Y0.05S0
G1 X-1.667S0
G1 X-1.062S700
G1 X-1.666S0
G1 X-0.006Y0.05S0
G1 X1.667S0
G1 X1.086S700
G1 X1.666S0
G1 X0.019Y0.05S0
G1 X-1.667S0
G1 X-0.683S700
G1 X-1.667S0
G1 X0.072Y0.05S0
G1 X1.667S0
G1 X0.63S700
G1 X1.667S0
G1 X0.018Y0.05S0
G1 X-1.667S0
G1 X-0.604S700
G1 X-1.666S0
G1 X0.039Y0.05S0
G1 X1.667S0
G1 X0.582S700
G1 X1.667S0
G1 X0.018Y0.05S0
G1 X-1.666S0
G1 X-0.575S700
G1 X-1.667S0
G1 X0.024Y0.05S0
G1 X1.666S0
G1 X0.57S700
G1 X1.666S0
G1 X0.018Y0.05S0
G1 X-1.666S0
G1 X-0.575S700
G1 X-1.667S0
G1 X0.013Y0.05S0
G1 X1.667S0
G1 X0.58S700
G1 X1.666S0
G1 X0.019Y0.05S0
G1 X-1.667S0
G1 X-0.616S700
G1 X-1.667S0
G1 X-0.018Y0.05S0
G1 X1.666S0
G1 X0.653S700
G1 X1.667S0
G1 X0.018Y0.05S0
G1 X-1.667S0
G1 X-0.69S700
G1 X-1.666S0
G1 X-0.019Y0.05S0
G1 X1.666S0
G1 X0.728S700
G1 X1.666S0
G1 X0.019Y0.05S0
G1 X-1.667S0
G1 X-0.765S700
G1 X-1.666S0
G1 X-0.019Y0.05S0
G1 X1.666S0
G1 X0.802S700
G1 X1.667S0
G1 X0.018Y0.05S0
G1 X-1.666S0
G1 X-0.84S700
G1 X-1.666S0
G1 X-0.019Y0.05S0
G1 X1.666S0
G1 X0.877S700
G1 X1.667S0
G1 X0.018Y0.05S0
G1 X-1.667S0
G1 X-0.913S700
G1 X-1.667S0
G1 X-0.019Y0.05S0
G1 X1.667S0
G1 X0.951S700
G1 X1.666S0
G1 X0.019Y0.05S0
G1 X-1.667S0
G1 X-0.988S700
G1 X-1.667S0
G1 X-0.019Y0.05S0
G1 X1.667S0
G1 X1.026S700
G1 X1.666S0
G1 X0.019Y0.05S0
G1 X-1.667S0
G1 X-0.514S700
G1 X-0.026S0
G1 X-0.523S700
G1 X-1.667S0
G1 X-0.019Y0.05S0
G1 X1.667S0
G1 X0.525S700
G1 X0.06S0
G1 X0.515S700
G1 X1.667S0
G1 X0.018Y0.05S0
G1 X-1.666S0
G1 X-0.518S700
G1 X-0.093S0
G1 X-0.527S700
G1 X-1.667S0
G1 X-0.019Y0.05S0
G1 X1.667S0
G1 X0.529S700
G1 X0.127S0
G1 X0.519S700
G1 X1.667S0
G1 X0.018Y0.05S0
G1 X-1.667S0
G1 X-0.521S700
G1 X-0.16S0
G1 X-0.531S700
G1 X-1.667S0
G1 X-0.019Y0.05S0
G1 X1.667S0
G1 X0.533S700
G1 X0.194S0
G1 X0.523S700
G1 X1.666S0
G1 X0.019Y0.05S0
G1 X-1.667S0
G1 X-0.525S700
G1 X-0.226S0
G1 X-0.536S700
G1 X-1.667S0
G1 X-0.019Y0.05S0
G1 X1.667S0
G1 X0.538S700
G1 X0.26S0
G1 X0.526S700
G1 X1.667S0
G1 X0.018Y0.05S0
G1 X-1.666S0
G1 X-0.529S700
G1 X-0.293S0
G1 X-0.54S700
G1 X-1.667S0
G1 X-0.019Y0.05S0
G1 X1.667S0
G1 X0.542S700
G1 X0.327S0
G1 X0.53S700
G1 X1.667S0
G1 X0.018Y0.05S0
G1 X-1.667S0
G1 X-0.532S700
G1 X-0.36S0
G1 X-0.544S700
G1 X-1.667S0
G1 X-0.019Y0.05S0
G1 X1.667S0
G1 X0.546S700
G1 X0.393S0
G1 X0.535S700
G1 X1.666S0
G1 X0.019Y0.05S0
G1 X-1.667S0
G1 X-0.536S700
G1 X-0.427S0
G1 X-0.548S700
G1 X-1.666S0
G1 X-0.019Y0.05S0
G1 X1.666S0
G1 X0.551S700
G1 X0.459S0
G1 X0.538S700
G1 X1.667S0
G1 X0.018Y0.05S0
G1 X-1.666S0
G1 X-0.54S700
G1 X-0.493S0
G1 X-0.553S700
G1 X-1.666S0
G1 X-0.019Y0.05S0
G1 X1.666S0
G1 X0.555S700
G1 X0.526S0
G1 X0.542S700
G1 X1.667S0
G1 X0.018Y0.05S0
G1 X-1.667S0
G1 X-0.543S700
G1 X-0.56S0
G1 X-0.557S700
G1 X-1.666S0
G1 X-0.019Y0.05S0
G1 X1.666S0
G1 X0.559S700
G1 X0.593S0
G1 X0.546S700
G1 X1.666S0
G1 X0.019Y0.05S0
G1 X-1.667S0
G1 X-0.547S700
G1 X-0.627S0
G1 X-0.561S700
G1 X-1.666S0
G1 X-0.019Y0.05S0
G1 X1.667S0
G1 X0.562S700
G1 X0.66S0
G1 X0.549S700
G1 X1.667S0
G1 X0.018Y0.05S0
G1 X-1.666S0
G1 X-0.552S700
G1 X-0.692S0
G1 X-0.565S700
G1 X-1.667S0
G1 X-0.019Y0.05S0
G1 X1.667S0
G1 X0.567S700
G1 X0.726S0
G1 X0.553S700
G1 X1.667S0
G1 X0.018Y0.05S0
G1 X-1.667S0
G1 X-0.555S700
G1 X-0.759S0
G1 X-0.569S700
G1 X-1.667S0
G1 X-0.019Y0.05S0
G1 X1.667S0
G1 X0.571S700
G1 X0.793S0
G1 X0.557S700
G1 X1.666S0
G1 X0.019Y0.05S0
G1 X-1.667S0
G1 X-0.559S700
G1 X-0.826S0
G1 X-0.573S700
G1 X-1.667S0
G1 X-0.019Y0.05S0
G1 X1.667S0
G1 X0.575S700
G1 X0.86S0
G1 X0.56S700
G1 X1.667S0
G1 X0.019Y0.05S0
G1 X-1.667S0
G1 X-0.563S700
G1 X-0.892S0
G1 X-0.578S700
G1 X-1.667S0
G1 X-0.019Y0.05S0
G1 X1.667S0
G1 X0.58S700
G1 X0.926S0
G1 X0.564S700
G1 X1.667S0
G1 X0.018Y0.05S0
G1 X-1.666S0
G1 X-0.567S700
G1 X-0.959S0
G1 X-0.582S700
G1 X-1.667S0
M9
G1 S0
M5
; return to starting pos
G0 X1.655Y-2.881
M2
