; LightBurn 1.2.01
; GRBL device profile, current position
; Bounds: X-1.67 Y0.03 to X3.7 Y2.88
G00 G17 G40 G21 G54
G91
M4
; Cut @ 5000 mm/min, 0% power
M8
G0 X0Y0.045
; Layer Lim
G1 X1S0F5000
; Scan @ 4000 mm/min, 70% power
M8
G0 X-1.689Y-0.017
; Layer C02
G1 X1.666F4000S0
G1 X0.381S700
G1 X1.666S0
G1 X0.112Y0.05S0
G1 X-1.667S0
G1 X-0.63S700
G1 X-0.329S0
G1 X-0.51S700
G1 X-1.667S0
G1 Y0.05S0
G1 X1.667S0
G1 X0.51S700
G1 X0.226S0
G1 X0.844S700
G1 X1.667S0
G1 X0.062Y0.05S0
G1 X-1.666S0
G1 X-0.965S700
G1 X-0.168S0
G1 X-0.51S700
G1 X-1.667S0
G1 Y0.05S0
G1 X1.667S0
G1 X0.51S700
G1 X0.11S0
G1 X1.078S700
G1 X1.667S0
G1 X0.055Y0.05S0
G1 X-1.667S0
G1 X-1.186S700
G1 X-0.057S0
G1 X-0.51S700
G1 X-1.667S0
G1 Y0.05S0
G1 X1.667S0
G1 X0.51S700
G1 X0.017S0
G1 X1.28S700
G1 X1.666S0
G1 X0.029Y0.05S0
G1 X-1.666S0
G1 X-1.836S700
G1 X-1.667S0
G1 Y0.05S0
G1 X1.667S0
G1 X1.865S700
G1 X1.667S0
G1 X0.029Y0.05S0
G1 X-1.667S0
G1 X-0.696S700
G1 X-0.367S0
G1 X-0.831S700
G1 X-1.667S0
G1 Y0.05S0
G1 X1.667S0
G1 X0.768S700
G1 X0.506S0
G1 X0.649S700
G1 X1.667S0
G1 X0.026Y0.05S0
G1 X-1.667S0
G1 X-0.624S700
G1 X-0.609S0
G1 X-0.716S700
G1 X-1.667S0
G1 Y0.05S0
G1 X1.667S0
G1 X0.671S700
G1 X0.68S0
G1 X0.609S700
G1 X1.666S0
G1 X0.011Y0.05S0
G1 X-1.666S0
G1 X-0.6S700
G1 X-0.729S0
G1 X-0.642S700
G1 X-1.667S0
G1 Y0.05S0
G1 X1.667S0
G1 X0.613S700
G1 X0.779S0
G1 X0.589S700
G1 X1.667S0
G1 X0.011Y0.05S0
G1 X-1.667S0
G1 X-0.58S700
G1 X-0.826S0
G1 X-0.586S700
G1 X-1.667S0
G1 Y0.05S0
G1 X1.667S0
G1 X0.573S700
G1 X0.86S0
G1 X0.57S700
G1 X1.667S0
G1 X0.007Y0.05S0
G1 X-1.666S0
G1 X-0.571S700
G1 X-0.88S0
G1 X-0.56S700
G1 X-1.667S0
G1 Y0.05S0
G1 X1.667S0
G1 X0.546S700
G1 X0.9S0
G1 X0.569S700
G1 X1.667S0
G1 Y0.05S0
G1 X-1.662S0
G1 X-0.567S700
G1 X-0.91S0
G1 X-0.543S700
G1 X-1.667S0
G1 Y0.05S0
G1 X1.667S0
G1 X0.543S700
G1 X0.916S0
G1 X0.565S700
G1 X1.667S0
G1 Y0.05S0
G1 X-1.662S0
G1 X-0.564S700
G1 X-0.922S0
G1 X-0.543S700
G1 X-1.667S0
G1 Y0.05S0
G1 X1.667S0
G1 X0.544S700
G1 X0.917S0
G1 X0.565S700
G1 X1.666S0
G1 Y0.05S0
G1 X-1.669S0
G1 X-0.568S700
G1 X-0.911S0
G1 X-0.544S700
G1 X-1.667S0
G1 Y0.05S0
G1 X1.667S0
G1 X0.544S700
G1 X0.904S0
G1 X0.572S700
G1 X1.666S0
G1 Y0.05S0
G1 X-1.67S0
G1 X-0.574S700
G1 X-0.897S0
G1 X-0.545S700
G1 X-1.667S0
G1 Y0.05S0
G1 X1.667S0
G1 X0.554S700
G1 X0.881S0
G1 X0.575S700
G1 X1.666S0
G1 X-0.011Y0.05S0
G1 X-1.666S0
G1 X-0.58S700
G1 X-0.849S0
G1 X-0.57S700
G1 X-1.667S0
G1 Y0.05S0
G1 X1.667S0
G1 X0.585S700
G1 X0.814S0
G1 X0.589S700
G1 X1.666S0
G1 X-0.01Y0.05S0
G1 X-1.667S0
G1 X-0.599S700
G1 X-0.77S0
G1 X-0.608S700
G1 X-1.667S0
G1 Y0.05S0
G1 X1.667S0
G1 X0.642S700
G1 X0.716S0
G1 X0.608S700
G1 X1.666S0
G1 X-0.019Y0.05S0
G1 X-1.667S0
G1 X-0.609S700
G1 X-0.662S0
G1 X-0.675S700
G1 X-1.667S0
G1 Y0.05S0
G1 X1.667S0
G1 X0.726S700
G1 X0.562S0
G1 X0.639S700
G1 X1.667S0
G1 X-0.019Y0.05S0
G1 X-1.667S0
G1 X-0.677S700
G1 X-0.443S0
G1 X-0.788S700
G1 X-1.667S0
G1 Y0.05S0
G1 X1.667S0
G1 X0.902S700
G1 X0.213S0
G1 X0.774S700
G1 X1.666S0
G1 X-0.031Y0.05S0
G1 X-1.666S0
G1 X-1.858S700
G1 X-1.667S0
G1 Y0.05S0
G1 X1.667S0
G1 X1.824S700
G1 X1.666S0
G1 X-0.037Y0.05S0
G1 X-1.667S0
G1 X-1.235S700
G1 X-0.551
G1 X-1.667S0
G1 Y0.05S0
G1 X1.667S0
G1 X0.548S700
G1 X0.055S0
G1 X1.133S700
G1 X1.667S0
G1 X-0.051Y0.05S0
G1 X-1.666S0
G1 X-1.031S700
G1 X-0.107S0
G1 X-0.548S700
G1 X-1.667S0
G1 Y0.05S0
G1 X1.667S0
G1 X0.548S700
G1 X0.176S0
G1 X0.888S700
G1 X1.667S0
G1 X-0.087Y0.05S0
G1 X-1.667S0
G1 X-0.722S700
G1 X-0.255S0
G1 X-0.548S700
G1 X-1.667S0
G1 Y0.05S0
G1 X1.667S0
G1 X0.548S700
G1 X0.383S0
G1 X0.469S700
G1 X1.667S0
G1 X-0.852Y0.05S0
G1 X-1.667S0
G1 X-0.548S700
G1 X-1.667S0
G1 Y0.05S0
G1 X1.667S0
G1 X0.548S700
G1 X1.667S0
G1 Y0.05S0
G1 X-1.667S0
G1 X-0.548S700
G1 X-1.667S0
G1 Y0.05S0
G1 X1.667S0
G1 X0.548S700
G1 X1.667S0
G1 Y0.05S0
G1 X-1.667S0
G1 X-0.548S700
G1 X-1.667S0
G1 Y0.05S0
G1 X1.667S0
G1 X0.548S700
G1 X1.667S0
G1 Y0.05S0
G1 X-1.667S0
G1 X-0.548S700
G1 X-1.667S0
G1 Y0.05S0
G1 X1.667S0
G1 X0.548S700
G1 X1.667S0
G1 Y0.05S0
G1 X-1.667S0
G1 X-0.548S700
G1 X-1.667S0
G1 Y0.05S0
G1 X1.667S0
G1 X0.548S700
G1 X1.667S0
G1 Y0.05S0
G1 X-1.667S0
G1 X-0.548S700
G1 X-1.667S0
G1 Y0.05S0
G1 X1.667S0
G1 X0.548S700
G1 X1.667S0
G1 Y0.05S0
G1 X-1.667S0
G1 X-0.548S700
G1 X-1.667S0
G1 Y0.05S0
G1 X1.667S0
G1 X0.548S700
G1 X1.667S0
G1 Y0.05S0
G1 X-1.667S0
G1 X-0.548S700
G1 X-1.667S0
M9
G1 S0
M5
; return to starting pos
G0 X1.667Y-2.878
M2
