; LightBurn 1.2.01
; GRBL device profile, current position
; Bounds: X-1.67 Y0.01 to X3.62 Y2.16
G00 G17 G40 G21 G54
G91
M4
; Cut @ 5000 mm/min, 0% power
M8
G0 X0Y0.047
; Layer Lim
G1 X1S0F5000
; Scan @ 4000 mm/min, 70% power
M8
G0 X-1.862Y-0.035
; Layer C02
G1 X1.666F4000S0
G1 X0.383S700
G1 X1.666S0
G1 X0.185Y0.05S0
G1 X-1.667S0
G1 X-0.75S700
G1 X-1.667S0
G1 X-0.109Y0.05S0
G1 X1.667S0
G1 X0.992S700
G1 X1.666S0
G1 X0.073Y0.05S0
G1 X-1.666S0
G1 X-1.145S700
G1 X-1.666S0
G1 X-0.071Y0.05S0
G1 X1.667S0
G1 X1.288S700
G1 X1.666S0
G1 X0.064Y0.05S0
G1 X-1.667S0
G1 X-1.405S700
G1 X-1.667S0
G1 X-0.048Y0.05S0
G1 X1.667S0
G1 X1.491S700
G1 X1.666S0
G1 X0.038Y0.05S0
G1 X-1.667S0
G1 X-1.573S700
G1 X-1.666S0
G1 X-0.033Y0.05S0
G1 X1.666S0
G1 X1.644S700
G1 X1.667S0
G1 X0.037Y0.05S0
G1 X-1.666S0
G1 X-0.738S700
G1 X-0.208S0
G1 X-0.768S700
G1 X-1.667S0
G1 X-0.029Y0.05S0
G1 X1.667S0
G1 X0.689S700
G1 X0.432S0
G1 X0.643S700
G1 X1.667S0
G1 X0.016Y0.05S0
G1 X-1.667S0
G1 X-0.606S700
G1 X-0.552S0
G1 X-0.643S700
G1 X-1.667S0
G1 X-0.02Y0.05S0
G1 X1.667S0
G1 X0.613S700
G1 X0.649S0
G1 X0.575S700
G1 X1.667S0
G1 X0.016Y0.05S0
G1 X-1.666S0
G1 X-0.57S700
G1 X-0.71S0
G1 X-0.595S700
G1 X-1.667S0
G1 X-0.009Y0.05S0
G1 X1.666S0
G1 X0.581S700
G1 X0.756S0
G1 X0.564S700
G1 X1.667S0
G1 X-0.06Y0.05S0
G1 X-1.666S0
G1 X-0.487S700
G1 X-0.798S0
G1 X-0.567S700
G1 X-1.666S0
G1 X-0.01Y0.05S0
G1 X1.667S0
G1 X0.562S700
G1 X0.824S0
G1 X0.181S700
G1 X1.667S0
G1 X-1.01Y0.05S0
G1 X-1.667S0
G1 X-0.565S700
G1 X-1.667S0
G1 Y0.05S0
G1 X1.663S0
G1 X0.564S700
G1 X1.667S0
G1 X-0.005Y0.05S0
G1 X-1.667S0
G1 X-0.564S700
G1 X-1.666S0
G1 Y0.05S0
G1 X1.662S0
G1 X0.562S700
G1 X1.667S0
G1 X-0.006Y0.05S0
G1 X-1.667S0
G1 X-0.56S700
G1 X-1.667S0
G1 Y0.05S0
G1 X1.662S0
G1 X0.56S700
G1 X1.666S0
G1 Y0.05S0
G1 X-1.663S0
G1 X-0.557S700
G1 X-1.667S0
G1 X0.007Y0.05S0
G1 X1.666S0
G1 X0.555S700
G1 X1.666S0
G1 Y0.05S0
G1 X-1.662S0
G1 X-0.552S700
G1 X-1.667S0
G1 X0.007Y0.05S0
G1 X1.667S0
G1 X0.554S700
G1 X1.667S0
G1 X0.014Y0.05S0
G1 X-1.667S0
G1 X-0.562S700
G1 X-1.666S0
G1 X0.012Y0.05S0
G1 X1.666S0
G1 X0.564S700
G1 X0.786S0
G1 X0.015S700
G1 X1.667S0
G1 X0.275Y0.05S0
G1 X-1.666S0
G1 X-0.302S700
G1 X-0.757S0
G1 X-0.564S700
G1 X-1.666S0
G1 X0.018Y0.05S0
G1 X1.666S0
G1 X0.571S700
G1 X0.716S0
G1 X0.566S700
G1 X1.666S0
G1 X-0.019Y0.05S0
G1 X-1.667S0
G1 X-0.57S700
G1 X-0.667S0
G1 X-0.577S700
G1 X-1.667S0
G1 X0.018Y0.05S0
G1 X1.667S0
G1 X0.599S700
G1 X0.589S0
G1 X0.589S700
G1 X1.666S0
G1 X-0.019Y0.05S0
G1 X-1.667S0
G1 X-0.621S700
G1 X-0.473S0
G1 X-0.641S700
G1 X-1.667S0
G1 X0.032Y0.05S0
G1 X1.667S0
G1 X0.719S700
G1 X0.255S0
G1 X0.71S700
G1 X1.666S0
G1 X-0.022Y0.05S0
G1 X-1.667S0
G1 X-1.63S700
G1 X-1.666S0
G1 X0.031Y0.05S0
G1 X1.667S0
G1 X1.557S700
G1 X1.666S0
G1 X-0.041Y0.05S0
G1 X-1.667S0
G1 X-1.483S700
G1 X-1.667S0
G1 X0.053Y0.05S0
G1 X1.666S0
G1 X1.39S700
G1 X1.666S0
G1 X-0.046Y0.05S0
G1 X-1.667S0
G1 X-1.278S700
G1 X-1.666S0
G1 X0.065Y0.05S0
G1 X1.667S0
G1 X1.132S700
G1 X1.667S0
G1 X-0.08Y0.05S0
G1 X-1.666S0
G1 X-0.959S700
G1 X-1.667S0
G1 X0.114Y0.05S0
G1 X1.667S0
G1 X0.719S700
G1 X1.667S0
G1 X-0.262Y0.05S0
G1 X-1.666S0
G1 X-0.239S700
G1 X-1.667S0
M9
G1 S0
M5
; return to starting pos
G0 X0.791Y-2.162
M2
