; LightBurn 1.2.01
; GRBL device profile, current position
; Bounds: X-1.67 Y0.01 to X3.6 Y2.16
G00 G17 G40 G21 G54
G91
M4
; Cut @ 5000 mm/min, 0% power
M8
G0 X0Y0.051
; Layer Lim
G1 X1S0F5000
; Scan @ 4000 mm/min, 70% power
M8
G0 X-1.792Y-0.04
; Layer C02
G1 X1.666F4000S0
G1 X0.249S700
G1 X1.666S0
G1 X0.234Y0.05S0
G1 X-1.667S0
G1 X-0.711S700
G1 X-1.666S0
G1 X-0.132Y0.05S0
G1 X1.667S0
G1 X0.96S700
G1 X1.667S0
G1 X0.083Y0.05S0
G1 X-1.667S0
G1 X-1.131S700
G1 X-1.666S0
G1 X-0.081Y0.05S0
G1 X1.666S0
G1 X1.291S700
G1 X1.666S0
G1 X0.046Y0.05S0
G1 X-1.667S0
G1 X-1.38S700
G1 X-1.667S0
G1 X-0.044Y0.05S0
G1 X1.667S0
G1 X1.47S700
G1 X1.666S0
G1 X0.046Y0.05S0
G1 X-1.667S0
G1 X-1.56S700
G1 X-1.666S0
G1 X-0.036Y0.05S0
G1 X1.667S0
G1 X1.631S700
G1 X1.667S0
G1 X0.023Y0.05S0
G1 X-1.666S0
G1 X-0.662S700
G1 X-0.351S0
G1 X-0.669S700
G1 X-1.667S0
G1 X-0.027Y0.05S0
G1 X1.666S0
G1 X0.625S700
G1 X0.494S0
G1 X0.615S700
G1 X1.666S0
G1 X0.024Y0.05S0
G1 X-1.667S0
G1 X-0.589S700
G1 X-0.596S0
G1 X-0.599S700
G1 X-1.666S0
G1 X-0.024Y0.05S0
G1 X1.667S0
G1 X0.582S700
G1 X0.665S0
G1 X0.584S700
G1 X1.667S0
G1 X-0.249Y0.05S0
G1 X-1.667S0
G1 X-0.314S700
G1 X-0.719S0
G1 X-0.563S700
G1 X-1.667S0
G1 X-0.014Y0.05S0
G1 X1.667S0
G1 X0.557S700
G1 X1.667S0
G1 X-0.02Y0.05S0
G1 X-1.666S0
G1 X-0.552S700
G1 X-1.667S0
G1 X-0.014Y0.05S0
G1 X1.667S0
G1 X0.555S700
G1 X1.667S0
G1 Y0.05S0
G1 X-1.67S0
G1 X-0.558S700
G1 X-1.667S0
G1 Y0.05S0
G1 X1.664S0
G1 X0.557S700
G1 X1.666S0
G1 X1.373Y0.05S0
G1 X-1.667S0
G1 X-1.931S700
G1 X-1.667S0
G1 Y0.05S0
G1 X1.665S0
G1 X1.934S700
G1 X1.667S0
G1 Y0.05S0
G1 X-1.667S0
G1 X-1.937S700
G1 X-1.666S0
G1 Y0.05S0
G1 X1.668S0
G1 X1.936S700
G1 X1.666S0
G1 Y0.05S0
G1 X-1.666S0
G1 X-1.933S700
G1 X-1.667S0
G1 Y0.05S0
G1 X1.669S0
G1 X1.925S700
G1 X1.667S0
G1 X-0.009Y0.05S0
G1 X-1.667S0
G1 X-1.913S700
G1 X-1.667S0
G1 Y0.05S0
G1 X1.67S0
G1 X0.558S700
G1 X0.817S0
G1 X0.526S700
G1 X1.667S0
G1 X-0.009Y0.05S0
G1 X-1.666S0
G1 X-0.522S700
G1 X-0.814S0
G1 X-0.549S700
G1 X-1.667S0
G1 X0.015Y0.05S0
G1 X1.667S0
G1 X0.544S700
G1 X0.801S0
G1 X0.516S700
G1 X1.666S0
G1 X-0.016Y0.05S0
G1 X-1.667S0
G1 X-0.517S700
G1 X-0.773S0
G1 X-0.539S700
G1 X-1.666S0
G1 X0.015Y0.05S0
G1 X1.667S0
G1 X0.546S700
G1 X0.727S0
G1 X0.521S700
G1 X1.667S0
G1 X-0.019Y0.05S0
G1 X-1.666S0
G1 X-0.526S700
G1 X-0.677S0
G1 X-0.558S700
G1 X-1.667S0
G1 X0.021Y0.05S0
G1 X1.667S0
G1 X0.577S700
G1 X0.59S0
G1 X0.554S700
G1 X1.667S0
G1 X-0.021Y0.05S0
G1 X-1.667S0
G1 X-0.581S700
G1 X-0.486S0
G1 X-0.603S700
G1 X-1.667S0
G1 X0.03Y0.05S0
G1 X1.667S0
G1 X0.658S700
G1 X0.311S0
G1 X0.641S700
G1 X1.667S0
G1 X-0.03Y0.05S0
G1 X-1.667S0
G1 X-1.551S700
G1 X-1.666S0
G1 X0.029Y0.05S0
G1 X1.667S0
G1 X1.491S700
G1 X1.667S0
G1 X-0.03Y0.05S0
G1 X-1.667S0
G1 X-1.414S700
G1 X-1.666S0
G1 X0.049Y0.05S0
G1 X1.667S0
G1 X1.31S700
G1 X1.666S0
G1 X-0.057Y0.05S0
G1 X-1.666S0
G1 X-1.204S700
G1 X-1.667S0
G1 X0.054Y0.05S0
G1 X1.666S0
G1 X1.079S700
G1 X1.667S0
G1 X-0.083Y0.05S0
G1 X-1.667S0
G1 X-0.904S700
G1 X-1.667S0
G1 X0.115Y0.05S0
G1 X1.666S0
G1 X0.672S700
G1 X1.666S0
G1 X-0.195Y0.05S0
G1 X-1.666S0
G1 X-0.272S700
G1 X-1.667S0
M9
G1 S0
M5
; return to starting pos
G0 X0.835Y-2.161
M2
