; LightBurn 1.2.01
; GRBL device profile, current position
; Bounds: X-1.67 Y0 to X3.07 Y2.88
G00 G17 G40 G21 G54
G91
M4
; Cut @ 4999.998 mm/min, 0% power
M8
G0 X0Y0.002
; Layer Lim
G1 X1S0F5000
; Scan @ 4000.002 mm/min, 70% power
M8
G0 X-2.362Y0.029
; Layer C02
G1 X1.667F4000S0
G1 X0.548S700
G1 X1.667S0
G1 Y0.05S0
G1 X-1.667S0
G1 X-0.548S700
G1 X-1.667S0
G1 Y0.05S0
G1 X1.667S0
G1 X0.548S700
G1 X1.667S0
G1 Y0.05S0
G1 X-1.667S0
G1 X-0.548S700
G1 X-1.667S0
G1 Y0.05S0
G1 X1.667S0
G1 X0.548S700
G1 X1.667S0
G1 Y0.05S0
G1 X-1.667S0
G1 X-0.548S700
G1 X-1.667S0
G1 Y0.05S0
G1 X1.667S0
G1 X0.548S700
G1 X1.667S0
G1 Y0.05S0
G1 X-1.667S0
G1 X-0.548S700
G1 X-1.667S0
G1 Y0.05S0
G1 X1.667S0
G1 X0.548S700
G1 X1.667S0
G1 Y0.05S0
G1 X-1.667S0
G1 X-0.548S700
G1 X-1.667S0
G1 Y0.05S0
G1 X1.667S0
G1 X0.548S700
G1 X1.667S0
G1 Y0.05S0
G1 X-1.667S0
G1 X-0.548S700
G1 X-1.667S0
G1 Y0.05S0
G1 X1.667S0
G1 X0.548S700
G1 X1.667S0
G1 Y0.05S0
G1 X-1.667S0
G1 X-0.548S700
G1 X-1.667S0
G1 Y0.05S0
G1 X1.667S0
G1 X0.548S700
G1 X1.667S0
G1 Y0.05S0
G1 X-1.667S0
G1 X-0.548S700
G1 X-1.667S0
G1 Y0.05S0
G1 X1.667S0
G1 X0.548S700
G1 X1.667S0
G1 Y0.05S0
G1 X-1.667S0
G1 X-0.548S700
G1 X-1.667S0
G1 Y0.05S0
G1 X1.667S0
G1 X0.548S700
G1 X1.667S0
G1 Y0.05S0
G1 X-1.667S0
G1 X-0.548S700
G1 X-1.667S0
G1 Y0.05S0
G1 X1.667S0
G1 X0.548S700
G1 X1.667S0
G1 Y0.05S0
G1 X-1.667S0
G1 X-0.548S700
G1 X-1.667S0
G1 Y0.05S0
G1 X1.667S0
G1 X0.548S700
G1 X1.667S0
G1 Y0.05S0
G1 X-1.667S0
G1 X-0.548S700
G1 X-1.667S0
G1 Y0.05S0
G1 X1.667S0
G1 X0.548S700
G1 X1.667S0
G1 Y0.05S0
G1 X-1.667S0
G1 X-0.548S700
G1 X-1.667S0
G1 Y0.05S0
G1 X1.667S0
G1 X0.548S700
G1 X1.667S0
G1 Y0.05S0
G1 X-1.667S0
G1 X-0.548S700
G1 X-1.667S0
G1 Y0.05S0
G1 X1.667S0
G1 X0.548S700
G1 X1.667S0
G1 Y0.05S0
G1 X-1.667S0
G1 X-0.548S700
G1 X-1.667S0
G1 Y0.05S0
G1 X1.667S0
G1 X0.548S700
G1 X1.667S0
G1 Y0.05S0
G1 X-1.667S0
G1 X-0.548S700
G1 X-1.667S0
G1 Y0.05S0
G1 X1.667S0
G1 X0.548S700
G1 X1.667S0
G1 X0.409Y0.05S0
G1 X-1.666S0
G1 X-1.263S700
G1 X-1.667S0
G1 Y0.05S0
G1 X1.667S0
G1 X1.263S700
G1 X1.666S0
G1 Y0.05S0
G1 X-1.666S0
G1 X-1.263S700
G1 X-1.667S0
G1 Y0.05S0
G1 X1.667S0
G1 X1.263S700
G1 X1.666S0
G1 Y0.05S0
G1 X-1.666S0
G1 X-1.263S700
G1 X-1.667S0
G1 Y0.05S0
G1 X1.667S0
G1 X1.263S700
G1 X1.666S0
G1 Y0.05S0
G1 X-1.666S0
G1 X-1.263S700
G1 X-1.667S0
G1 Y0.05S0
G1 X1.667S0
G1 X1.263S700
G1 X1.666S0
G1 X-0.41Y0.05S0
G1 X-1.666S0
G1 X-0.548S700
G1 X-1.667S0
G1 Y0.05S0
G1 X1.667S0
G1 X0.546S700
G1 X1.666S0
G1 Y0.05S0
G1 X-1.668S0
G1 X-0.544S700
G1 X-1.667S0
G1 Y0.05S0
G1 X1.667S0
G1 X0.541S700
G1 X1.667S0
G1 X0.007Y0.05S0
G1 X-1.667S0
G1 X-0.547S700
G1 X-1.666S0
G1 Y0.05S0
G1 X1.668S0
G1 X0.562S700
G1 X1.667S0
G1 X0.017Y0.05S0
G1 X-1.667S0
G1 X-0.576S700
G1 X-1.667S0
G1 Y0.05S0
G1 X1.67S0
G1 X0.59S700
G1 X1.667S0
G1 X0.428Y0.05S0
G1 X-1.667S0
G1 X-0.092S700
G1 X-0.19S0
G1 X-0.732S700
G1 X-1.666S0
G1 X0.009Y0.05S0
G1 X1.666S0
G1 X1.015S700
G1 X1.666S0
G1 X0.01Y0.05S0
G1 X-1.667S0
G1 X-1.002S700
G1 X-1.666S0
G1 X0.022Y0.05S0
G1 X1.667S0
G1 X0.989S700
G1 X1.667S0
G1 X0.009Y0.05S0
G1 X-1.666S0
G1 X-0.97S700
G1 X-1.667S0
G1 X0.046Y0.05S0
G1 X1.667S0
G1 X0.933S700
G1 X1.667S0
G1 X0.01Y0.05S0
G1 X-1.667S0
G1 X-0.897S700
G1 X-1.666S0
G1 X0.089Y0.05S0
G1 X1.667S0
G1 X0.817S700
G1 X1.666S0
G1 X-0.148Y0.05S0
G1 X-1.666S0
G1 X-0.525S700
G1 X-1.667S0
M9
G1 S0
M5
; return to starting pos
G0 X0.94Y-2.881
M2
