; LightBurn 1.2.01
; GRBL device profile, current position
; Bounds: X-1.67 Y0 to X3.56 Y2.86
G00 G17 G40 G21 G54
G91
M4
; Cut @ 5000 mm/min, 0% power
M8
G0 X0Y0
; Layer Lim
G1 X1S0F5000
; Scan @ 4000 mm/min, 70% power
M8
G0 X-2.667Y0.006
; Layer C02
G1 X1.667F4000S0
G1 X0.548S700
G1 X0.791S0
G1 X0.548S700
G1 X1.667S0
G1 Y0.05S0
G1 X-1.666S0
G1 X-0.549S700
G1 X-0.791S0
G1 X-0.548S700
G1 X-1.667S0
G1 Y0.05S0
G1 X1.667S0
G1 X0.548S700
G1 X0.791S0
G1 X0.549S700
G1 X1.667S0
G1 Y0.05S0
G1 X-1.667S0
G1 X-0.549S700
G1 X-0.791S0
G1 X-0.548S700
G1 X-1.667S0
G1 Y0.05S0
G1 X1.667S0
G1 X0.548S700
G1 X0.791S0
G1 X0.549S700
G1 X1.667S0
G1 Y0.05S0
G1 X-1.666S0
G1 X-0.55S700
G1 X-0.791S0
G1 X-0.548S700
G1 X-1.667S0
G1 Y0.05S0
G1 X1.667S0
G1 X0.548S700
G1 X0.791S0
G1 X0.55S700
G1 X1.667S0
G1 Y0.05S0
G1 X-1.667S0
G1 X-0.55S700
G1 X-0.791S0
G1 X-0.548S700
G1 X-1.667S0
G1 Y0.05S0
G1 X1.667S0
G1 X0.548S700
G1 X0.791S0
G1 X0.55S700
G1 X1.667S0
G1 Y0.05S0
G1 X-1.666S0
G1 X-0.551S700
G1 X-0.791S0
G1 X-0.548S700
G1 X-1.667S0
G1 Y0.05S0
G1 X1.667S0
G1 X0.548S700
G1 X0.791S0
G1 X0.551S700
G1 X1.667S0
G1 Y0.05S0
G1 X-1.667S0
G1 X-0.551S700
G1 X-0.791S0
G1 X-0.548S700
G1 X-1.667S0
G1 Y0.05S0
G1 X1.667S0
G1 X0.548S700
G1 X0.791S0
G1 X0.551S700
G1 X1.667S0
G1 Y0.05S0
G1 X-1.666S0
G1 X-0.552S700
G1 X-0.791S0
G1 X-0.548S700
G1 X-1.667S0
G1 Y0.05S0
G1 X1.667S0
G1 X0.548S700
G1 X0.791S0
G1 X0.552S700
G1 X1.666S0
G1 Y0.05S0
G1 X-1.667S0
G1 X-0.551S700
G1 X-0.791S0
G1 X-0.548S700
G1 X-1.667S0
G1 Y0.05S0
G1 X1.667S0
G1 X0.548S700
G1 X0.791S0
G1 X0.551S700
G1 X1.666S0
G1 Y0.05S0
G1 X-1.667S0
G1 X-0.55S700
G1 X-0.791S0
G1 X-0.548S700
G1 X-1.667S0
G1 Y0.05S0
G1 X1.667S0
G1 X0.548S700
G1 X0.791S0
G1 X0.55S700
G1 X1.667S0
G1 Y0.05S0
G1 X-1.667S0
G1 X-0.55S700
G1 X-0.791S0
G1 X-0.548S700
G1 X-1.667S0
G1 Y0.05S0
G1 X1.667S0
G1 X0.548S700
G1 X0.791S0
G1 X0.549S700
G1 X1.667S0
G1 Y0.05S0
G1 X-1.667S0
G1 X-0.549S700
G1 X-0.79S0
G1 X-0.549S700
G1 X-1.667S0
G1 Y0.05S0
G1 X1.667S0
G1 X0.55S700
G1 X0.789S0
G1 X0.548S700
G1 X1.667S0
G1 Y0.05S0
G1 X-1.667S0
G1 X-0.549S700
G1 X-0.787S0
G1 X-0.551S700
G1 X-1.667S0
G1 Y0.05S0
G1 X1.667S0
G1 X0.554S700
G1 X0.784S0
G1 X0.549S700
G1 X1.666S0
G1 Y0.05S0
G1 X-1.667S0
G1 X-0.549S700
G1 X-0.78S0
G1 X-0.557S700
G1 X-1.667S0
G1 Y0.05S0
G1 X1.667S0
G1 X0.559S700
G1 X0.777S0
G1 X0.55S700
G1 X1.667S0
G1 Y0.05S0
G1 X-1.668S0
G1 X-0.556S700
G1 X-0.757S0
G1 X-0.572S700
G1 X-1.667S0
G1 Y0.05S0
G1 X1.667S0
G1 X0.593S700
G1 X0.729S0
G1 X0.563S700
G1 X1.666S0
G1 Y0.05S0
G1 X-1.667S0
G1 X-0.569S700
G1 X-0.702S0
G1 X-0.613S700
G1 X-1.667S0
G1 Y0.05S0
G1 X1.667S0
G1 X0.646S700
G1 X0.662S0
G1 X0.575S700
G1 X1.667S0
G1 Y0.05S0
G1 X-1.668S0
G1 X-0.607S700
G1 X-0.586S0
G1 X-0.689S700
G1 X-1.667S0
G1 Y0.05S0
G1 X1.667S0
G1 X0.737S700
G1 X0.503S0
G1 X0.627S700
G1 X1.666S0
G1 X-0.017Y0.05S0
G1 X-1.666S0
G1 X-0.679S700
G1 X-0.348S0
G1 X-0.823S700
G1 X-1.667S0
G1 Y0.05S0
G1 X1.667S0
G1 X0.98S700
G1 X0.037S0
G1 X0.816S700
G1 X1.667S0
G1 X-0.017Y0.05S0
G1 X-1.667S0
G1 X-1.816S700
G1 X-1.667S0
G1 Y0.05S0
G1 X1.667S0
G1 X1.78S700
G1 X1.667S0
G1 X-0.036Y0.05S0
G1 X-1.667S0
G1 X-1.145S700
G1 X-0.051S0
G1 X-0.548S700
G1 X-1.667S0
G1 Y0.05S0
G1 X1.667S0
G1 X0.548S700
G1 X0.107S0
G1 X1.053S700
G1 X1.666S0
G1 X-0.056Y0.05S0
G1 X-1.667S0
G1 X-0.941S700
G1 X-0.162S0
G1 X-0.548S700
G1 X-1.667S0
G1 Y0.05S0
G1 X1.667S0
G1 X0.548S700
G1 X0.233S0
G1 X0.803S700
G1 X1.667S0
G1 X-0.083Y0.05S0
G1 X-1.667S0
G1 X-0.604S700
G1 X-0.349S0
G1 X-0.548S700
G1 X-1.667S0
G1 Y0.05S0
G1 X1.667S0
G1 X0.548S700
G1 X0.552S0
G1 X0.209S700
G1 X1.666S0
G1 X-0.76Y0.05S0
G1 X-1.667S0
G1 X-0.548S700
G1 X-1.667S0
G1 Y0.05S0
G1 X1.667S0
G1 X0.548S700
G1 X1.667S0
G1 Y0.05S0
G1 X-1.667S0
G1 X-0.548S700
G1 X-1.667S0
G1 Y0.05S0
G1 X1.667S0
G1 X0.548S700
G1 X1.667S0
G1 Y0.05S0
G1 X-1.667S0
G1 X-0.548S700
G1 X-1.667S0
G1 Y0.05S0
G1 X1.667S0
G1 X0.548S700
G1 X1.667S0
G1 Y0.05S0
G1 X-1.667S0
G1 X-0.548S700
G1 X-1.667S0
G1 Y0.05S0
G1 X1.667S0
G1 X0.548S700
G1 X1.667S0
G1 Y0.05S0
G1 X-1.667S0
G1 X-0.548S700
G1 X-1.667S0
G1 Y0.05S0
G1 X1.667S0
G1 X0.548S700
G1 X1.667S0
G1 Y0.05S0
G1 X-1.667S0
G1 X-0.548S700
G1 X-1.667S0
G1 Y0.05S0
G1 X1.667S0
G1 X0.548S700
G1 X1.667S0
G1 Y0.05S0
G1 X-1.667S0
G1 X-0.548S700
G1 X-1.667S0
G1 Y0.05S0
G1 X1.667S0
G1 X0.548S700
G1 X1.667S0
G1 Y0.05S0
G1 X-1.667S0
G1 X-0.548S700
G1 X-1.667S0
M9
G1 S0
M5
; return to starting pos
G0 X1.667Y-2.856
M2
