; LightBurn 1.2.01
; GRBL device profile, current position
; Bounds: X-1.67 Y0 to X3.58 Y2.86
G00 G17 G40 G21 G54
G91
M4
; Cut @ 5000 mm/min, 0% power
M8
G0 X0Y0
; Layer Lim
G1 X1S0F5000
; Scan @ 4000 mm/min, 70% power
M8
G0 X-2.667Y0.006
; Layer C02
G1 X1.667F4000S0
G1 X0.548S700
G1 X0.774S0
G1 X0.592S700
G1 X1.666S0
G1 X-0.029Y0.05S0
G1 X-1.666S0
G1 X-0.591S700
G1 X-0.746S0
G1 X-0.548S700
G1 X-1.667S0
G1 Y0.05S0
G1 X1.667S0
G1 X0.548S700
G1 X0.718S0
G1 X0.59S700
G1 X1.666S0
G1 X-0.028Y0.05S0
G1 X-1.667S0
G1 X-0.589S700
G1 X-0.69S0
G1 X-0.548S700
G1 X-1.667S0
G1 Y0.05S0
G1 X1.667S0
G1 X0.548S700
G1 X0.662S0
G1 X0.588S700
G1 X1.667S0
G1 X-0.029Y0.05S0
G1 X-1.667S0
G1 X-0.587S700
G1 X-0.634S0
G1 X-0.548S700
G1 X-1.667S0
G1 Y0.05S0
G1 X1.667S0
G1 X0.548S700
G1 X0.606S0
G1 X0.586S700
G1 X1.667S0
G1 X-0.029Y0.05S0
G1 X-1.667S0
G1 X-0.585S700
G1 X-0.578S0
G1 X-0.548S700
G1 X-1.667S0
G1 Y0.05S0
G1 X1.667S0
G1 X0.548S700
G1 X0.55S0
G1 X0.585S700
G1 X1.666S0
G1 X-0.029Y0.05S0
G1 X-1.666S0
G1 X-0.584S700
G1 X-0.522S0
G1 X-0.548S700
G1 X-1.667S0
G1 Y0.05S0
G1 X1.667S0
G1 X0.548S700
G1 X0.494S0
G1 X0.583S700
G1 X1.666S0
G1 X-0.028Y0.05S0
G1 X-1.667S0
G1 X-0.581S700
G1 X-0.467S0
G1 X-0.548S700
G1 X-1.667S0
G1 Y0.05S0
G1 X1.667S0
G1 X0.548S700
G1 X0.439S0
G1 X0.58S700
G1 X1.667S0
G1 X-0.029Y0.05S0
G1 X-1.667S0
G1 X-0.579S700
G1 X-0.411S0
G1 X-0.548S700
G1 X-1.667S0
G1 Y0.05S0
G1 X1.667S0
G1 X0.588S700
G1 X0.343S0
G1 X0.578S700
G1 X1.667S0
G1 X-0.029Y0.05S0
G1 X-1.667S0
G1 X-0.577S700
G1 X-0.267S0
G1 X-0.636S700
G1 X-1.667S0
G1 Y0.05S0
G1 X1.667S0
G1 X0.684S700
G1 X0.191S0
G1 X0.577S700
G1 X1.666S0
G1 X-0.029Y0.05S0
G1 X-1.666S0
G1 X-0.576S700
G1 X-0.115S0
G1 X-0.732S700
G1 X-1.667S0
G1 Y0.05S0
G1 X1.667S0
G1 X0.78S700
G1 X0.039S0
G1 X0.575S700
G1 X1.666S0
G1 X-0.028Y0.05S0
G1 X-1.667S0
G1 X-1.365S700
G1 X-1.667S0
G1 Y0.05S0
G1 X1.667S0
G1 X1.336S700
G1 X1.667S0
G1 X-0.029Y0.05S0
G1 X-1.667S0
G1 X-1.307S700
G1 X-1.667S0
G1 Y0.05S0
G1 X1.667S0
G1 X1.278S700
G1 X1.667S0
G1 X-0.029Y0.05S0
G1 X-1.667S0
G1 X-1.249S700
G1 X-1.667S0
G1 Y0.05S0
G1 X1.667S0
G1 X1.221S700
G1 X1.666S0
G1 X-0.029Y0.05S0
G1 X-1.666S0
G1 X-1.192S700
G1 X-1.667S0
G1 Y0.05S0
G1 X1.667S0
G1 X1.163S700
G1 X1.666S0
G1 X0.033Y0.05S0
G1 X-1.667S0
G1 X-0.635S700
G1 X-0.012S0
G1 X-0.548S700
G1 X-1.667S0
G1 Y0.05S0
G1 X1.667S0
G1 X0.548S700
G1 X0.056S0
G1 X0.638S700
G1 X1.666S0
G1 X0.047Y0.05S0
G1 X-1.666S0
G1 X-0.641S700
G1 X-0.1S0
G1 X-0.548S700
G1 X-1.667S0
G1 Y0.05S0
G1 X1.667S0
G1 X0.548S700
G1 X0.143S0
G1 X0.644S700
G1 X1.667S0
G1 X0.047Y0.05S0
G1 X-1.667S0
G1 X-0.647S700
G1 X-0.187S0
G1 X-0.548S700
G1 X-1.667S0
G1 Y0.05S0
G1 X1.667S0
G1 X0.548S700
G1 X0.231S0
G1 X0.65S700
G1 X1.667S0
G1 X0.046Y0.05S0
G1 X-1.666S0
G1 X-0.653S700
G1 X-0.275S0
G1 X-0.548S700
G1 X-1.667S0
G1 Y0.05S0
G1 X1.667S0
G1 X0.548S700
G1 X0.319S0
G1 X0.655S700
G1 X1.667S0
G1 X0.047Y0.05S0
G1 X-1.667S0
G1 X-0.658S700
G1 X-0.363S0
G1 X-0.548S700
G1 X-1.667S0
G1 Y0.05S0
G1 X1.667S0
G1 X0.548S700
G1 X0.407S0
G1 X0.661S700
G1 X1.667S0
G1 X0.046Y0.05S0
G1 X-1.666S0
G1 X-0.664S700
G1 X-0.451S0
G1 X-0.548S700
G1 X-1.667S0
G1 Y0.05S0
G1 X1.667S0
G1 X0.548S700
G1 X0.495S0
G1 X0.667S700
G1 X1.666S0
G1 X0.047Y0.05S0
G1 X-1.667S0
G1 X-0.669S700
G1 X-0.539S0
G1 X-0.548S700
G1 X-1.667S0
G1 Y0.05S0
G1 X1.667S0
G1 X0.548S700
G1 X0.583S0
G1 X0.672S700
G1 X1.667S0
G1 X0.047Y0.05S0
G1 X-1.667S0
G1 X-0.675S700
G1 X-0.627S0
G1 X-0.548S700
G1 X-1.667S0
G1 Y0.05S0
G1 X1.667S0
G1 X0.548S700
G1 X1.667S0
G1 Y0.05S0
G1 X-1.667S0
G1 X-0.548S700
G1 X-1.667S0
G1 Y0.05S0
G1 X1.667S0
G1 X0.548S700
G1 X1.667S0
G1 Y0.05S0
G1 X-1.667S0
G1 X-0.548S700
G1 X-1.667S0
G1 Y0.05S0
G1 X1.667S0
G1 X0.548S700
G1 X1.667S0
G1 Y0.05S0
G1 X-1.667S0
G1 X-0.548S700
G1 X-1.667S0
G1 Y0.05S0
G1 X1.667S0
G1 X0.548S700
G1 X1.667S0
G1 Y0.05S0
G1 X-1.667S0
G1 X-0.548S700
G1 X-1.667S0
G1 Y0.05S0
G1 X1.667S0
G1 X0.548S700
G1 X1.667S0
G1 Y0.05S0
G1 X-1.667S0
G1 X-0.548S700
G1 X-1.667S0
G1 Y0.05S0
G1 X1.667S0
G1 X0.548S700
G1 X1.667S0
G1 Y0.05S0
G1 X-1.667S0
G1 X-0.548S700
G1 X-1.667S0
G1 Y0.05S0
G1 X1.667S0
G1 X0.548S700
G1 X1.667S0
G1 Y0.05S0
G1 X-1.667S0
G1 X-0.548S700
G1 X-1.667S0
G1 Y0.05S0
G1 X1.667S0
G1 X0.548S700
G1 X1.667S0
G1 Y0.05S0
G1 X-1.667S0
G1 X-0.548S700
G1 X-1.667S0
M9
G1 S0
M5
; return to starting pos
G0 X1.667Y-2.856
M2
