; LightBurn 1.2.01
; GRBL device profile, current position
; Bounds: X-1.67 Y0 to X4.72 Y2.08
G00 G17 G40 G21 G54
G91
M4
; Cut @ 5000 mm/min, 0% power
M8
G0 X0Y0
; Layer Lim
G1 X1S0F5000
; Scan @ 4000 mm/min, 70% power
M8
G0 X-2.667Y0.034
; Layer C02
G1 X1.667F4000S0
G1 X0.548S700
G1 X0.705S0
G1 X0.548S700
G1 X0.699S0
G1 X0.549S700
G1 X1.666S0
G1 Y0.05S0
G1 X-1.666S0
G1 X-0.548S700
G1 X-0.7S0
G1 X-0.548S700
G1 X-0.705S0
G1 X-0.548S700
G1 X-1.667S0
G1 Y0.05S0
G1 X1.667S0
G1 X0.548S700
G1 X0.706S0
G1 X0.547S700
G1 X0.7S0
G1 X0.549S700
G1 X1.666S0
G1 Y0.05S0
G1 X-1.666S0
G1 X-0.548S700
G1 X-0.701S0
G1 X-0.547S700
G1 X-0.706S0
G1 X-0.548S700
G1 X-1.667S0
G1 Y0.05S0
G1 X1.667S0
G1 X0.548S700
G1 X0.706S0
G1 X0.547S700
G1 X0.701S0
G1 X0.549S700
G1 X1.666S0
G1 Y0.05S0
G1 X-1.666S0
G1 X-0.548S700
G1 X-0.702S0
G1 X-0.546S700
G1 X-0.707S0
G1 X-0.548S700
G1 X-1.667S0
G1 Y0.05S0
G1 X1.667S0
G1 X0.548S700
G1 X0.707S0
G1 X0.546S700
G1 X0.702S0
G1 X0.549S700
G1 X1.666S0
G1 Y0.05S0
G1 X-1.666S0
G1 X-0.548S700
G1 X-0.703S0
G1 X-0.546S700
G1 X-0.707S0
G1 X-0.548S700
G1 X-1.667S0
G1 Y0.05S0
G1 X1.667S0
G1 X0.548S700
G1 X0.707S0
G1 X0.546S700
G1 X0.703S0
G1 X0.549S700
G1 X1.666S0
G1 Y0.05S0
G1 X-1.666S0
G1 X-0.548S700
G1 X-0.704S0
G1 X-0.545S700
G1 X-0.708S0
G1 X-0.548S700
G1 X-1.667S0
G1 Y0.05S0
G1 X1.667S0
G1 X0.548S700
G1 X0.708S0
G1 X0.545S700
G1 X0.704S0
G1 X0.549S700
G1 X1.666S0
G1 Y0.05S0
G1 X-1.666S0
G1 X-0.548S700
G1 X-0.705S0
G1 X-0.545S700
G1 X-0.708S0
G1 X-0.548S700
G1 X-1.667S0
G1 Y0.05S0
G1 X1.667S0
G1 X0.548S700
G1 X0.708S0
G1 X0.545S700
G1 X0.705S0
G1 X0.549S700
G1 X1.666S0
G1 Y0.05S0
G1 X-1.666S0
G1 X-0.549S700
G1 X-0.705S0
G1 X-0.545S700
G1 X-0.708S0
G1 X-0.548S700
G1 X-1.667S0
G1 Y0.05S0
G1 X1.667S0
G1 X0.548S700
G1 X0.708S0
G1 X0.545S700
G1 X0.704S0
G1 X0.551S700
G1 X1.666S0
G1 Y0.05S0
G1 X-1.667S0
G1 X-0.55S700
G1 X-0.704S0
G1 X-0.546S700
G1 X-0.707S0
G1 X-0.548S700
G1 X-1.667S0
G1 Y0.05S0
G1 X1.667S0
G1 X0.548S700
G1 X0.707S0
G1 X0.546S700
G1 X0.703S0
G1 X0.55S700
G1 X1.667S0
G1 Y0.05S0
G1 X-1.668S0
G1 X-0.55S700
G1 X-0.702S0
G1 X-0.547S700
G1 X-0.706S0
G1 X-0.548S700
G1 X-1.667S0
G1 Y0.05S0
G1 X1.667S0
G1 X0.548S700
G1 X0.706S0
G1 X0.547S700
G1 X0.701S0
G1 X0.551S700
G1 X1.666S0
G1 Y0.05S0
G1 X-1.667S0
G1 X-0.55S700
G1 X-0.701S0
G1 X-0.548S700
G1 X-0.705S0
G1 X-0.548S700
G1 X-1.667S0
G1 Y0.05S0
G1 X1.667S0
G1 X0.549S700
G1 X0.704S0
G1 X0.547S700
G1 X0.701S0
G1 X0.55S700
G1 X1.667S0
G1 Y0.05S0
G1 X-1.668S0
G1 X-0.55S700
G1 X-0.702S0
G1 X-0.545S700
G1 X-0.704S0
G1 X-0.549S700
G1 X-1.667S0
G1 Y0.05S0
G1 X1.667S0
G1 X0.55S700
G1 X0.702S0
G1 X0.544S700
G1 X0.703S0
G1 X0.551S700
G1 X1.666S0
G1 Y0.05S0
G1 X-1.667S0
G1 X-0.55S700
G1 X-0.698S0
G1 X-0.549S700
G1 X-0.701S0
G1 X-0.551S700
G1 X-1.667S0
G1 Y0.05S0
G1 X1.667S0
G1 X0.551S700
G1 X0.7S0
G1 X0.556S700
G1 X0.691S0
G1 X0.55S700
G1 X1.667S0
G1 Y0.05S0
G1 X-1.667S0
G1 X-0.551S700
G1 X-0.683S0
G1 X-0.563S700
G1 X-0.699S0
G1 X-0.552S700
G1 X-1.667S0
G1 Y0.05S0
G1 X1.667S0
G1 X0.565S700
G1 X0.688S0
G1 X0.574S700
G1 X0.67S0
G1 X0.55S700
G1 X1.666S0
G1 Y0.05S0
G1 X-1.667S0
G1 X-0.549S700
G1 X-0.656S0
G1 X-0.588S700
G1 X-0.675S0
G1 X-0.578S700
G1 X-1.667S0
G1 Y0.05S0
G1 X1.667S0
G1 X0.596S700
G1 X0.647S0
G1 X0.615S700
G1 X0.637S0
G1 X0.55S700
G1 X1.667S0
G1 Y0.05S0
G1 X-1.668S0
G1 X-0.563S700
G1 X-0.602S0
G1 X-0.647S700
G1 X-0.609S0
G1 X-0.623S700
G1 X-1.667S0
G1 Y0.05S0
G1 X1.667S0
G1 X0.651S700
G1 X0.56S0
G1 X0.69S700
G1 X0.561S0
G1 X0.581S700
G1 X1.666S0
G1 Y0.05S0
G1 X-1.668S0
G1 X-0.61S700
G1 X-0.485S0
G1 X-0.76S700
G1 X-0.491S0
G1 X-0.695S700
G1 X-1.667S0
G1 Y0.05S0
G1 X1.667S0
G1 X0.743S700
G1 X0.406S0
G1 X0.848S700
G1 X0.389S0
G1 X0.643S700
G1 X1.667S0
G1 X-0.012Y0.05S0
G1 X-1.666S0
G1 X-0.729S700
G1 X-0.188S0
G1 X-1.044S700
G1 X-0.202S0
G1 X-0.855S700
G1 X-1.667S0
G1 Y0.05S0
G1 X1.667S0
G1 X2.999S700
G1 X1.666S0
G1 X-0.022Y0.05S0
G1 X-1.667S0
G1 X-2.976S700
G1 X-1.667S0
G1 Y0.05S0
G1 X1.667S0
G1 X0.505S700
G1 X0.043S0
G1 X1.16S700
G1 X0.071S0
G1 X1.168S700
G1 X1.667S0
G1 X-0.036Y0.05S0
G1 X-1.666S0
G1 X-1.085S700
G1 X-0.16S0
G1 X-1.07S700
G1 X-0.092S0
G1 X-0.505S700
G1 X-1.667S0
G1 Y0.05S0
G1 X1.667S0
G1 X0.505S700
G1 X0.144S0
G1 X0.961S700
G1 X0.265S0
G1 X0.991S700
G1 X1.667S0
G1 X-0.053Y0.05S0
G1 X-1.667S0
G1 X-0.862S700
G1 X-0.399S0
G1 X-0.829S700
G1 X-0.218S0
G1 X-0.505S700
G1 X-1.667S0
G1 Y0.05S0
G1 X1.667S0
G1 X0.505S700
G1 X0.293S0
G1 X0.689S700
G1 X0.547S0
G1 X0.701S700
G1 X1.667S0
G1 X-0.114Y0.05S0
G1 X-1.666S0
G1 X-0.448S700
G1 X-0.819S0
G1 X-0.417S700
G1 X-1.667S0
M9
G1 S0
M5
; return to starting pos
G0 X0.729Y-2.084
M2
