; LightBurn 1.2.01
; GRBL device profile, current position
; Bounds: X-1.67 Y0 to X3.57 Y2.08
G00 G17 G40 G21 G54
G91
M4
; Cut @ 5000 mm/min, 0% power
M8
G0 X0Y0
; Layer Lim
G1 X1S0F5000
; Scan @ 4000 mm/min, 70% power
M8
G0 X-2.667Y0.034
; Layer C02
G1 X1.667F4000S0
G1 X0.548S700
G1 X0.793S0
G1 X0.549S700
G1 X1.666S0
G1 Y0.05S0
G1 X-1.666S0
G1 X-0.549S700
G1 X-0.793S0
G1 X-0.548S700
G1 X-1.667S0
G1 Y0.05S0
G1 X1.667S0
G1 X0.548S700
G1 X0.793S0
G1 X0.55S700
G1 X1.667S0
G1 Y0.05S0
G1 X-1.666S0
G1 X-0.551S700
G1 X-0.793S0
G1 X-0.548S700
G1 X-1.667S0
G1 Y0.05S0
G1 X1.667S0
G1 X0.548S700
G1 X0.793S0
G1 X0.551S700
G1 X1.667S0
G1 Y0.05S0
G1 X-1.666S0
G1 X-0.552S700
G1 X-0.793S0
G1 X-0.548S700
G1 X-1.667S0
G1 Y0.05S0
G1 X1.667S0
G1 X0.548S700
G1 X0.793S0
G1 X0.552S700
G1 X1.667S0
G1 Y0.05S0
G1 X-1.666S0
G1 X-0.553S700
G1 X-0.793S0
G1 X-0.548S700
G1 X-1.667S0
G1 Y0.05S0
G1 X1.667S0
G1 X0.548S700
G1 X0.793S0
G1 X0.554S700
G1 X1.666S0
G1 Y0.05S0
G1 X-1.666S0
G1 X-0.554S700
G1 X-0.793S0
G1 X-0.548S700
G1 X-1.667S0
G1 Y0.05S0
G1 X1.667S0
G1 X0.548S700
G1 X0.793S0
G1 X0.555S700
G1 X1.667S0
G1 Y0.05S0
G1 X-1.666S0
G1 X-0.556S700
G1 X-0.793S0
G1 X-0.548S700
G1 X-1.667S0
G1 Y0.05S0
G1 X1.667S0
G1 X0.548S700
G1 X0.793S0
G1 X0.556S700
G1 X1.667S0
G1 Y0.05S0
G1 X-1.666S0
G1 X-0.557S700
G1 X-0.793S0
G1 X-0.548S700
G1 X-1.667S0
G1 Y0.05S0
G1 X1.667S0
G1 X0.548S700
G1 X0.793S0
G1 X0.558S700
G1 X1.666S0
G1 Y0.05S0
G1 X-1.667S0
G1 X-0.557S700
G1 X-0.793S0
G1 X-0.548S700
G1 X-1.667S0
G1 Y0.05S0
G1 X1.667S0
G1 X0.548S700
G1 X0.793S0
G1 X0.556S700
G1 X1.667S0
G1 Y0.05S0
G1 X-1.668S0
G1 X-0.555S700
G1 X-0.793S0
G1 X-0.548S700
G1 X-1.667S0
G1 Y0.05S0
G1 X1.667S0
G1 X0.548S700
G1 X0.793S0
G1 X0.554S700
G1 X1.666S0
G1 Y0.05S0
G1 X-1.668S0
G1 X-0.552S700
G1 X-0.792S0
G1 X-0.549S700
G1 X-1.667S0
G1 Y0.05S0
G1 X1.667S0
G1 X0.55S700
G1 X0.791S0
G1 X0.551S700
G1 X1.667S0
G1 Y0.05S0
G1 X-1.668S0
G1 X-0.551S700
G1 X-0.789S0
G1 X-0.551S700
G1 X-1.667S0
G1 Y0.05S0
G1 X1.667S0
G1 X0.55S700
G1 X0.789S0
G1 X0.551S700
G1 X1.667S0
G1 Y0.05S0
G1 X-1.668S0
G1 X-0.551S700
G1 X-0.789S0
G1 X-0.549S700
G1 X-1.667S0
G1 Y0.05S0
G1 X1.667S0
G1 X0.548S700
G1 X0.789S0
G1 X0.551S700
G1 X1.666S0
G1 Y0.05S0
G1 X-1.667S0
G1 X-0.551S700
G1 X-0.779S0
G1 X-0.557S700
G1 X-1.667S0
G1 Y0.05S0
G1 X1.667S0
G1 X0.569S700
G1 X0.764S0
G1 X0.552S700
G1 X1.667S0
G1 Y0.05S0
G1 X-1.668S0
G1 X-0.566S700
G1 X-0.737S0
G1 X-0.581S700
G1 X-1.667S0
G1 Y0.05S0
G1 X1.667S0
G1 X0.606S700
G1 X0.697S0
G1 X0.58S700
G1 X1.667S0
G1 Y0.05S0
G1 X-1.668S0
G1 X-0.594S700
G1 X-0.656S0
G1 X-0.632S700
G1 X-1.667S0
G1 Y0.05S0
G1 X1.667S0
G1 X0.666S700
G1 X0.607S0
G1 X0.603S700
G1 X1.667S0
G1 X-0.009Y0.05S0
G1 X-1.666S0
G1 X-0.614S700
G1 X-0.543S0
G1 X-0.711S700
G1 X-1.667S0
G1 Y0.05S0
G1 X1.667S0
G1 X0.768S700
G1 X0.421S0
G1 X0.67S700
G1 X1.667S0
G1 X-0.008Y0.05S0
G1 X-1.667S0
G1 X-0.765S700
G1 X-0.224S0
G1 X-0.862S700
G1 X-1.667S0
G1 Y0.05S0
G1 X1.667S0
G1 X1.835S700
G1 X1.667S0
G1 X-0.029Y0.05S0
G1 X-1.667S0
G1 X-1.281S700
G1 X-0.015S0
G1 X-0.51S700
G1 X-1.667S0
G1 Y0.05S0
G1 X1.667S0
G1 X0.51S700
G1 X0.063S0
G1 X1.204S700
G1 X1.667S0
G1 X-0.03Y0.05S0
G1 X-1.666S0
G1 X-1.127S700
G1 X-0.111S0
G1 X-0.51S700
G1 X-1.667S0
G1 Y0.05S0
G1 X1.667S0
G1 X0.51S700
G1 X0.159S0
G1 X1.028S700
G1 X1.666S0
G1 X-0.061Y0.05S0
G1 X-1.667S0
G1 X-0.887S700
G1 X-0.238S0
G1 X-0.51S700
G1 X-1.667S0
G1 Y0.05S0
G1 X1.667S0
G1 X0.51S700
G1 X0.326S0
G1 X0.738S700
G1 X1.667S0
G1 X-0.15Y0.05S0
G1 X-1.667S0
G1 X-0.448S700
G1 X-1.666S0
M9
G1 S0
M5
; return to starting pos
G0 X0.69Y-2.084
M2
