; LightBurn 1.2.01
; GRBL device profile, current position
; Bounds: X-1.67 Y0.03 to X3.68 Y2.88
G00 G17 G40 G21 G54
G91
M4
; Cut @ 5000 mm/min, 0% power
M8
G0 X0Y0.789
; Layer Lim
G1 X1S0F5000
; Scan @ 4000 mm/min, 70% power
M8
G0 X-1.203Y-0.758
; Layer C02
G1 X1.667F4000S0
G1 X0.548S700
G1 X1.667S0
G1 Y0.05S0
G1 X-1.667S0
G1 X-0.548S700
G1 X-1.667S0
G1 Y0.05S0
G1 X1.667S0
G1 X0.548S700
G1 X1.667S0
G1 Y0.05S0
G1 X-1.667S0
G1 X-0.548S700
G1 X-1.667S0
G1 Y0.05S0
G1 X1.667S0
G1 X0.548S700
G1 X1.667S0
G1 Y0.05S0
G1 X-1.667S0
G1 X-0.548S700
G1 X-1.667S0
G1 Y0.05S0
G1 X1.667S0
G1 X0.548S700
G1 X1.667S0
G1 Y0.05S0
G1 X-1.667S0
G1 X-0.548S700
G1 X-1.667S0
G1 Y0.05S0
G1 X1.667S0
G1 X0.548S700
G1 X1.667S0
G1 Y0.05S0
G1 X-1.667S0
G1 X-0.548S700
G1 X-1.667S0
G1 Y0.05S0
G1 X1.667S0
G1 X0.548S700
G1 X1.667S0
G1 Y0.05S0
G1 X-1.667S0
G1 X-0.548S700
G1 X-1.667S0
G1 Y0.05S0
G1 X1.667S0
G1 X0.548S700
G1 X1.667S0
G1 Y0.05S0
G1 X-1.667S0
G1 X-0.548S700
G1 X-1.667S0
G1 Y0.05S0
G1 X1.667S0
G1 X0.548S700
G1 X1.667S0
G1 Y0.05S0
G1 X-1.667S0
G1 X-0.548S700
G1 X-0.387S0
G1 X-0.466S700
G1 X-1.667S0
G1 X-0.099Y0.05S0
G1 X1.666S0
G1 X0.681S700
G1 X0.272S0
G1 X0.548S700
G1 X1.667S0
G1 Y0.05S0
G1 X-1.667S0
G1 X-0.548S700
G1 X-0.185S0
G1 X-0.867S700
G1 X-1.667S0
G1 X-0.056Y0.05S0
G1 X1.666S0
G1 X1.001S700
G1 X0.108S0
G1 X0.548S700
G1 X1.667S0
G1 Y0.05S0
G1 X-1.667S0
G1 X-0.548S700
G1 X-0.06S0
G1 X-1.094S700
G1 X-1.667S0
G1 X-0.046Y0.05S0
G1 X1.667S0
G1 X1.189S700
G1 X0.011S0
G1 X0.548S700
G1 X1.667S0
G1 Y0.05S0
G1 X-1.667S0
G1 X-1.794S700
G1 X-1.667S0
G1 X-0.03Y0.05S0
G1 X1.666S0
G1 X1.825S700
G1 X1.667S0
G1 Y0.05S0
G1 X-1.667S0
G1 X-0.956S700
G1 X-0.085S0
G1 X-0.811S700
G1 X-1.667S0
G1 X-0.028Y0.05S0
G1 X1.667S0
G1 X0.687S700
G1 X0.384S0
G1 X0.809S700
G1 X1.667S0
G1 Y0.05S0
G1 X-1.667S0
G1 X-0.736S700
G1 X-0.532S0
G1 X-0.64S700
G1 X-1.666S0
G1 X-0.026Y0.05S0
G1 X1.667S0
G1 X0.614S700
G1 X0.632S0
G1 X0.687S700
G1 X1.667S0
G1 Y0.05S0
G1 X-1.667S0
G1 X-0.653S700
G1 X-0.707S0
G1 X-0.587S700
G1 X-1.667S0
G1 X-0.014Y0.05S0
G1 X1.667S0
G1 X0.575S700
G1 X0.76S0
G1 X0.626S700
G1 X1.667S0
G1 Y0.05S0
G1 X-1.667S0
G1 X-0.599S700
G1 X-0.812S0
G1 X-0.564S700
G1 X-1.667S0
G1 X-0.013Y0.05S0
G1 X1.666S0
G1 X0.563S700
G1 X0.846S0
G1 X0.58S700
G1 X1.667S0
G1 Y0.05S0
G1 X-1.667S0
G1 X-0.564S700
G1 X-0.869S0
G1 X-0.569S700
G1 X-1.667S0
G1 Y0.05S0
G1 X1.665S0
G1 X0.564S700
G1 X0.891S0
G1 X0.549S700
G1 X1.667S0
G1 Y0.05S0
G1 X-1.667S0
G1 X-0.538S700
G1 X-0.908S0
G1 X-0.56S700
G1 X-1.667S0
G1 Y0.05S0
G1 X1.665S0
G1 X0.557S700
G1 X0.919S0
G1 X0.532S700
G1 X1.667S0
G1 Y0.05S0
G1 X-1.667S0
G1 X-0.527S700
G1 X-0.929S0
G1 X-0.553S700
G1 X-1.667S0
G1 Y0.05S0
G1 X1.665S0
G1 X0.549S700
G1 X0.939S0
G1 X0.523S700
G1 X1.667S0
G1 Y0.05S0
G1 X-1.667S0
G1 X-0.527S700
G1 X-0.93S0
G1 X-0.553S700
G1 X-1.667S0
G1 Y0.05S0
G1 X1.669S0
G1 X0.555S700
G1 X0.921S0
G1 X0.532S700
G1 X1.667S0
G1 Y0.05S0
G1 X-1.667S0
G1 X-0.537S700
G1 X-0.911S0
G1 X-0.558S700
G1 X-1.666S0
G1 Y0.05S0
G1 X1.669S0
G1 X0.565S700
G1 X0.894S0
G1 X0.544S700
G1 X1.667S0
G1 Y0.05S0
G1 X-1.667S0
G1 X-0.552S700
G1 X-0.871S0
G1 X-0.578S700
G1 X-1.667S0
G1 X0.009Y0.05S0
G1 X1.667S0
G1 X0.583S700
G1 X0.849S0
G1 X0.56S700
G1 X1.667S0
G1 Y0.05S0
G1 X-1.667S0
G1 X-0.581S700
G1 X-0.81S0
G1 X-0.586S700
G1 X-1.667S0
G1 X0.015Y0.05S0
G1 X1.667S0
G1 X0.597S700
G1 X0.761S0
G1 X0.604S700
G1 X1.667S0
G1 Y0.05S0
G1 X-1.667S0
G1 X-0.635S700
G1 X-0.704S0
G1 X-0.609S700
G1 X-1.666S0
G1 X0.014Y0.05S0
G1 X1.667S0
G1 X0.627S700
G1 X0.631S0
G1 X0.675S700
G1 X1.667S0
G1 Y0.05S0
G1 X-1.667S0
G1 X-0.727S700
G1 X-0.523S0
G1 X-0.659S700
G1 X-1.666S0
G1 X0.029Y0.05S0
G1 X1.666S0
G1 X0.707S700
G1 X0.378S0
G1 X0.795S700
G1 X1.667S0
G1 Y0.05S0
G1 X-1.667S0
G1 X-1.851S700
G1 X-1.666S0
G1 X0.028Y0.05S0
G1 X1.667S0
G1 X1.822S700
G1 X1.667S0
G1 Y0.05S0
G1 X-1.667S0
G1 X-0.505S700
G1 X-0.021S0
G1 X-1.261S700
G1 X-1.667S0
G1 X0.048Y0.05S0
G1 X1.667S0
G1 X1.172S700
G1 X0.062S0
G1 X0.505S700
G1 X1.667S0
G1 Y0.05S0
G1 X-1.667S0
G1 X-0.505S700
G1 X-0.102S0
G1 X-1.085S700
G1 X-1.666S0
G1 X0.048Y0.05S0
G1 X1.666S0
G1 X0.98S700
G1 X0.159S0
G1 X0.505S700
G1 X1.667S0
G1 Y0.05S0
G1 X-1.667S0
G1 X-0.505S700
G1 X-0.238S0
G1 X-0.824S700
G1 X-1.667S0
G1 X0.095Y0.05S0
G1 X1.667S0
G1 X0.65S700
G1 X0.317S0
G1 X0.505S700
G1 X1.667S0
G1 X-0.977Y0.05S0
G1 X-1.666S0
G1 X-0.38S700
G1 X-1.667S0
M9
G1 S0
M5
; return to starting pos
G0 X1.011Y-2.881
M2
