; LightBurn 1.2.01
; GRBL device profile, current position
; Bounds: X-1.65 Y0.01 to X3.6 Y2.16
G00 G17 G40 G21 G54
G91
M4
; Cut @ 4999.998 mm/min, 0% power
M8
G0 X0Y0.049
; Layer Lim
G1 X1S0F5000
; Scan @ 4000.002 mm/min, 70% power
M8
G0 X-1.871Y-0.038
; Layer C02
G1 X1.667F4000S0
G1 X0.379S700
G1 X1.666S0
G1 X0.281Y0.05S0
G1 X-1.667S0
G1 X-0.914S700
G1 X-1.666S0
G1 X-0.099Y0.05S0
G1 X1.666S0
G1 X1.104S700
G1 X1.667S0
G1 X0.091Y0.05S0
G1 X-1.666S0
G1 X-1.284S700
G1 X-1.667S0
G1 X-0.075Y0.05S0
G1 X1.667S0
G1 X1.415S700
G1 X1.666S0
G1 X0.048Y0.05S0
G1 X-1.667S0
G1 X-1.509S700
G1 X-1.666S0
G1 X-0.046Y0.05S0
G1 X1.666S0
G1 X1.603S700
G1 X1.667S0
G1 X0.038Y0.05S0
G1 X-1.667S0
G1 X-1.687S700
G1 X-1.666S0
G1 X-0.037Y0.05S0
G1 X1.667S0
G1 X0.754S700
G1 X0.297S0
G1 X0.696S700
G1 X1.667S0
G1 X0.023Y0.05S0
G1 X-1.666S0
G1 X-0.583S700
G1 X-0.554S0
G1 X-0.657S700
G1 X-1.667S0
G1 X-0.022Y0.05S0
G1 X1.666S0
G1 X0.607S700
G1 X0.676S0
G1 X0.558S700
G1 X1.666S0
G1 X0.023Y0.05S0
G1 X-1.667S0
G1 X-0.552S700
G1 X-0.748S0
G1 X-0.586S700
G1 X-1.666S0
G1 X-0.023Y0.05S0
G1 X1.667S0
G1 X0.577S700
G1 X0.793S0
G1 X0.544S700
G1 X1.667S0
G1 Y0.05S0
G1 X-1.662S0
G1 X-0.559S700
G1 X-0.802S0
G1 X-0.425S700
G1 X-1.667S0
G1 X0.33Y0.05S0
G1 X1.666S0
G1 X0.079S700
G1 X0.803S0
G1 X0.581S700
G1 X1.666S0
G1 Y0.05S0
G1 X-1.669S0
G1 X-0.653S700
G1 X-1.667S0
G1 X-0.179Y0.05S0
G1 X1.667S0
G1 X0.82S700
G1 X1.667S0
G1 X-0.012Y0.05S0
G1 X-1.666S0
G1 X-1.022S700
G1 X-1.667S0
G1 X-0.177Y0.05S0
G1 X1.666S0
G1 X1.188S700
G1 X1.666S0
G1 X-0.031Y0.05S0
G1 X-1.667S0
G1 X-1.328S700
G1 X-1.666S0
G1 X-0.129Y0.05S0
G1 X1.666S0
G1 X1.425S700
G1 X1.667S0
G1 X-0.032Y0.05S0
G1 X-1.667S0
G1 X-1.471S700
G1 X-1.666S0
G1 X-0.063Y0.05S0
G1 X1.667S0
G1 X1.469S700
G1 X1.667S0
G1 X-0.064Y0.05S0
G1 X-1.667S0
G1 X-1.449S700
G1 X-1.667S0
G1 X-0.044Y0.05S0
G1 X1.666S0
G1 X1.369S700
G1 X1.666S0
G1 X-0.144Y0.05S0
G1 X-1.667S0
G1 X-1.253S700
G1 X-1.666S0
G1 X-0.024Y0.05S0
G1 X1.666S0
G1 X1.133S700
G1 X1.667S0
G1 X-0.162Y0.05S0
G1 X-1.666S0
G1 X-0.996S700
G1 X-1.666S0
G1 X-0.016Y0.05S0
G1 X1.667S0
G1 X0.829S700
G1 X1.667S0
G1 X-0.182Y0.05S0
G1 X-1.667S0
G1 X-0.65S700
G1 X-1.667S0
G1 Y0.05S0
G1 X1.664S0
G1 X0.549S700
G1 X1.667S0
G1 X0.921Y0.05S0
G1 X-1.667S0
G1 X-0.224S700
G1 X-0.732S0
G1 X-0.518S700
G1 X-1.666S0
G1 Y0.05S0
G1 X1.67S0
G1 X0.51S700
G1 X0.711S0
G1 X0.52S700
G1 X1.667S0
G1 X0.021Y0.05S0
G1 X-1.666S0
G1 X-0.58S700
G1 X-0.666S0
G1 X-0.503S700
G1 X-1.667S0
G1 X0.014Y0.05S0
G1 X1.667S0
G1 X0.555S700
G1 X0.546S0
G1 X0.611S700
G1 X1.666S0
G1 X-0.022Y0.05S0
G1 X-1.667S0
G1 X-0.695S700
G1 X-0.323S0
G1 X-0.657S700
G1 X-1.667S0
G1 X0.026Y0.05S0
G1 X1.667S0
G1 X1.626S700
G1 X1.667S0
G1 X-0.033Y0.05S0
G1 X-1.667S0
G1 X-1.558S700
G1 X-1.667S0
G1 X0.035Y0.05S0
G1 X1.666S0
G1 X1.476S700
G1 X1.667S0
G1 X-0.048Y0.05S0
G1 X-1.666S0
G1 X-1.383S700
G1 X-1.667S0
G1 X0.07Y0.05S0
G1 X1.667S0
G1 X1.265S700
G1 X1.667S0
G1 X-0.095Y0.05S0
G1 X-1.666S0
G1 X-1.102S700
G1 X-1.667S0
G1 X0.144Y0.05S0
G1 X1.667S0
G1 X0.862S700
G1 X1.666S0
G1 X-0.301Y0.05S0
G1 X-1.667S0
G1 X-0.321S700
G1 X-1.667S0
M9
G1 S0
M5
; return to starting pos
G0 X0.878Y-2.161
M2
