; LightBurn 1.2.01
; GRBL device profile, current position
; Bounds: X-1.67 Y0 to X2.89 Y2.8
G00 G17 G40 G21 G54
G91
M4
; Cut @ 5000 mm/min, 0% power
M8
G0 X0Y0.052
; Layer Lim
G1 X1S0F5000
; Scan @ 4000 mm/min, 70% power
M8
G0 X-1.885Y-0.049
; Layer C02
G1 X1.667F4000S0
G1 X0.102S700
G1 X1.667S0
G1 X0.226Y0.05S0
G1 X-1.666S0
G1 X-0.572S700
G1 X-1.667S0
G1 X-0.103Y0.05S0
G1 X1.666S0
G1 X0.785S700
G1 X1.666S0
G1 X-0.005Y0.05S0
G1 X-1.667S0
G1 X-0.825S700
G1 X-1.667S0
G1 X-0.035Y0.05S0
G1 X1.666S0
G1 X0.856S700
G1 X1.666S0
G1 X-0.005Y0.05S0
G1 X-1.667S0
G1 X-0.879S700
G1 X-1.666S0
G1 X-0.022Y0.05S0
G1 X1.667S0
G1 X0.895S700
G1 X1.666S0
G1 X-0.005Y0.05S0
G1 X-1.667S0
G1 X-0.911S700
G1 X-1.666S0
G1 X-0.012Y0.05S0
G1 X1.666S0
G1 X0.918S700
G1 X1.666S0
G1 X-0.005Y0.05S0
G1 X-1.667S0
G1 X-0.198S700
G1 X-0.723
G1 X-1.667S0
G1 X-0.01Y0.05S0
G1 X1.667S0
G1 X0.599S700
G1 X0.296S0
G1 X0.031S700
G1 X1.666S0
G1 X-0.36Y0.05S0
G1 X-1.667S0
G1 X-0.564S700
G1 X-1.667S0
G1 Y0.05S0
G1 X1.668S0
G1 X0.557S700
G1 X1.667S0
G1 Y0.05S0
G1 X-1.67S0
G1 X-0.553S700
G1 X-1.667S0
G1 Y0.05S0
G1 X1.667S0
G1 X0.549S700
G1 X1.666S0
G1 Y0.05S0
G1 X-1.666S0
G1 X-0.549S700
G1 X-1.667S0
G1 Y0.05S0
G1 X1.667S0
G1 X0.549S700
G1 X1.666S0
G1 Y0.05S0
G1 X-1.666S0
G1 X-0.549S700
G1 X-1.667S0
G1 Y0.05S0
G1 X1.667S0
G1 X0.549S700
G1 X1.666S0
G1 Y0.05S0
G1 X-1.666S0
G1 X-0.549S700
G1 X-1.667S0
G1 Y0.05S0
G1 X1.667S0
G1 X0.549S700
G1 X1.666S0
G1 Y0.05S0
G1 X-1.666S0
G1 X-0.55S700
G1 X-1.666S0
G1 Y0.05S0
G1 X1.666S0
G1 X0.55S700
G1 X1.667S0
G1 Y0.05S0
G1 X-1.667S0
G1 X-0.55S700
G1 X-1.666S0
G1 Y0.05S0
G1 X1.666S0
G1 X0.55S700
G1 X1.667S0
G1 Y0.05S0
G1 X-1.667S0
G1 X-0.55S700
G1 X-1.666S0
G1 Y0.05S0
G1 X1.666S0
G1 X0.55S700
G1 X1.667S0
G1 Y0.05S0
G1 X-1.667S0
G1 X-0.55S700
G1 X-1.667S0
G1 Y0.05S0
G1 X1.667S0
G1 X0.55S700
G1 X1.667S0
G1 Y0.05S0
G1 X-1.667S0
G1 X-0.55S700
G1 X-1.667S0
G1 Y0.05S0
G1 X1.667S0
G1 X0.55S700
G1 X1.667S0
G1 Y0.05S0
G1 X-1.667S0
G1 X-0.55S700
G1 X-1.667S0
G1 Y0.05S0
G1 X1.667S0
G1 X0.55S700
G1 X1.667S0
G1 Y0.05S0
G1 X-1.667S0
G1 X-0.55S700
G1 X-1.667S0
G1 X-0.252Y0.05S0
G1 X1.667S0
G1 X1.177S700
G1 X1.666S0
G1 Y0.05S0
G1 X-1.666S0
G1 X-1.177S700
G1 X-1.667S0
G1 Y0.05S0
G1 X1.667S0
G1 X1.177S700
G1 X1.666S0
G1 Y0.05S0
G1 X-1.666S0
G1 X-1.177S700
G1 X-1.667S0
G1 Y0.05S0
G1 X1.667S0
G1 X1.177S700
G1 X1.666S0
G1 Y0.05S0
G1 X-1.666S0
G1 X-1.177S700
G1 X-1.667S0
G1 Y0.05S0
G1 X1.667S0
G1 X1.177S700
G1 X1.666S0
G1 Y0.05S0
G1 X-1.666S0
G1 X-1.177S700
G1 X-1.667S0
G1 Y0.05S0
G1 X1.667S0
G1 X1.177S700
G1 X1.666S0
G1 X-0.374Y0.05S0
G1 X-1.667S0
G1 X-0.55S700
G1 X-1.667S0
G1 Y0.05S0
G1 X1.667S0
G1 X0.55S700
G1 X1.667S0
G1 Y0.05S0
G1 X-1.667S0
G1 X-0.55S700
G1 X-1.667S0
G1 Y0.05S0
G1 X1.667S0
G1 X0.55S700
G1 X1.667S0
G1 Y0.05S0
G1 X-1.667S0
G1 X-0.55S700
G1 X-1.667S0
G1 Y0.05S0
G1 X1.667S0
G1 X0.55S700
G1 X1.667S0
G1 Y0.05S0
G1 X-1.667S0
G1 X-0.55S700
G1 X-1.667S0
G1 Y0.05S0
G1 X1.667S0
G1 X0.55S700
G1 X1.667S0
G1 Y0.05S0
G1 X-1.667S0
G1 X-0.521S700
G1 X-1.666S0
G1 X0.085Y0.05S0
G1 X1.667S0
G1 X0.435S700
G1 X1.667S0
G1 Y0.05S0
G1 X-1.667S0
G1 X-0.349S700
G1 X-1.667S0
G1 X0.086Y0.05S0
G1 X1.667S0
G1 X0.263S700
G1 X1.667S0
G1 Y0.05S0
G1 X-1.667S0
G1 X-0.177S700
G1 X-1.667S0
G1 X0.086Y0.05S0
G1 X1.666S0
G1 X0.092S700
G1 X1.667S0
M9
G1 S0
M5
; return to starting pos
G0 X-2.469Y-2.803
M2
