; LightBurn 1.2.01
; GRBL device profile, current position
; Bounds: X-1.67 Y0.03 to X3.56 Y2.08
G00 G17 G40 G21 G54
G91
M4
; Cut @ 5000 mm/min, 0% power
M8
G0 X0.01Y0.047
; Layer Lim
G1 X1S0F5000
; Scan @ 4000 mm/min, 70% power
M8
G0 X-2.22Y-0.012
; Layer C02
G1 X1.667F4000S0
G1 X0.47S700
G1 X1.667S0
G1 X0.967Y0.05S0
G1 X-1.666S0
G1 X-0.509S700
G1 X-0.328S0
G1 X-0.718S700
G1 X-1.666S0
G1 X-0.081Y0.05S0
G1 X1.667S0
G1 X0.892S700
G1 X0.234S0
G1 X0.509S700
G1 X1.666S0
G1 Y0.05S0
G1 X-1.666S0
G1 X-0.509S700
G1 X-0.167S0
G1 X-1.013S700
G1 X-1.666S0
G1 X-0.048Y0.05S0
G1 X1.667S0
G1 X1.121S700
G1 X0.106S0
G1 X0.509S700
G1 X1.666S0
G1 Y0.05S0
G1 X-1.666S0
G1 X-0.509S700
G1 X-0.063S0
G1 X-1.2S700
G1 X-1.667S0
G1 X-0.031Y0.05S0
G1 X1.666S0
G1 X1.276S700
G1 X0.019S0
G1 X0.509S700
G1 X1.666S0
G1 Y0.05S0
G1 X-1.666S0
G1 X-1.826S700
G1 X-1.667S0
G1 X-0.022Y0.05S0
G1 X1.667S0
G1 X0.731S700
G1 X0.249S0
G1 X0.868S700
G1 X1.666S0
G1 Y0.05S0
G1 X-1.666S0
G1 X-0.759S700
G1 X-0.446S0
G1 X-0.655S700
G1 X-1.667S0
G1 X-0.012Y0.05S0
G1 X1.667S0
G1 X0.622S700
G1 X0.551S0
G1 X0.699S700
G1 X1.666S0
G1 Y0.05S0
G1 X-1.666S0
G1 X-0.649S700
G1 X-0.639S0
G1 X-0.589S700
G1 X-1.666S0
G1 Y0.05S0
G1 X1.664S0
G1 X0.577S700
G1 X0.682S0
G1 X0.62S700
G1 X1.666S0
G1 Y0.05S0
G1 X-1.666S0
G1 X-0.59S700
G1 X-0.725S0
G1 X-0.566S700
G1 X-1.667S0
G1 Y0.05S0
G1 X1.666S0
G1 X0.561S700
G1 X0.738S0
G1 X0.583S700
G1 X1.666S0
G1 Y0.05S0
G1 X-1.666S0
G1 X-0.576S700
G1 X-0.747S0
G1 X-0.56S700
G1 X-1.667S0
G1 Y0.05S0
G1 X1.666S0
G1 X0.559S700
G1 X0.756S0
G1 X0.569S700
G1 X1.666S0
G1 Y0.05S0
G1 X-1.666S0
G1 X-0.562S700
G1 X-0.765S0
G1 X-0.558S700
G1 X-1.666S0
G1 Y0.05S0
G1 X1.665S0
G1 X0.557S700
G1 X0.774S0
G1 X0.555S700
G1 X1.666S0
G1 Y0.05S0
G1 X-1.666S0
G1 X-0.551S700
G1 X-0.78S0
G1 X-0.556S700
G1 X-1.666S0
G1 Y0.05S0
G1 X1.665S0
G1 X0.555S700
G1 X0.782S0
G1 X0.551S700
G1 X1.666S0
G1 Y0.05S0
G1 X-1.666S0
G1 X-0.55S700
G1 X-0.785S0
G1 X-0.554S700
G1 X-1.666S0
G1 Y0.05S0
G1 X1.665S0
G1 X0.553S700
G1 X0.787S0
G1 X0.55S700
G1 X1.666S0
G1 Y0.05S0
G1 X-1.666S0
G1 X-0.549S700
G1 X-0.789S0
G1 X-0.553S700
G1 X-1.666S0
G1 Y0.05S0
G1 X1.665S0
G1 X0.552S700
G1 X0.791S0
G1 X0.549S700
G1 X1.666S0
G1 Y0.05S0
G1 X-1.666S0
G1 X-0.549S700
G1 X-0.793S0
G1 X-0.551S700
G1 X-1.666S0
G1 Y0.05S0
G1 X1.665S0
G1 X0.55S700
G1 X0.795S0
G1 X0.549S700
G1 X1.666S0
G1 Y0.05S0
G1 X-1.666S0
G1 X-0.549S700
G1 X-0.797S0
G1 X-0.549S700
G1 X-1.666S0
G1 Y0.05S0
G1 X1.667S0
G1 X0.547S700
G1 X0.798S0
G1 X0.549S700
G1 X1.666S0
G1 Y0.05S0
G1 X-1.666S0
G1 X-0.549S700
G1 X-0.797S0
G1 X-0.548S700
G1 X-1.666S0
G1 Y0.05S0
G1 X1.667S0
G1 X0.548S700
G1 X0.796S0
G1 X0.549S700
G1 X1.666S0
G1 Y0.05S0
G1 X-1.666S0
G1 X-0.549S700
G1 X-0.796S0
G1 X-0.547S700
G1 X-1.667S0
G1 Y0.05S0
G1 X1.667S0
G1 X0.548S700
G1 X0.795S0
G1 X0.549S700
G1 X1.666S0
G1 Y0.05S0
G1 X-1.666S0
G1 X-0.549S700
G1 X-0.794S0
G1 X-0.548S700
G1 X-1.667S0
G1 Y0.05S0
G1 X1.668S0
G1 X0.548S700
G1 X0.793S0
G1 X0.549S700
G1 X1.666S0
G1 Y0.05S0
G1 X-1.666S0
G1 X-0.549S700
G1 X-0.793S0
G1 X-0.548S700
G1 X-1.666S0
G1 Y0.05S0
G1 X1.667S0
G1 X0.548S700
G1 X0.792S0
G1 X0.549S700
G1 X1.666S0
G1 Y0.05S0
G1 X-1.666S0
G1 X-0.549S700
G1 X-0.791S0
G1 X-0.548S700
G1 X-1.667S0
G1 Y0.05S0
G1 X1.667S0
G1 X0.548S700
G1 X0.791S0
G1 X0.549S700
G1 X1.666S0
G1 Y0.05S0
G1 X-1.666S0
G1 X-0.549S700
G1 X-0.79S0
G1 X-0.548S700
G1 X-1.667S0
G1 Y0.05S0
G1 X1.668S0
G1 X0.548S700
G1 X0.789S0
G1 X0.549S700
G1 X1.666S0
G1 Y0.05S0
G1 X-1.666S0
G1 X-0.549S700
G1 X-0.788S0
G1 X-0.549S700
G1 X-1.666S0
M9
G1 S0
M5
; return to starting pos
G0 X1.657Y-2.085
M2
