; LightBurn 1.2.01
; GRBL device profile, current position
; Bounds: X-1.66 Y0 to X4.75 Y2.06
G00 G17 G40 G21 G54
G91
M4
; Cut @ 5000 mm/min, 0% power
M8
G0 X0Y0
; Layer Lim
G1 X1S0F5000
; Scan @ 4000 mm/min, 70% power
M8
G0 X-2.014Y0.011
; Layer C02
G1 X1.666F4000S0
G1 X0.54S700
G1 X0.702S0
G1 X0.534S700
G1 X1.666S0
G1 X0.016Y0.05S0
G1 X-1.666S0
G1 X-0.563S700
G1 X-0.676S0
G1 X-0.569S700
G1 X-1.666S0
G1 X-0.016Y0.05S0
G1 X1.667S0
G1 X0.597S700
G1 X0.649S0
G1 X0.593S700
G1 X1.666S0
G1 X0.016Y0.05S0
G1 X-1.666S0
G1 X-0.622S700
G1 X-0.623S0
G1 X-0.626S700
G1 X-1.667S0
G1 X-0.016Y0.05S0
G1 X1.667S0
G1 X0.655S700
G1 X0.597S0
G1 X0.651S700
G1 X1.666S0
G1 X0.017Y0.05S0
G1 X-1.667S0
G1 X-0.681S700
G1 X-0.569S0
G1 X-0.685S700
G1 X-1.667S0
G1 X-0.015Y0.05S0
G1 X1.666S0
G1 X0.714S700
G1 X0.543S0
G1 X0.71S700
G1 X1.667S0
G1 X0.016Y0.05S0
G1 X-1.667S0
G1 X-0.74S700
G1 X-0.516S0
G1 X-0.743S700
G1 X-1.666S0
G1 X-0.016Y0.05S0
G1 X1.667S0
G1 X0.771S700
G1 X0.49S0
G1 X0.769S700
G1 X1.667S0
G1 X0.016Y0.05S0
G1 X-1.667S0
G1 X-0.798S700
G1 X-0.464S0
G1 X-0.8S700
G1 X-1.667S0
G1 X-0.016Y0.05S0
G1 X1.667S0
G1 X0.829S700
G1 X0.437S0
G1 X0.828S700
G1 X1.667S0
G1 X0.016Y0.05S0
G1 X-1.667S0
G1 X-0.857S700
G1 X-0.41S0
G1 X-0.859S700
G1 X-1.666S0
G1 X-0.016Y0.05S0
G1 X1.666S0
G1 X0.888S700
G1 X0.383S0
G1 X0.887S700
G1 X1.667S0
G1 X0.016Y0.05S0
G1 X-1.667S0
G1 X-0.916S700
G1 X-0.357S0
G1 X-0.916S700
G1 X-1.667S0
G1 X-0.016Y0.05S0
G1 X1.667S0
G1 X0.945S700
G1 X0.331S0
G1 X0.945S700
G1 X1.667S0
G1 X0.016Y0.05S0
G1 X-1.667S0
G1 X-0.501S700
G1 X-0.026S0
G1 X-0.448S700
G1 X-0.304S0
G1 X-0.455S700
G1 X-0.026S0
G1 X-0.493S700
G1 X-1.667S0
G1 X-0.016Y0.05S0
G1 X1.667S0
G1 X0.495S700
G1 X0.053S0
G1 X0.456S700
G1 X0.277S0
G1 X0.448S700
G1 X0.053S0
G1 X0.503S700
G1 X1.667S0
G1 X0.016Y0.05S0
G1 X-1.666S0
G1 X-0.505S700
G1 X-0.08S0
G1 X-0.45S700
G1 X-0.25S0
G1 X-0.456S700
G1 X-0.081S0
G1 X-0.496S700
G1 X-1.666S0
G1 X-0.016Y0.05S0
G1 X1.667S0
G1 X0.497S700
G1 X0.108S0
G1 X0.456S700
G1 X0.224S0
G1 X0.45S700
G1 X0.107S0
G1 X0.507S700
G1 X1.666S0
G1 X0.016Y0.05S0
G1 X-1.666S0
G1 X-0.508S700
G1 X-0.135S0
G1 X-0.45S700
G1 X-0.198S0
G1 X-0.456S700
G1 X-0.135S0
G1 X-0.499S700
G1 X-1.667S0
G1 X-0.016Y0.05S0
G1 X1.667S0
G1 X0.5S700
G1 X0.163S0
G1 X0.456S700
G1 X0.171S0
G1 X0.451S700
G1 X0.162S0
G1 X0.51S700
G1 X1.666S0
G1 X0.016Y0.05S0
G1 X-1.666S0
G1 X-0.511S700
G1 X-0.189S0
G1 X-0.452S700
G1 X-0.144S0
G1 X-0.457S700
G1 X-0.19S0
G1 X-0.502S700
G1 X-1.667S0
G1 X-0.015Y0.05S0
G1 X1.666S0
G1 X0.504S700
G1 X0.218S0
G1 X0.456S700
G1 X0.117S0
G1 X0.453S700
G1 X0.217S0
G1 X0.512S700
G1 X1.667S0
G1 X0.016Y0.05S0
G1 X-1.667S0
G1 X-0.514S700
G1 X-0.244S0
G1 X-0.453S700
G1 X-0.091S0
G1 X-0.456S700
G1 X-0.246S0
G1 X-0.505S700
G1 X-1.666S0
G1 X-0.016Y0.05S0
G1 X1.667S0
G1 X0.506S700
G1 X0.273S0
G1 X0.456S700
G1 X0.065S0
G1 X0.454S700
G1 X0.271S0
G1 X0.515S700
G1 X1.667S0
G1 X0.016Y0.05S0
G1 X-1.667S0
G1 X-0.517S700
G1 X-0.298S0
G1 X-0.455S700
G1 X-0.038S0
G1 X-0.456S700
G1 X-0.3S0
G1 X-0.508S700
G1 X-1.667S0
G1 X-0.016Y0.05S0
G1 X1.667S0
G1 X0.51S700
G1 X0.327S0
G1 X0.456S700
G1 X0.012S0
G1 X0.455S700
G1 X0.326S0
G1 X0.518S700
G1 X1.667S0
G1 X0.016Y0.05S0
G1 X-1.667S0
G1 X-0.52S700
G1 X-0.353S0
G1 X-0.897S700
G1 X-0.355S0
G1 X-0.511S700
G1 X-1.667S0
G1 X-0.015Y0.05S0
G1 X1.666S0
G1 X0.513S700
G1 X0.382S0
G1 X0.872S700
G1 X0.38S0
G1 X0.521S700
G1 X1.667S0
G1 X0.016Y0.05S0
G1 X-1.667S0
G1 X-0.523S700
G1 X-0.407S0
G1 X-0.845S700
G1 X-0.41S0
G1 X-0.514S700
G1 X-1.667S0
G1 X-0.016Y0.05S0
G1 X1.667S0
G1 X0.515S700
G1 X0.438S0
G1 X0.819S700
G1 X0.435S0
G1 X0.524S700
G1 X1.667S0
G1 X0.016Y0.05S0
G1 X-1.667S0
G1 X-0.525S700
G1 X-0.462S0
G1 X-0.794S700
G1 X-0.465S0
G1 X-0.517S700
G1 X-1.667S0
G1 X-0.016Y0.05S0
G1 X1.667S0
G1 X0.519S700
G1 X0.492S0
G1 X0.768S700
G1 X0.489S0
G1 X0.527S700
G1 X1.667S0
G1 X0.016Y0.05S0
G1 X-1.667S0
G1 X-0.528S700
G1 X-0.517S0
G1 X-0.742S700
G1 X-0.52S0
G1 X-0.52S700
G1 X-1.666S0
G1 X-0.016Y0.05S0
G1 X1.666S0
G1 X0.522S700
G1 X0.547S0
G1 X0.716S700
G1 X0.544S0
G1 X0.531S700
G1 X1.666S0
G1 X0.016Y0.05S0
G1 X-1.666S0
G1 X-0.532S700
G1 X-0.571S0
G1 X-0.691S700
G1 X-0.574S0
G1 X-0.523S700
G1 X-1.667S0
G1 X-0.016Y0.05S0
G1 X1.667S0
G1 X0.525S700
G1 X0.602S0
G1 X0.664S700
G1 X0.598S0
G1 X0.534S700
G1 X1.666S0
G1 X0.016Y0.05S0
G1 X-1.666S0
G1 X-0.535S700
G1 X-0.626S0
G1 X-0.638S700
G1 X-0.63S0
G1 X-0.526S700
G1 X-1.667S0
G1 X-0.015Y0.05S0
G1 X1.666S0
G1 X0.528S700
G1 X0.657S0
G1 X0.613S700
G1 X0.653S0
G1 X0.536S700
G1 X1.666S0
G1 X0.016Y0.05S0
G1 X-1.666S0
G1 X-0.538S700
G1 X-0.68S0
G1 X-0.587S700
G1 X-0.684S0
G1 X-0.53S700
G1 X-1.666S0
G1 X-0.016Y0.05S0
G1 X1.667S0
G1 X0.53S700
G1 X0.712S0
G1 X0.561S700
G1 X0.708S0
G1 X0.539S700
G1 X1.667S0
G1 X0.016Y0.05S0
G1 X-1.667S0
G1 X-0.541S700
G1 X-0.735S0
G1 X-0.535S700
G1 X-0.739S0
G1 X-0.532S700
G1 X-1.667S0
M9
G1 S0
M5
; return to starting pos
G0 X1.663Y-2.061
M2
