; LightBurn 1.2.01
; GRBL device profile, current position
; Bounds: X-1.67 Y0 to X3.52 Y2.06
G00 G17 G40 G21 G54
G91
M4
; Cut @ 5000 mm/min, 0% power
M8
G0 X0Y0
; Layer Lim
G1 X1S0F5000
; Scan @ 4000 mm/min, 70% power
M8
G0 X-2.667Y0.011
; Layer C02
G1 X1.667F4000S0
G1 X1.851S700
G1 X1.666S0
G1 Y0.05S0
G1 X-1.666S0
G1 X-1.851S700
G1 X-1.667S0
G1 Y0.05S0
G1 X1.667S0
G1 X1.851S700
G1 X1.666S0
G1 Y0.05S0
G1 X-1.666S0
G1 X-1.851S700
G1 X-1.667S0
G1 Y0.05S0
G1 X1.667S0
G1 X1.851S700
G1 X1.666S0
G1 Y0.05S0
G1 X-1.666S0
G1 X-1.851S700
G1 X-1.667S0
G1 Y0.05S0
G1 X1.667S0
G1 X1.851S700
G1 X1.666S0
G1 Y0.05S0
G1 X-1.666S0
G1 X-1.851S700
G1 X-1.667S0
G1 Y0.05S0
G1 X1.667S0
G1 X1.851S700
G1 X1.666S0
G1 Y0.05S0
G1 X-1.666S0
G1 X-1.821S700
G1 X-1.667S0
G1 X0.043Y0.05S0
G1 X1.667S0
G1 X0.685S700
G1 X1.667S0
G1 X0.046Y0.05S0
G1 X-1.667S0
G1 X-0.688S700
G1 X-1.667S0
G1 X0.044Y0.05S0
G1 X1.666S0
G1 X0.691S700
G1 X1.667S0
G1 X0.046Y0.05S0
G1 X-1.666S0
G1 X-0.694S700
G1 X-1.667S0
G1 X0.043Y0.05S0
G1 X1.667S0
G1 X0.697S700
G1 X1.666S0
G1 X0.047Y0.05S0
G1 X-1.667S0
G1 X-0.7S700
G1 X-1.667S0
G1 X0.044Y0.05S0
G1 X1.666S0
G1 X0.701S700
G1 X1.667S0
G1 X0.043Y0.05S0
G1 X-1.667S0
G1 X-0.701S700
G1 X-1.666S0
G1 X0.043Y0.05S0
G1 X1.667S0
G1 X0.701S700
G1 X1.666S0
G1 X0.044Y0.05S0
G1 X-1.667S0
G1 X-0.701S700
G1 X-1.667S0
G1 X0.044Y0.05S0
G1 X1.667S0
G1 X0.7S700
G1 X1.667S0
G1 X0.043Y0.05S0
G1 X-1.666S0
G1 X-0.7S700
G1 X-1.666S0
G1 X0.044Y0.05S0
G1 X1.666S0
G1 X0.699S700
G1 X1.667S0
G1 X0.043Y0.05S0
G1 X-1.667S0
G1 X-0.697S700
G1 X-1.667S0
G1 X0.044Y0.05S0
G1 X1.667S0
G1 X0.697S700
G1 X1.667S0
G1 X0.043Y0.05S0
G1 X-1.667S0
G1 X-0.696S700
G1 X-1.667S0
G1 X0.044Y0.05S0
G1 X1.667S0
G1 X0.696S700
G1 X1.666S0
G1 X0.044Y0.05S0
G1 X-1.667S0
G1 X-0.695S700
G1 X-1.666S0
G1 X0.044Y0.05S0
G1 X1.667S0
G1 X0.693S700
G1 X1.667S0
G1 X0.043Y0.05S0
G1 X-1.666S0
G1 X-0.693S700
G1 X-1.667S0
G1 X0.045Y0.05S0
G1 X1.666S0
G1 X0.692S700
G1 X1.667S0
G1 X0.043Y0.05S0
G1 X-1.667S0
G1 X-0.687S700
G1 X-1.667S0
G1 X0.047Y0.05S0
G1 X1.667S0
G1 X0.684S700
G1 X1.667S0
G1 X0.043Y0.05S0
G1 X-1.667S0
G1 X-1.694S700
G1 X-1.666S0
G1 Y0.05S0
G1 X1.666S0
G1 X1.714S700
G1 X1.667S0
G1 Y0.05S0
G1 X-1.667S0
G1 X-1.714S700
G1 X-1.666S0
G1 Y0.05S0
G1 X1.666S0
G1 X1.714S700
G1 X1.667S0
G1 Y0.05S0
G1 X-1.667S0
G1 X-1.714S700
G1 X-1.666S0
G1 Y0.05S0
G1 X1.666S0
G1 X1.714S700
G1 X1.667S0
G1 Y0.05S0
G1 X-1.667S0
G1 X-1.714S700
G1 X-1.666S0
G1 Y0.05S0
G1 X1.666S0
G1 X1.714S700
G1 X1.667S0
G1 Y0.05S0
G1 X-1.667S0
G1 X-1.714S700
G1 X-1.666S0
M9
G1 S0
M5
; return to starting pos
G0 X1.59Y-2.061
M2
