; LightBurn 1.2.01
; GRBL device profile, current position
; Bounds: X-1.66 Y0 to X3.61 Y2.95
G00 G17 G40 G21 G54
G91
M4
; Cut @ 5000 mm/min, 0% power
M8
G0 X0.004Y0.047
; Layer Lim
G1 X1S0F5000
; Scan @ 4000 mm/min, 70% power
M8
G0 X-2.027Y-0.044
; Layer C02
G1 X1.667F4000S0
G1 X0.083S700
G1 X1.666S0
G1 X1.221Y0.05S0
G1 X-1.667S0
G1 X-0.542S700
G1 X-0.414S0
G1 X-0.599S700
G1 X-1.667S0
G1 X-0.103Y0.05S0
G1 X1.667S0
G1 X0.813S700
G1 X0.285S0
G1 X0.539S700
G1 X1.667S0
G1 X-0.021Y0.05S0
G1 X-1.667S0
G1 X-0.533S700
G1 X-0.187S0
G1 X-0.959S700
G1 X-1.666S0
G1 X-0.063Y0.05S0
G1 X1.667S0
G1 X1.09S700
G1 X0.102S0
G1 X0.531S700
G1 X1.666S0
G1 X-0.01Y0.05S0
G1 X-1.667S0
G1 X-0.535S700
G1 X-0.029S0
G1 X-1.183S700
G1 X-1.667S0
G1 X-0.034Y0.05S0
G1 X1.667S0
G1 X1.771S700
G1 X1.667S0
G1 X-0.011Y0.05S0
G1 X-1.666S0
G1 X-1.795S700
G1 X-1.666S0
G1 X-0.019Y0.05S0
G1 X1.666S0
G1 X0.725S700
G1 X0.18S0
G1 X0.899S700
G1 X1.666S0
G1 X-0.01Y0.05S0
G1 X-1.667S0
G1 X-0.754S700
G1 X-0.422S0
G1 X-0.628S700
G1 X-1.666S0
G1 X-0.012Y0.05S0
G1 X1.667S0
G1 X0.6S700
G1 X0.534S0
G1 X0.679S700
G1 X1.667S0
G1 Y0.05S0
G1 X-1.669S0
G1 X-0.634S700
G1 X-0.616S0
G1 X-0.572S700
G1 X-1.667S0
G1 X-0.007Y0.05S0
G1 X1.667S0
G1 X0.561S700
G1 X0.665S0
G1 X0.601S700
G1 X1.667S0
G1 Y0.05S0
G1 X-1.668S0
G1 X-0.569S700
G1 X-0.707S0
G1 X-0.542S700
G1 X-1.667S0
G1 X0.008Y0.05S0
G1 X1.667S0
G1 X0.539S700
G1 X0.715S0
G1 X0.554S700
G1 X1.667S0
G1 Y0.05S0
G1 X-1.668S0
G1 X-0.546S700
G1 X-0.707S0
G1 X-0.546S700
G1 X-1.667S0
G1 X0.008Y0.05S0
G1 X1.666S0
G1 X0.564S700
G1 X0.689S0
G1 X0.54S700
G1 X1.666S0
G1 Y0.05S0
G1 X-1.666S0
G1 X-0.535S700
G1 X-0.641S0
G1 X-0.589S700
G1 X-1.667S0
G1 X0.029Y0.05S0
G1 X1.667S0
G1 X0.688S700
G1 X0.513S0
G1 X0.536S700
G1 X1.666S0
G1 Y0.05S0
G1 X-1.666S0
G1 X-0.535S700
G1 X-0.368S0
G1 X-0.805S700
G1 X-1.667S0
G1 X0.034Y0.05S0
G1 X1.666S0
G1 X0.967S700
G1 X0.173S0
G1 X0.536S700
G1 X1.666S0
G1 Y0.05S0
G1 X-1.666S0
G1 X-1.612S700
G1 X-1.667S0
G1 X0.064Y0.05S0
G1 X1.667S0
G1 X1.548S700
G1 X1.667S0
G1 Y0.05S0
G1 X-1.666S0
G1 X-1.468S700
G1 X-1.666S0
G1 X0.173Y0.05S0
G1 X1.666S0
G1 X1.295S700
G1 X1.667S0
G1 Y0.05S0
G1 X-1.666S0
G1 X-1.088S700
G1 X-1.666S0
G1 X0.196Y0.05S0
G1 X1.667S0
G1 X0.891S700
G1 X1.667S0
G1 Y0.05S0
G1 X-1.666S0
G1 X-0.709S700
G1 X-1.666S0
G1 X0.17Y0.05S0
G1 X1.666S0
G1 X0.541S700
G1 X1.667S0
G1 Y0.05S0
G1 X-1.664S0
G1 X-0.544S700
G1 X-1.666S0
G1 X-0.824Y0.05S0
G1 X1.667S0
G1 X0.097S700
G1 X0.722S0
G1 X0.551S700
G1 X1.667S0
G1 Y0.05S0
G1 X-1.671S0
G1 X-0.551S700
G1 X-0.694S0
G1 X-0.398S700
G1 X-1.667S0
G1 X-0.122Y0.05S0
G1 X1.666S0
G1 X0.545S700
G1 X0.647S0
G1 X0.568S700
G1 X1.667S0
G1 X-0.006Y0.05S0
G1 X-1.667S0
G1 X-0.591S700
G1 X-0.568S0
G1 X-0.578S700
G1 X-1.667S0
G1 X0.016Y0.05S0
G1 X1.667S0
G1 X0.631S700
G1 X0.433S0
G1 X0.643S700
G1 X1.666S0
G1 X-0.015Y0.05S0
G1 X-1.666S0
G1 X-0.871S700
G1 X-0.025S0
G1 X-0.77S700
G1 X-1.667S0
G1 X0.027Y0.05S0
G1 X1.666S0
G1 X1.622S700
G1 X1.667S0
G1 X-0.026Y0.05S0
G1 X-1.666S0
G1 X-1.563S700
G1 X-1.667S0
G1 X0.039Y0.05S0
G1 X1.667S0
G1 X1.498S700
G1 X1.666S0
G1 X-0.045Y0.05S0
G1 X-1.667S0
G1 X-1.406S700
G1 X-1.666S0
G1 X0.055Y0.05S0
G1 X1.667S0
G1 X1.291S700
G1 X1.667S0
G1 X-0.076Y0.05S0
G1 X-1.667S0
G1 X-1.126S700
G1 X-1.667S0
G1 X0.11Y0.05S0
G1 X1.667S0
G1 X0.923S700
G1 X1.667S0
G1 X-0.206Y0.05S0
G1 X-1.667S0
G1 X-0.533S700
G1 X-1.667S0
G1 X-0.389Y0.35S0
G1 X1.666S0
G1 X0.471S700
G1 X0.368S0
G1 X0.473S700
G1 X1.667S0
G1 Y0.05S0
G1 X-1.667S0
G1 X-0.473S700
G1 X-0.368S0
G1 X-0.471S700
G1 X-1.666S0
G1 Y0.05S0
G1 X1.666S0
G1 X0.471S700
G1 X0.368S0
G1 X0.473S700
G1 X1.667S0
G1 Y0.05S0
G1 X-1.667S0
G1 X-0.473S700
G1 X-0.368S0
G1 X-0.471S700
G1 X-1.666S0
G1 Y0.05S0
G1 X1.666S0
G1 X0.471S700
G1 X0.368S0
G1 X0.473S700
G1 X1.667S0
G1 Y0.05S0
G1 X-1.667S0
G1 X-0.473S700
G1 X-0.368S0
G1 X-0.471S700
G1 X-1.666S0
G1 Y0.05S0
G1 X1.666S0
G1 X0.471S700
G1 X0.368S0
G1 X0.473S700
G1 X1.667S0
G1 Y0.05S0
G1 X-1.667S0
G1 X-0.473S700
G1 X-0.368S0
G1 X-0.471S700
G1 X-1.666S0
G1 Y0.05S0
G1 X1.666S0
G1 X0.471S700
G1 X0.368S0
G1 X0.473S700
G1 X1.667S0
G1 Y0.05S0
G1 X-1.667S0
G1 X-0.473S700
G1 X-0.368S0
G1 X-0.471S700
G1 X-1.666S0
M9
G1 S0
M5
; return to starting pos
G0 X1.344Y-2.953
M2
